;Generated by Cura LulzBot Edition GCodeWriter Version: 3.6.20
;FLAVOR:Marlin
;TIME:1687
;Filament used: 0.95168m
;Layer height: 0.35
;Generated with Cura_SteamEngine 3.6.20
M82 ;absolute extrusion mode
;This G-Code has been generated specifically for the LulzBot TAZ Workhorse with HE 0.5mm Tool Head
M73 P0 ; clear GLCD progress bar
M75 ; start GLCD timer
G26 ; clear potential 'probe fail' condition
M107 ; disable fans
M420 S0 ; disable previous leveling matrix
G90 ; absolute positioning
M82 ; set extruder to absolute mode
G92 E0 ; set extruder position to 0
M140 S55.0 ; start bed heating up
M109 R180 ; soften filament before homing Z
G28 ; Home all axis
G1 E-30 F100 ; retract filament
M109 R170 ; wait for extruder to reach wiping temp
G1 X-15 Y100 F3000 ; move above wiper pad
G1 Z1 ; push nozzle into wiper
G1 X-17 Y95 F1000 ; slow wipe
G1 X-17 Y90 F1000 ; slow wipe
G1 X-17 Y85 F1000 ; slow wipe
G1 X-15 Y90 F1000 ; slow wipe
G1 X-17 Y80 F1000 ; slow wipe
G1 X-15 Y95 F1000 ; slow wipe
G1 X-17 Y75 F2000 ; fast wipe
G1 X-15 Y65 F2000 ; fast wipe
G1 X-17 Y70 F2000 ; fast wipe
G1 X-15 Y60 F2000 ; fast wipe
G1 X-17 Y55 F2000 ; fast wipe
G1 X-15 Y50 F2000 ; fast wipe
G1 X-17 Y40 F2000 ; fast wipe
G1 X-15 Y45 F2000 ; fast wipe
G1 X-17 Y35 F2000 ; fast wipe
G1 X-15 Y40 F2000 ; fast wipe
G1 X-17 Y70 F2000 ; fast wipe
G1 X-15 Y30 Z2 F2000 ; fast wipe
G1 X-17 Y35 F2000 ; fast wipe
G1 X-15 Y25 F2000 ; fast wipe
G1 X-17 Y30 F2000 ; fast wipe
G1 X-15 Y25 Z1.5 F1000 ; slow wipe
G1 X-17 Y23 F1000 ; slow wipe
G1 Z10 ; raise extruder
M109 R160 ; wait for extruder to reach probe temp
G1 X-9 Y-9 ; move above first probe point
M204 S100 ; set probing acceleration
G29       ; start auto-leveling sequence
M420 S1   ; activate bed level matrix
M425 Z    ; use measured Z backlash for compensation
M425 Z F0 ; turn off measured Z backlash compensation. (if activated in the quality settings, this command will automatically be ignored)
M204 S500 ; restore standard acceleration
G1 X0 Y0 Z15 F5000 ; move up off last probe point
G4 S1 ; pause
M400 ; wait for moves to finish
M117 Heating... ; progress indicator message on LCD
M109 R215 ; wait for extruder to reach printing temp
M190 R55.0 ; wait for bed to reach printing temp
G1 Z2 E0 F75 ; prime tiny bit of filament into the nozzle
M117 TAZ Workhorse Printing... ; progress indicator message on LCD

M221 S100 T0
G92 E0
G1 F600 E-2
;LAYER_COUNT:20
;LAYER:0
M107
G0 F4200 X149.95 Y147.65 Z0.4
;TYPE:SKIRT
G1 F900 E0
G1 X149.95 Y134.35 E0.41697
G1 X152.45 Y134.35 E0.49534
G1 X152.45 Y147.65 E0.91231
G1 X149.95 Y147.65 E0.99069
G0 F4200 X149.45 Y148.15
G1 F900 X149.45 Y133.85 E1.43901
G1 X152.95 Y133.85 E1.54874
G1 X152.95 Y148.15 E1.99705
G1 X149.45 Y148.15 E2.10678
G0 F4200 X148.95 Y148.65
G1 F900 X148.95 Y133.35 E2.58645
G1 X153.45 Y133.35 E2.72753
G1 X153.45 Y148.65 E3.2072
G1 X148.95 Y148.65 E3.34828
G0 F4200 X148.45 Y149.15
G1 F900 X148.45 Y132.85 E3.8593
G1 X153.95 Y132.85 E4.03173
G1 X153.95 Y149.15 E4.54275
G1 X148.45 Y149.15 E4.71518
G0 F4200 X147.95 Y149.65
G1 F900 X147.95 Y132.35 E5.25755
G1 X154.45 Y132.35 E5.46133
G1 X154.45 Y149.65 E6.0037
G1 X147.95 Y149.65 E6.20748
G0 F4200 X147.45 Y150.15
G1 F900 X147.45 Y131.85 E6.78121
G1 X154.95 Y131.85 E7.01634
G1 X154.95 Y150.15 E7.59006
G1 X147.45 Y150.15 E7.82519
G0 F4200 X146.95 Y150.65
G1 F900 X146.95 Y131.35 E8.43026
G1 X155.45 Y131.35 E8.69675
G1 X155.45 Y150.65 E9.30182
G1 X146.95 Y150.65 E9.5683
G0 F4200 X146.45 Y151.15
G1 F900 X146.45 Y130.85 E10.20473
G1 X155.95 Y130.85 E10.50256
G1 X155.95 Y151.15 E11.13898
G1 X146.45 Y151.15 E11.43682
G0 F4200 X145.95 Y151.65
G1 F900 X145.95 Y130.35 E12.10459
G1 X156.45 Y130.35 E12.43378
G1 X156.45 Y151.65 E13.10155
G1 X145.95 Y151.65 E13.43074
G0 F4200 X145.45 Y152.15
G1 F900 X145.45 Y129.85 E14.12986
G1 X156.95 Y129.85 E14.4904
G1 X156.95 Y152.15 E15.18952
G1 X145.45 Y152.15 E15.55006
G0 F4200 X145.2 Y152.65
G1 F900 X145.066 Y152.611 E15.55444
G1 X144.973 Y152.505 E15.55886
G1 X144.95 Y152.4 E15.56223
G1 X144.95 Y129.6 E16.27703
G1 X144.989 Y129.466 E16.2814
G1 X145.095 Y129.373 E16.28582
G1 X145.2 Y129.35 E16.28919
G1 X157.2 Y129.35 E16.6654
G1 X157.334 Y129.389 E16.66978
G1 X157.427 Y129.495 E16.6742
G1 X157.45 Y129.6 E16.67757
G1 X157.45 Y152.4 E17.39237
G1 X157.411 Y152.534 E17.39675
G1 X157.305 Y152.627 E17.40117
G1 X157.2 Y152.65 E17.40454
G1 X145.2 Y152.65 E17.78075
G0 F4200 X145.2 Y153.15
G1 F900 X144.959 Y153.11 E17.78841
G1 X144.744 Y152.995 E17.79605
G1 X144.577 Y152.817 E17.8037
G1 X144.476 Y152.595 E17.81135
G1 X144.45 Y152.4 E17.81752
G1 X144.45 Y129.6 E18.53232
G1 X144.49 Y129.359 E18.53998
G1 X144.605 Y129.144 E18.54762
G1 X144.783 Y128.977 E18.55527
G1 X145.005 Y128.876 E18.56292
G1 X145.2 Y128.85 E18.56909
G1 X157.2 Y128.85 E18.9453
G1 X157.441 Y128.89 E18.95296
G1 X157.656 Y129.005 E18.9606
G1 X157.823 Y129.183 E18.96825
G1 X157.924 Y129.405 E18.9759
G1 X157.95 Y129.6 E18.98207
G1 X157.95 Y152.4 E19.69687
G1 X157.91 Y152.641 E19.70453
G1 X157.795 Y152.856 E19.71217
G1 X157.617 Y153.023 E19.71982
G1 X157.395 Y153.124 E19.72747
G1 X157.2 Y153.15 E19.73364
G1 X145.2 Y153.15 E20.10985
G0 F4200 X145.2 Y153.65
G1 F900 X144.887 Y153.61 E20.11974
G1 X144.594 Y153.493 E20.12963
G1 X144.339 Y153.307 E20.13953
G1 X144.14 Y153.062 E20.14942
G1 X144.008 Y152.775 E20.15933
G1 X143.95 Y152.4 E20.17122
G1 X143.95 Y129.6 E20.88603
G1 X143.99 Y129.287 E20.89592
G1 X144.107 Y128.994 E20.90581
G1 X144.293 Y128.739 E20.9157
G1 X144.538 Y128.54 E20.9256
G1 X144.825 Y128.408 E20.9355
G1 X145.2 Y128.35 E20.9474
G1 X157.2 Y128.35 E21.32361
G1 X157.513 Y128.39 E21.3335
G1 X157.806 Y128.507 E21.34339
G1 X158.061 Y128.693 E21.35329
G1 X158.26 Y128.938 E21.36319
G1 X158.392 Y129.225 E21.37309
G1 X158.45 Y129.6 E21.38499
G1 X158.45 Y152.4 E22.09979
G1 X158.41 Y152.713 E22.10968
G1 X158.293 Y153.006 E22.11957
G1 X158.107 Y153.261 E22.12947
G1 X157.862 Y153.46 E22.13936
G1 X157.575 Y153.592 E22.14926
G1 X157.2 Y153.65 E22.16116
G1 X145.2 Y153.65 E22.53737
G0 F4200 X145.2 Y154.15
G1 F900 X144.829 Y154.11 E22.54907
G1 X144.474 Y153.992 E22.5608
G1 X144.152 Y153.802 E22.57252
G1 X143.879 Y153.548 E22.58421
G1 X143.665 Y153.241 E22.59594
G1 X143.522 Y152.896 E22.60765
G1 X143.45 Y152.4 E22.62336
G1 X143.45 Y129.6 E23.33817
G1 X143.49 Y129.229 E23.34986
G1 X143.608 Y128.874 E23.36159
G1 X143.798 Y128.552 E23.37331
G1 X144.052 Y128.279 E23.385
G1 X144.359 Y128.065 E23.39674
G1 X144.704 Y127.922 E23.40845
G1 X145.2 Y127.85 E23.42416
G1 X157.2 Y127.85 E23.80037
G1 X157.571 Y127.89 E23.81207
G1 X157.926 Y128.008 E23.8238
G1 X158.248 Y128.198 E23.83552
G1 X158.521 Y128.452 E23.84721
G1 X158.735 Y128.759 E23.85894
G1 X158.878 Y129.104 E23.87065
G1 X158.95 Y129.6 E23.88636
G1 X158.95 Y152.4 E24.60116
G1 X158.91 Y152.771 E24.61286
G1 X158.792 Y153.126 E24.62459
G1 X158.602 Y153.448 E24.63631
G1 X158.348 Y153.721 E24.648
G1 X158.041 Y153.935 E24.65973
G1 X157.696 Y154.078 E24.67144
G1 X157.2 Y154.15 E24.68716
G1 X145.2 Y154.15 E25.06337
G0 F4200 X145.2 Y154.65
G1 F900 X144.778 Y154.61 E25.07666
G1 X144.371 Y154.492 E25.08994
G1 X143.994 Y154.299 E25.10322
G1 X143.659 Y154.039 E25.11651
G1 X143.379 Y153.721 E25.1298
G1 X143.163 Y153.356 E25.14309
G1 X143.02 Y152.957 E25.15638
G1 X142.95 Y152.4 E25.17398
G1 X142.95 Y129.6 E25.88878
G1 X142.99 Y129.178 E25.90207
G1 X143.108 Y128.771 E25.91536
G1 X143.301 Y128.394 E25.92864
G1 X143.561 Y128.059 E25.94193
G1 X143.879 Y127.779 E25.95521
G1 X144.244 Y127.563 E25.96851
G1 X144.643 Y127.42 E25.9818
G1 X145.2 Y127.35 E25.9994
G1 X157.2 Y127.35 E26.37561
G1 X157.622 Y127.39 E26.3889
G1 X158.029 Y127.508 E26.40218
G1 X158.406 Y127.701 E26.41546
G1 X158.741 Y127.961 E26.42876
G1 X159.021 Y128.279 E26.44204
G1 X159.237 Y128.644 E26.45534
G1 X159.38 Y129.043 E26.46863
G1 X159.45 Y129.6 E26.48623
G1 X159.45 Y152.4 E27.20103
G1 X159.41 Y152.822 E27.21432
G1 X159.292 Y153.229 E27.2276
G1 X159.099 Y153.606 E27.24088
G1 X158.839 Y153.941 E27.25417
G1 X158.521 Y154.221 E27.26746
G1 X158.156 Y154.437 E27.28075
G1 X157.757 Y154.58 E27.29404
G1 X157.2 Y154.65 E27.31164
G1 X145.2 Y154.65 E27.68785
G1 F600 E25.68785
G0 F4200 X142.45 Y152.4
G1 F900 E27.68785
G1 X142.45 Y129.6 E28.40265
G1 X142.49 Y129.133 E28.41735
G1 X142.609 Y128.68 E28.43203
G1 X142.802 Y128.253 E28.44672
G1 X143.066 Y127.866 E28.46141
G1 X143.391 Y127.528 E28.47611
G1 X143.634 Y127.35 E28.48555
G1 X116.946 Y127.35 E29.32225
G1 X116.479 Y127.31 E29.33694
G1 X116.026 Y127.191 E29.35163
G1 X115.599 Y126.998 E29.36632
G1 X115.212 Y126.734 E29.381
G1 X115.001 Y126.545 E29.38988
G1 X114.855 Y126.399 E29.39636
G1 X114.554 Y126.04 E29.41105
G1 X114.317 Y125.636 E29.42573
G1 X114.152 Y125.197 E29.44043
G1 X114.065 Y124.737 E29.45511
G1 X114.05 Y124.454 E29.46399
G1 X114.05 Y117.746 E29.6743
G1 X114.09 Y117.279 E29.68899
G1 X114.209 Y116.826 E29.70368
G1 X114.402 Y116.399 E29.71837
G1 X114.666 Y116.012 E29.73305
G1 X114.855 Y115.801 E29.74193
G1 X115.001 Y115.655 E29.74841
G1 X115.36 Y115.354 E29.76309
G1 X115.764 Y115.117 E29.77778
G1 X116.203 Y114.952 E29.79248
G1 X116.663 Y114.865 E29.80716
G1 X116.946 Y114.85 E29.81604
G1 X165.054 Y114.85 E31.32427
G1 X165.521 Y114.89 E31.33897
G1 X165.974 Y115.009 E31.35365
G1 X166.401 Y115.202 E31.36834
G1 X166.788 Y115.466 E31.38303
G1 X166.999 Y115.655 E31.39191
G1 X167.145 Y115.801 E31.39838
G1 X167.446 Y116.16 E31.41307
G1 X167.683 Y116.564 E31.42776
G1 X167.848 Y117.003 E31.44246
G1 X167.935 Y117.463 E31.45714
G1 X167.95 Y117.746 E31.46602
G1 X167.95 Y124.454 E31.67632
G1 X167.91 Y124.921 E31.69102
G1 X167.791 Y125.374 E31.7057
G1 X167.598 Y125.801 E31.72039
G1 X167.334 Y126.188 E31.73508
G1 X167.145 Y126.399 E31.74396
G1 X166.999 Y126.545 E31.75043
G1 X166.64 Y126.846 E31.76512
G1 X166.236 Y127.083 E31.7798
G1 X165.797 Y127.248 E31.79451
G1 X165.337 Y127.335 E31.80919
G1 X165.054 Y127.35 E31.81807
G1 X158.764 Y127.35 E32.01527
G1 X158.934 Y127.466 E32.02172
G1 X159.272 Y127.791 E32.03642
G1 X159.549 Y128.169 E32.05111
G1 X159.757 Y128.589 E32.06581
G1 X159.892 Y129.038 E32.0805
G1 X159.95 Y129.6 E32.09822
G1 X159.95 Y152.4 E32.81302
G1 X159.91 Y152.867 E32.82771
G1 X159.791 Y153.32 E32.8424
G1 X159.598 Y153.747 E32.85709
G1 X159.334 Y154.134 E32.87177
G1 X159.009 Y154.472 E32.88648
G1 X158.766 Y154.65 E32.89592
G1 X165.054 Y154.65 E33.09305
G1 X165.521 Y154.69 E33.10775
G1 X165.974 Y154.809 E33.12243
G1 X166.401 Y155.002 E33.13712
G1 X166.788 Y155.266 E33.15181
G1 X166.999 Y155.455 E33.16069
G1 X167.145 Y155.601 E33.16716
G1 X167.446 Y155.96 E33.18185
G1 X167.683 Y156.364 E33.19654
G1 X167.848 Y156.803 E33.21124
G1 X167.935 Y157.263 E33.22592
G1 X167.95 Y157.546 E33.2348
G1 X167.95 Y164.254 E33.4451
G1 X167.91 Y164.721 E33.4598
G1 X167.791 Y165.174 E33.47448
G1 X167.598 Y165.601 E33.48917
G1 X167.334 Y165.988 E33.50386
G1 X167.145 Y166.199 E33.51274
G1 X166.999 Y166.345 E33.51921
G1 X166.64 Y166.646 E33.5339
G1 X166.236 Y166.883 E33.54858
G1 X165.797 Y167.048 E33.56329
G1 X165.337 Y167.135 E33.57796
G1 X165.054 Y167.15 E33.58685
G1 X116.946 Y167.15 E35.09508
G1 X116.479 Y167.11 E35.10977
G1 X116.026 Y166.991 E35.12446
G1 X115.599 Y166.798 E35.13915
G1 X115.212 Y166.534 E35.15384
G1 X115.001 Y166.345 E35.16272
G1 X114.855 Y166.199 E35.16919
G1 X114.554 Y165.84 E35.18388
G1 X114.317 Y165.436 E35.19856
G1 X114.152 Y164.997 E35.21326
G1 X114.065 Y164.537 E35.22794
G1 X114.05 Y164.254 E35.23683
G1 X114.05 Y157.546 E35.44713
G1 X114.09 Y157.079 E35.46182
G1 X114.209 Y156.626 E35.47651
G1 X114.402 Y156.199 E35.4912
G1 X114.666 Y155.812 E35.50588
G1 X114.855 Y155.601 E35.51477
G1 X115.001 Y155.455 E35.52124
G1 X115.36 Y155.154 E35.53593
G1 X115.764 Y154.917 E35.55061
G1 X116.203 Y154.752 E35.56531
G1 X116.663 Y154.665 E35.57999
G1 X116.946 Y154.65 E35.58888
G1 X143.636 Y154.65 E36.42563
G1 X143.466 Y154.534 E36.43208
G1 X143.128 Y154.209 E36.44678
G1 X142.851 Y153.831 E36.46148
G1 X142.643 Y153.411 E36.47617
G1 X142.508 Y152.962 E36.49087
G1 X142.45 Y152.4 E36.50858
G0 F4200 X141.95 Y152.4
G1 F900 X141.95 Y129.6 E37.22338
G1 X141.99 Y129.092 E37.23936
G1 X142.109 Y128.597 E37.25532
G1 X142.304 Y128.126 E37.2713
G1 X142.473 Y127.85 E37.28145
G1 X116.946 Y127.85 E38.08174
G1 X116.438 Y127.81 E38.09772
G1 X115.943 Y127.691 E38.11368
G1 X115.472 Y127.496 E38.12966
G1 X115.037 Y127.23 E38.14565
G1 X114.648 Y126.898 E38.16168
G1 X114.502 Y126.752 E38.16815
G1 X114.171 Y126.365 E38.18412
G1 X113.905 Y125.93 E38.2001
G1 X113.71 Y125.46 E38.21606
G1 X113.59 Y124.964 E38.23205
G1 X113.55 Y124.454 E38.24809
G1 X113.55 Y117.746 E38.45839
G1 X113.59 Y117.238 E38.47437
G1 X113.709 Y116.743 E38.49033
G1 X113.904 Y116.272 E38.50631
G1 X114.17 Y115.837 E38.5223
G1 X114.502 Y115.448 E38.53833
G1 X114.648 Y115.302 E38.5448
G1 X115.035 Y114.971 E38.56077
G1 X115.47 Y114.705 E38.57676
G1 X115.94 Y114.51 E38.59271
G1 X116.436 Y114.39 E38.60871
G1 X116.946 Y114.35 E38.62474
G1 X165.054 Y114.35 E40.13298
G1 X165.562 Y114.39 E40.14895
G1 X166.057 Y114.509 E40.16491
G1 X166.528 Y114.704 E40.18089
G1 X166.963 Y114.97 E40.19688
G1 X167.352 Y115.302 E40.21291
G1 X167.498 Y115.448 E40.21939
G1 X167.829 Y115.835 E40.23535
G1 X168.095 Y116.27 E40.25134
G1 X168.29 Y116.74 E40.26729
G1 X168.41 Y117.236 E40.28329
G1 X168.45 Y117.746 E40.29933
G1 X168.45 Y124.454 E40.50963
G1 X168.41 Y124.962 E40.5256
G1 X168.291 Y125.457 E40.54156
G1 X168.096 Y125.928 E40.55755
G1 X167.83 Y126.363 E40.57353
G1 X167.498 Y126.752 E40.58956
G1 X167.352 Y126.898 E40.59604
G1 X166.965 Y127.229 E40.612
G1 X166.53 Y127.495 E40.62799
G1 X166.06 Y127.69 E40.64394
G1 X165.564 Y127.81 E40.65994
G1 X165.054 Y127.85 E40.67598
G1 X159.928 Y127.85 E40.83668
G1 X160.094 Y128.122 E40.84667
G1 X160.29 Y128.592 E40.86264
G1 X160.409 Y129.087 E40.8786
G1 X160.45 Y129.6 E40.89473
G1 X160.45 Y152.4 E41.60953
G1 X160.41 Y152.908 E41.62551
G1 X160.291 Y153.403 E41.64147
G1 X160.096 Y153.874 E41.65745
G1 X159.927 Y154.15 E41.6676
G1 X165.054 Y154.15 E41.82833
G1 X165.562 Y154.19 E41.84431
G1 X166.057 Y154.309 E41.86027
G1 X166.528 Y154.504 E41.87625
G1 X166.963 Y154.77 E41.89224
G1 X167.352 Y155.102 E41.90827
G1 X167.498 Y155.248 E41.91474
G1 X167.829 Y155.635 E41.93071
G1 X168.095 Y156.07 E41.94669
G1 X168.29 Y156.54 E41.96265
G1 X168.41 Y157.036 E41.97865
G1 X168.45 Y157.546 E41.99468
G1 X168.45 Y164.254 E42.20499
G1 X168.41 Y164.762 E42.22096
G1 X168.291 Y165.257 E42.23692
G1 X168.096 Y165.728 E42.2529
G1 X167.83 Y166.163 E42.26889
G1 X167.498 Y166.552 E42.28492
G1 X167.352 Y166.698 E42.2914
G1 X166.965 Y167.029 E42.30736
G1 X166.53 Y167.295 E42.32335
G1 X166.06 Y167.49 E42.3393
G1 X165.564 Y167.61 E42.3553
G1 X165.054 Y167.65 E42.37134
G1 X116.946 Y167.65 E43.87957
G1 X116.438 Y167.61 E43.89554
G1 X115.943 Y167.491 E43.9115
G1 X115.472 Y167.296 E43.92749
G1 X115.037 Y167.03 E43.94347
G1 X114.648 Y166.698 E43.9595
G1 X114.502 Y166.552 E43.96598
G1 X114.171 Y166.165 E43.98194
G1 X113.905 Y165.73 E43.99793
G1 X113.71 Y165.26 E44.01388
G1 X113.59 Y164.764 E44.02988
G1 X113.55 Y164.254 E44.04592
G1 X113.55 Y157.546 E44.25622
G1 X113.59 Y157.038 E44.27219
G1 X113.709 Y156.543 E44.28816
G1 X113.904 Y156.072 E44.30414
G1 X114.17 Y155.637 E44.32012
G1 X114.502 Y155.248 E44.33616
G1 X114.648 Y155.102 E44.34263
G1 X115.035 Y154.771 E44.35859
G1 X115.47 Y154.505 E44.37458
G1 X115.94 Y154.31 E44.39053
G1 X116.436 Y154.19 E44.40653
G1 X116.946 Y154.15 E44.42257
G1 X142.472 Y154.15 E45.22283
G1 X142.306 Y153.878 E45.23282
G1 X142.11 Y153.408 E45.24879
G1 X141.991 Y152.913 E45.26475
G1 X141.95 Y152.4 E45.28088
G0 F4200 X141.45 Y152.4
G1 F900 X141.45 Y129.6 E45.99568
