;Generated by Cura LulzBot Edition GCodeWriter Version: 3.6.20
;FLAVOR:Marlin
;TIME:2984
;Filament used: 2.07862m
;Layer height: 0.35
;Generated with Cura_SteamEngine 3.6.20
M82 ;absolute extrusion mode
;This G-Code has been generated specifically for the LulzBot TAZ Workhorse with HE 0.5mm Tool Head
M73 P0 ; clear GLCD progress bar
M75 ; start GLCD timer
G26 ; clear potential 'probe fail' condition
M107 ; disable fans
M420 S0 ; disable previous leveling matrix
G90 ; absolute positioning
M82 ; set extruder to absolute mode
G92 E0 ; set extruder position to 0
M140 S55.0 ; start bed heating up
M109 R180 ; soften filament before homing Z
G28 ; Home all axis
G1 E-30 F100 ; retract filament
M109 R170 ; wait for extruder to reach wiping temp
G1 X-15 Y100 F3000 ; move above wiper pad
G1 Z1 ; push nozzle into wiper
G1 X-17 Y95 F1000 ; slow wipe
G1 X-17 Y90 F1000 ; slow wipe
G1 X-17 Y85 F1000 ; slow wipe
G1 X-15 Y90 F1000 ; slow wipe
G1 X-17 Y80 F1000 ; slow wipe
G1 X-15 Y95 F1000 ; slow wipe
G1 X-17 Y75 F2000 ; fast wipe
G1 X-15 Y65 F2000 ; fast wipe
G1 X-17 Y70 F2000 ; fast wipe
G1 X-15 Y60 F2000 ; fast wipe
G1 X-17 Y55 F2000 ; fast wipe
G1 X-15 Y50 F2000 ; fast wipe
G1 X-17 Y40 F2000 ; fast wipe
G1 X-15 Y45 F2000 ; fast wipe
G1 X-17 Y35 F2000 ; fast wipe
G1 X-15 Y40 F2000 ; fast wipe
G1 X-17 Y70 F2000 ; fast wipe
G1 X-15 Y30 Z2 F2000 ; fast wipe
G1 X-17 Y35 F2000 ; fast wipe
G1 X-15 Y25 F2000 ; fast wipe
G1 X-17 Y30 F2000 ; fast wipe
G1 X-15 Y25 Z1.5 F1000 ; slow wipe
G1 X-17 Y23 F1000 ; slow wipe
G1 Z10 ; raise extruder
M109 R160 ; wait for extruder to reach probe temp
G1 X-9 Y-9 ; move above first probe point
M204 S100 ; set probing acceleration
G29       ; start auto-leveling sequence
M420 S1   ; activate bed level matrix
M425 Z    ; use measured Z backlash for compensation
M425 Z F0 ; turn off measured Z backlash compensation. (if activated in the quality settings, this command will automatically be ignored)
M204 S500 ; restore standard acceleration
G1 X0 Y0 Z15 F5000 ; move up off last probe point
G4 S1 ; pause
M400 ; wait for moves to finish
M117 Heating... ; progress indicator message on LCD
M109 R215 ; wait for extruder to reach printing temp
M190 R55.0 ; wait for bed to reach printing temp
G1 Z2 E0 F75 ; prime tiny bit of filament into the nozzle
M117 TAZ Workhorse Printing... ; progress indicator message on LCD

M221 S100 T0
G92 E0
G1 F600 E-2
;LAYER_COUNT:20
;LAYER:-5
M107
G0 F9000 X111.011 Y140.755 Z0.48
;TYPE:SUPPORT-INTERFACE
G1 F900 E0
G1 F1012.5 X110.936 Y140.064 E0.0523
G1 X110.774 Y139.387 E0.10467
G1 X110.529 Y138.736 E0.15701
G1 X110.202 Y138.122 E0.20935
G1 X109.802 Y137.553 E0.26169
G1 X109.331 Y137.038 E0.3142
G1 X108.729 Y136.538 E0.37308
G1 X108.016 Y136.021 E0.43935
G1 X107.212 Y135.344 E0.51843
G1 X106.527 Y134.686 E0.5899
G1 X105.875 Y133.983 E0.66204
G1 X105.212 Y133.164 E0.74133
G1 X104.617 Y132.31 E0.81964
G1 X104.51 Y132.142 E0.83463
G1 X103.994 Y131.25 E0.91217
G1 X103.595 Y130.437 E0.98031
G1 X103.533 Y130.298 E0.99176
G1 X103.191 Y129.451 E1.06049
G1 X103.136 Y129.296 E1.07286
G1 X102.865 Y128.451 E1.13963
G1 X102.824 Y128.307 E1.1509
G1 X102.609 Y127.421 E1.2195
G1 X102.578 Y127.267 E1.23132
G1 X102.434 Y126.396 E1.29774
G1 X102.41 Y126.21 E1.31185
G1 X102.328 Y125.315 E1.37948
G1 X102.3 Y124.454 E1.4443
G1 X102.3 Y117.764 E1.94767
G1 X102.347 Y116.612 E2.03442
G1 X102.469 Y115.561 E2.11403
G1 X102.662 Y114.54 E2.19221
G1 X102.897 Y113.639 E2.26227
G1 X102.942 Y113.49 E2.27398
G1 X103.223 Y112.666 E2.33949
G1 X103.297 Y112.473 E2.35504
G1 X103.629 Y111.689 E2.4191
G1 X103.709 Y111.518 E2.43331
G1 X104.196 Y110.584 E2.51256
G1 X104.661 Y109.82 E2.57986
G1 X105.281 Y108.944 E2.66061
G1 X105.379 Y108.816 E2.67274
G1 X106.056 Y108.012 E2.75182
G1 X106.678 Y107.362 E2.81952
G1 X107.417 Y106.675 E2.89544
G1 X108.216 Y106.028 E2.97279
G1 X108.363 Y105.918 E2.98661
G1 X109.09 Y105.417 E3.05304
G1 X109.258 Y105.31 E3.06803
G1 X110.15 Y104.794 E3.14556
G1 X110.963 Y104.395 E3.2137
G1 X111.102 Y104.333 E3.22516
G1 X111.938 Y103.996 E3.29298
G1 X112.105 Y103.936 E3.30633
G1 X113.091 Y103.625 E3.38412
G1 X113.961 Y103.414 E3.45148
G1 X114.135 Y103.378 E3.46485
G1 X115.004 Y103.234 E3.53113
G1 X115.181 Y103.211 E3.54456
G1 X116.085 Y103.128 E3.61286
G1 X116.957 Y103.1 E3.67851
G1 X165.053 Y103.101 E7.29736
G1 X166.188 Y103.147 E7.38283
G1 X167.242 Y103.27 E7.46267
G1 X168.265 Y103.463 E7.541
G1 X169.148 Y103.694 E7.60967
G1 X169.327 Y103.748 E7.62374
G1 X170.134 Y104.023 E7.68789
G1 X170.327 Y104.097 E7.70344
G1 X171.116 Y104.431 E7.76791
G1 X171.282 Y104.509 E7.78171
G1 X172.216 Y104.996 E7.86097
G1 X172.98 Y105.461 E7.92826
G1 X173.848 Y106.075 E8.00826
G1 X173.984 Y106.179 E8.02114
G1 X174.788 Y106.856 E8.10023
G1 X175.462 Y107.502 E8.17047
G1 X176.125 Y108.217 E8.24384
G1 X176.772 Y109.016 E8.3212
G1 X176.882 Y109.163 E8.33501
G1 X177.383 Y109.89 E8.40144
G1 X177.49 Y110.058 E8.41643
G1 X177.997 Y110.933 E8.49252
G1 X178.4 Y111.752 E8.5612
G1 X178.467 Y111.902 E8.57356
G1 X178.808 Y112.746 E8.64205
G1 X179.125 Y113.714 E8.71869
G1 X179.175 Y113.891 E8.73253
G1 X179.385 Y114.756 E8.79951
G1 X179.422 Y114.935 E8.81326
G1 X179.566 Y115.804 E8.87954
G1 X179.588 Y115.971 E8.89221
G1 X179.679 Y117.016 E8.97114
G1 X179.7 Y117.746 E9.02609
G1 X179.7 Y124.436 E9.52946
G1 X179.653 Y125.588 E9.61621
G1 X179.531 Y126.639 E9.69582
G1 X179.338 Y127.66 E9.774
G1 X179.108 Y128.541 E9.84251
G1 X179.052 Y128.727 E9.85713
G1 X178.777 Y129.534 E9.92128
G1 X178.703 Y129.727 E9.93683
G1 X178.371 Y130.511 E10.00089
G1 X178.291 Y130.682 E10.0151
G1 X177.806 Y131.613 E10.09408
G1 X177.342 Y132.375 E10.16121
G1 X176.634 Y133.368 E10.25297
G1 X175.944 Y134.188 E10.33361
G1 X175.298 Y134.862 E10.40385
G1 X174.475 Y135.618 E10.48794
G1 X173.748 Y136.201 E10.55806
G1 X173.246 Y136.658 E10.60914
G1 X172.795 Y137.188 E10.6615
G1 X172.414 Y137.77 E10.71384
G1 X172.111 Y138.395 E10.7661
G1 X171.887 Y139.054 E10.81847
G1 X171.749 Y139.737 E10.8709
G1 X171.7 Y140.465 E10.9258
G1 X171.7 Y141.53 E11.00593
G1 X171.743 Y142.208 E11.05705
G1 X171.874 Y142.892 E11.10945
G1 X172.091 Y143.552 E11.16172
G1 X172.389 Y144.181 E11.21409
G1 X172.763 Y144.766 E11.26634
G1 X173.212 Y145.303 E11.31901
G1 X173.827 Y145.858 E11.38134
G1 X173.966 Y145.965 E11.39454
G1 X174.788 Y146.656 E11.47533
G1 X175.462 Y147.302 E11.54558
G1 X176.125 Y148.017 E11.61895
G1 X176.772 Y148.816 E11.69631
G1 X176.882 Y148.963 E11.71012
G1 X177.383 Y149.69 E11.77655
G1 X177.49 Y149.858 E11.79154
G1 X177.997 Y150.733 E11.86763
G1 X178.4 Y151.552 E11.93631
G1 X178.467 Y151.702 E11.94867
G1 X178.808 Y152.546 E12.01716
G1 X179.125 Y153.514 E12.0938
G1 X179.175 Y153.691 E12.10764
G1 X179.385 Y154.556 E12.17462
G1 X179.422 Y154.735 E12.18837
G1 X179.566 Y155.604 E12.25465
G1 X179.588 Y155.771 E12.26732
G1 X179.679 Y156.816 E12.34625
G1 X179.7 Y157.546 E12.4012
G1 X179.7 Y164.236 E12.90457
G1 X179.653 Y165.388 E12.99132
G1 X179.531 Y166.439 E13.07093
G1 X179.338 Y167.46 E13.14911
G1 X179.108 Y168.341 E13.21762
G1 X179.052 Y168.527 E13.23224
G1 X178.777 Y169.334 E13.29639
G1 X178.703 Y169.527 E13.31194
G1 X178.371 Y170.311 E13.376
G1 X178.291 Y170.482 E13.3902
G1 X177.806 Y171.413 E13.46919
G1 X177.342 Y172.175 E13.53632
G1 X176.634 Y173.168 E13.62808
G1 X175.944 Y173.988 E13.70872
G1 X175.298 Y174.662 E13.77896
G1 X174.595 Y175.314 E13.8511
G1 X174.471 Y175.421 E13.86343
G1 X173.784 Y175.972 E13.92969
G1 X173.637 Y176.082 E13.9435
G1 X172.91 Y176.583 E14.00994
G1 X172.746 Y176.687 E14.02455
G1 X171.992 Y177.129 E14.09031
G1 X171.853 Y177.204 E14.10219
G1 X171.037 Y177.605 E14.17061
G1 X170.901 Y177.666 E14.18182
G1 X170.059 Y178.006 E14.25014
G1 X169.901 Y178.062 E14.26276
G1 X169.056 Y178.333 E14.32953
G1 X168.909 Y178.375 E14.34103
G1 X168.039 Y178.586 E14.40839
G1 X167.865 Y178.622 E14.42176
G1 X166.996 Y178.766 E14.48803
G1 X166.819 Y178.789 E14.50146
G1 X165.915 Y178.872 E14.56977
G1 X165.043 Y178.9 E14.63541
G1 X116.947 Y178.899 E18.25426
G1 X115.812 Y178.853 E18.33973
G1 X114.758 Y178.73 E18.41958
G1 X113.735 Y178.537 E18.49791
G1 X112.852 Y178.306 E18.56658
G1 X112.673 Y178.252 E18.58065
G1 X111.866 Y177.977 E18.6448
G1 X111.673 Y177.903 E18.66035
G1 X110.884 Y177.569 E18.72482
G1 X110.718 Y177.491 E18.73862
G1 X109.784 Y177.004 E18.81788
G1 X109.02 Y176.539 E18.88517
G1 X108.145 Y175.92 E18.96582
G1 X108.016 Y175.821 E18.97805
G1 X107.212 Y175.144 E19.05714
G1 X106.527 Y174.486 E19.1286
G1 X105.875 Y173.783 E19.20075
G1 X105.212 Y172.964 E19.28003
G1 X104.617 Y172.11 E19.35835
G1 X104.51 Y171.942 E19.37333
G1 X103.994 Y171.05 E19.45087
G1 X103.595 Y170.237 E19.51901
G1 X103.533 Y170.098 E19.53046
G1 X103.191 Y169.251 E19.59919
G1 X103.136 Y169.096 E19.61157
G1 X102.865 Y168.251 E19.67834
G1 X102.824 Y168.107 E19.6896
G1 X102.609 Y167.221 E19.7582
G1 X102.578 Y167.067 E19.77002
G1 X102.434 Y166.196 E19.83645
G1 X102.41 Y166.01 E19.85056
G1 X102.328 Y165.115 E19.91818
G1 X102.3 Y164.254 E19.983
G1 X102.3 Y157.564 E20.48637
G1 X102.347 Y156.412 E20.57312
G1 X102.469 Y155.361 E20.65273
G1 X102.662 Y154.34 E20.73092
G1 X102.897 Y153.439 E20.80098
G1 X102.942 Y153.29 E20.81269
G1 X103.223 Y152.466 E20.87819
G1 X103.297 Y152.273 E20.89375
G1 X103.629 Y151.489 E20.95781
G1 X103.709 Y151.318 E20.97201
G1 X104.196 Y150.384 E21.05127
G1 X104.661 Y149.62 E21.11856
G1 X105.281 Y148.744 E21.19931
G1 X105.379 Y148.616 E21.21144
G1 X106.056 Y147.812 E21.29053
G1 X106.678 Y147.162 E21.35822
G1 X107.417 Y146.475 E21.43414
G1 X108.23 Y145.817 E21.51284
G1 X108.65 Y145.52 E21.55154
G1 X109.183 Y145.1 E21.6026
G1 X109.671 Y144.604 E21.65496
G1 X110.093 Y144.052 E21.70724
G1 X110.441 Y143.449 E21.75962
G1 X110.71 Y142.809 E21.81186
G1 X110.897 Y142.139 E21.8642
G1 X110.997 Y141.45 E21.91658
G1 X111.011 Y140.755 E21.96888
G1 F600 E19.96888
G0 F9000 X110 Y137.834
G1 F900 E21.96888
G1 F1012.5 X110 Y104.88 E24.44842
G1 F600 E22.44842
G0 F9000 X112 Y103.973
G1 F900 E24.44842
G1 F1012.5 X112 Y178.022 E30.02003
G1 F600 E28.02003
G0 F9000 X114 Y178.586
G1 F900 E30.02003
G1 F1012.5 X114 Y103.405 E35.67681
G1 F600 E33.67681
G0 F9000 X116 Y103.135
G1 F900 E35.67681
G1 F1012.5 X116 Y178.86 E41.37453
G1 F600 E39.37453
G0 F9000 X118 Y178.899
G1 F900 E41.37453
G1 F1012.5 X118 Y103.101 E47.07774
G1 F600 E45.07774
G0 F9000 X120 Y103.101
G1 F900 E47.07774
G1 F1012.5 X120 Y178.899 E52.78095
G1 F600 E50.78095
G0 F9000 X122 Y178.899
G1 F900 E52.78095
G1 F1012.5 X122 Y103.101 E58.48416
G1 F600 E56.48416
G0 F9000 X124 Y103.101
G1 F900 E58.48416
G1 F1012.5 X124 Y178.899 E64.18737
G1 F600 E62.18737
G0 F9000 X126 Y178.899
G1 F900 E64.18737
G1 F1012.5 X126 Y103.101 E69.89058
G1 F600 E67.89058
G0 F9000 X128 Y103.101
G1 F900 E69.89058
G1 F1012.5 X128 Y178.899 E75.59379
G1 F600 E73.59379
G0 F9000 X130 Y178.899
G1 F900 E75.59379
G1 F1012.5 X130 Y103.101 E81.297
G1 F600 E79.297
G0 F9000 X132 Y103.101
G1 F900 E81.297
G1 F1012.5 X132 Y178.899 E87.00021
G1 F600 E85.00021
G0 F9000 X134 Y178.899
G1 F900 E87.00021
G1 F1012.5 X134 Y103.101 E92.70342
G1 F600 E90.70342
G0 F9000 X136 Y103.101
G1 F900 E92.70342
G1 F1012.5 X136 Y178.899 E98.40663
G1 F600 E96.40663
G0 F9000 X138 Y178.899
G1 F900 E98.40663
G1 F1012.5 X138 Y103.101 E104.10984
G1 F600 E102.10984
G0 F9000 X140 Y103.101
G1 F900 E104.10984
G1 F1012.5 X140 Y178.899 E109.81305
G1 F600 E107.81305
G0 F9000 X142 Y178.899
G1 F900 E109.81305
G1 F1012.5 X142 Y103.101 E115.51626
G1 F600 E113.51626
G0 F9000 X144 Y103.101
G1 F900 E115.51626
G1 F1012.5 X144 Y178.899 E121.21947
G1 F600 E119.21947
G0 F9000 X146 Y178.899
G1 F900 E121.21947
G1 F1012.5 X146 Y103.101 E126.92269
G1 F600 E124.92269
G0 F9000 X148 Y103.101
G1 F900 E126.92269
G1 F1012.5 X148 Y178.899 E132.6259
G1 F600 E130.6259
G0 F9000 X150 Y178.899
G1 F900 E132.6259
G1 F1012.5 X150 Y103.101 E138.32911
G1 F600 E136.32911
G0 F9000 X152 Y103.101
G1 F900 E138.32911
G1 F1012.5 X152 Y178.899 E144.03232
G1 F600 E142.03232
G0 F9000 X154 Y178.899
G1 F900 E144.03232
G1 F1012.5 X154 Y103.101 E149.73553
G1 F600 E147.73553
G0 F9000 X156 Y103.101
G1 F900 E149.73553
G1 F1012.5 X156 Y178.899 E155.43874
G1 F600 E153.43874
G0 F9000 X158 Y178.899
G1 F900 E155.43874
G1 F1012.5 X158 Y103.101 E161.14195
G1 F600 E159.14195
G0 F9000 X160 Y103.101
G1 F900 E161.14195
G1 F1012.5 X160 Y178.899 E166.84516
G1 F600 E164.84516
G0 F9000 X162 Y178.899
G1 F900 E166.84516
G1 F1012.5 X162 Y103.101 E172.54837
G1 F600 E170.54837
G0 F9000 X164 Y103.101
G1 F900 E172.54837
G1 F1012.5 X164 Y178.899 E178.25158
G1 F600 E176.25158
G0 F9000 X166 Y178.865
G1 F900 E178.25158
G1 F1012.5 X166 Y103.14 E183.9493
G1 F600 E181.9493
G0 F9000 X168 Y103.414
G1 F900 E183.9493
G1 F1012.5 X168 Y178.595 E189.60608
G1 F600 E187.60608
G0 F9000 X170 Y178.027
G1 F900 E189.60608
G1 F1012.5 X170 Y103.978 E195.17769
G1 F600 E193.17769
G0 F9000 X172 Y104.884
G1 F900 E195.17769
G1 F1012.5 X172 Y138.722 E197.72374
G1 F600 E195.72374
G0 F9000 X174 Y135.999
G1 F900 E197.72374
G1 F1012.5 X174 Y106.193 E199.96641
G1 F600 E197.96641
G0 F9000 X176 Y108.083
G1 F900 E199.96641
G1 F1012.5 X176 Y134.122 E201.92564
G1 F600 E199.92564
G0 F9000 X178 Y131.241
G1 F900 E201.92564
G1 F1012.5 X178 Y110.94 E203.45313
G1 F600 E201.45313
G0 F9000 X172 Y143.276
G1 F900 E203.45313
G1 F1012.5 X172 Y177.125 E206.00001
G1 F600 E204.00001
G0 F9000 X174 Y175.799
G1 F900 E206.00001
G1 F1012.5 X174 Y145.994 E208.2426
G1 F600 E206.2426
G0 F9000 X176 Y147.883
G1 F900 E208.2426
G1 F1012.5 X176 Y173.922 E210.20183
G1 F600 E208.20183
G0 F9000 X178 Y171.041
G1 F900 E210.20183
G1 F1012.5 X178 Y150.74 E211.72933
G1 F600 E209.72933
G0 F9000 X110 Y144.173
G1 F900 E211.72933
G1 F1012.5 X110 Y177.116 E214.20803
G1 F600 E212.20803
G0 F9000 X108 Y175.807
G1 F900 E214.20803
G1 F1012.5 X108 Y146.003 E216.45055
G1 F600 E214.45055
G0 F9000 X106 Y147.878
G1 F900 E216.45055
G1 F1012.5 X106 Y173.917 E218.40978
G1 F600 E216.40978
G0 F9000 X104 Y171.06
M104 S230
G1 F900 E218.40978
G1 F1012.5 X104 Y150.759 E219.93728
G1 F600 E217.93728
G0 F9000 X108 Y136.007
G1 F900 E219.93728
G1 F1012.5 X108 Y106.202 E222.17987
G1 F600 E220.17987
G0 F9000 X106 Y108.078
G1 F900 E222.17987
G1 F1012.5 X106 Y134.117 E224.1391
G1 F600 E222.1391
G0 F9000 X104 Y131.26
G1 F900 E224.1391
G1 F1012.5 X104 Y110.959 E225.66659
G1 F600 E223.66659
G0 F9000 X176.124 Y108.217
;TIME_ELAPSED:209.697601
;LAYER:-4
M140 S45
M221 S100 T0
G0 X176.124 Y108.217 Z1.005
;TYPE:SUPPORT
G1 F900 E225.66659
G1 F1012.5 X175.46 Y107.502 E225.7469
G1 X174.787 Y106.855 E225.82373
G1 X174.475 Y106.592 E225.85731
G1 X176.232 Y108.35 E226.06185
G1 X176.771 Y109.016 E226.13236
G1 X176.881 Y109.163 E226.14747
G1 X177.381 Y109.89 E226.22009
G1 X177.489 Y110.058 E226.23652
G1 X177.996 Y110.933 E226.31975
G1 X178.399 Y111.751 E226.39479
G1 X178.465 Y111.901 E226.40828
G1 X178.722 Y112.537 E226.46473
G1 X170.255 Y104.07 E227.45016
G1 X170.133 Y104.023 E227.46092
G1 X169.326 Y103.748 E227.53108
G1 X169.147 Y103.694 E227.54646
G1 X168.263 Y103.463 E227.62166
G1 X167.878 Y103.39 E227.65391
G1 X179.421 Y114.933 E228.99733
G1 X179.565 Y115.804 E229.06998
G1 X179.587 Y115.97 E229.08376
G1 X179.666 Y116.875 E229.15853
G1 X165.928 Y103.137 E230.75741
G1 X165.052 Y103.101 E230.82957
G1 X164.195 Y103.101 E230.90009
G1 X179.699 Y118.605 E232.70452
G1 X179.699 Y120.302 E232.84417
G1 X162.498 Y103.101 E234.8461
G1 X160.801 Y103.101 E234.98576
G1 X179.699 Y121.999 E237.18519
G1 X179.699 Y123.697 E237.32493
G1 X159.103 Y103.101 E239.72198
G1 X157.406 Y103.101 E239.86164
G1 X179.661 Y125.355 E242.45172
G1 X179.651 Y125.587 E242.47083
G1 X179.53 Y126.638 E242.55789
