;Generated by Cura LulzBot Edition GCodeWriter Version: 3.6.20
;FLAVOR:Marlin
;TIME:456
;Filament used: 0.295945m
;Layer height: 0.35
;Generated with Cura_SteamEngine 3.6.20
M82 ;absolute extrusion mode
;This G-Code has been generated specifically for the LulzBot TAZ Workhorse with HE 0.5mm Tool Head
M73 P0 ; clear GLCD progress bar
M75 ; start GLCD timer
G26 ; clear potential 'probe fail' condition
M107 ; disable fans
M420 S0 ; disable previous leveling matrix
G90 ; absolute positioning
M82 ; set extruder to absolute mode
G92 E0 ; set extruder position to 0
M140 S55.0 ; start bed heating up
M109 R180 ; soften filament before homing Z
G28 ; Home all axis
G1 E-30 F100 ; retract filament
M109 R170 ; wait for extruder to reach wiping temp
G1 X-15 Y100 F3000 ; move above wiper pad
G1 Z1 ; push nozzle into wiper
G1 X-17 Y95 F1000 ; slow wipe
G1 X-17 Y90 F1000 ; slow wipe
G1 X-17 Y85 F1000 ; slow wipe
G1 X-15 Y90 F1000 ; slow wipe
G1 X-17 Y80 F1000 ; slow wipe
G1 X-15 Y95 F1000 ; slow wipe
G1 X-17 Y75 F2000 ; fast wipe
G1 X-15 Y65 F2000 ; fast wipe
G1 X-17 Y70 F2000 ; fast wipe
G1 X-15 Y60 F2000 ; fast wipe
G1 X-17 Y55 F2000 ; fast wipe
G1 X-15 Y50 F2000 ; fast wipe
G1 X-17 Y40 F2000 ; fast wipe
G1 X-15 Y45 F2000 ; fast wipe
G1 X-17 Y35 F2000 ; fast wipe
G1 X-15 Y40 F2000 ; fast wipe
G1 X-17 Y70 F2000 ; fast wipe
G1 X-15 Y30 Z2 F2000 ; fast wipe
G1 X-17 Y35 F2000 ; fast wipe
G1 X-15 Y25 F2000 ; fast wipe
G1 X-17 Y30 F2000 ; fast wipe
G1 X-15 Y25 Z1.5 F1000 ; slow wipe
G1 X-17 Y23 F1000 ; slow wipe
G1 Z10 ; raise extruder
M109 R160 ; wait for extruder to reach probe temp
G1 X-9 Y-9 ; move above first probe point
M204 S100 ; set probing acceleration
G29       ; start auto-leveling sequence
M420 S1   ; activate bed level matrix
M425 Z    ; use measured Z backlash for compensation
M425 Z F0 ; turn off measured Z backlash compensation. (if activated in the quality settings, this command will automatically be ignored)
M204 S500 ; restore standard acceleration
G1 X0 Y0 Z15 F5000 ; move up off last probe point
G4 S1 ; pause
M400 ; wait for moves to finish
M117 Heating... ; progress indicator message on LCD
M109 R215 ; wait for extruder to reach printing temp
M190 R55.0 ; wait for bed to reach printing temp
G1 Z2 E0 F75 ; prime tiny bit of filament into the nozzle
M117 TAZ Workhorse Printing... ; progress indicator message on LCD

M221 S100 T0
G92 E0
G1 F600 E-2
;LAYER_COUNT:11
;LAYER:0
M107
G0 F4200 X153.864 Y155.625 Z0.4
;TYPE:SKIRT
G1 F900 E0
G1 X128.136 Y155.625 E0.8066
G1 X127.521 Y155.585 E0.82592
G1 X126.917 Y155.466 E0.84522
G1 X126.333 Y155.269 E0.86454
G1 X125.779 Y154.999 E0.88386
G1 X125.265 Y154.659 E0.90318
G1 X124.777 Y154.234 E0.92347
G1 X124.631 Y154.088 E0.92994
G1 X124.225 Y153.625 E0.94925
G1 X123.882 Y153.113 E0.96857
G1 X123.608 Y152.561 E0.98789
G1 X123.407 Y151.979 E1.00719
G1 X123.284 Y151.375 E1.02652
G1 X123.24 Y150.729 E1.04682
G1 X123.24 Y131.271 E1.65685
G1 X123.28 Y130.656 E1.67617
G1 X123.399 Y130.052 E1.69547
G1 X123.596 Y129.468 E1.71479
G1 X123.866 Y128.914 E1.73411
G1 X124.206 Y128.4 E1.75343
G1 X124.631 Y127.912 E1.77372
G1 X124.777 Y127.766 E1.78019
G1 X125.24 Y127.36 E1.7995
G1 X125.752 Y127.017 E1.81882
G1 X126.304 Y126.743 E1.83814
G1 X126.886 Y126.542 E1.85744
G1 X127.49 Y126.419 E1.87677
G1 X128.136 Y126.375 E1.89707
G1 X153.864 Y126.375 E2.70366
G1 X154.479 Y126.415 E2.72299
G1 X155.083 Y126.534 E2.74229
G1 X155.667 Y126.731 E2.76161
G1 X156.221 Y127.001 E2.78093
G1 X156.735 Y127.341 E2.80025
G1 X157.223 Y127.766 E2.82054
G1 X157.369 Y127.912 E2.82701
G1 X157.775 Y128.375 E2.84632
G1 X158.118 Y128.887 E2.86564
G1 X158.392 Y129.439 E2.88496
G1 X158.593 Y130.021 E2.90426
G1 X158.716 Y130.625 E2.92359
G1 X158.76 Y131.271 E2.94389
G1 X158.76 Y150.729 E3.55391
G1 X158.72 Y151.344 E3.57323
G1 X158.601 Y151.948 E3.59253
G1 X158.404 Y152.532 E3.61186
G1 X158.134 Y153.086 E3.63118
G1 X157.794 Y153.6 E3.6505
G1 X157.369 Y154.088 E3.67079
G1 X157.223 Y154.234 E3.67726
G1 X156.76 Y154.64 E3.69657
G1 X156.248 Y154.983 E3.71589
G1 X155.696 Y155.257 E3.73521
G1 X155.114 Y155.458 E3.75451
G1 X154.51 Y155.581 E3.77384
G1 X153.864 Y155.625 E3.79414
G0 F4200 X153.864 Y155.125
G1 F900 X128.136 Y155.125 E4.60073
G1 X127.555 Y155.085 E4.61899
G1 X126.984 Y154.966 E4.63728
G1 X126.435 Y154.77 E4.65555
G1 X125.919 Y154.501 E4.67379
G1 X125.443 Y154.163 E4.6921
G1 X125.131 Y153.88 E4.7053
G1 X124.985 Y153.734 E4.71178
G1 X124.602 Y153.295 E4.73004
G1 X124.283 Y152.807 E4.74832
G1 X124.033 Y152.281 E4.76658
G1 X123.858 Y151.725 E4.78485
G1 X123.761 Y151.15 E4.80313
G1 X123.74 Y150.729 E4.81635
G1 X123.74 Y131.271 E5.42637
G1 X123.78 Y130.69 E5.44463
G1 X123.899 Y130.119 E5.46292
G1 X124.095 Y129.57 E5.48119
G1 X124.364 Y129.054 E5.49944
G1 X124.702 Y128.578 E5.51774
G1 X124.985 Y128.266 E5.53095
G1 X125.131 Y128.12 E5.53742
G1 X125.57 Y127.737 E5.55568
G1 X126.058 Y127.418 E5.57396
G1 X126.584 Y127.168 E5.59222
G1 X127.14 Y126.993 E5.61049
G1 X127.715 Y126.896 E5.62878
G1 X128.136 Y126.875 E5.64199
G1 X153.864 Y126.875 E6.44859
G1 X154.445 Y126.915 E6.46685
G1 X155.016 Y127.034 E6.48513
G1 X155.565 Y127.23 E6.50341
G1 X156.081 Y127.499 E6.52165
G1 X156.557 Y127.837 E6.53995
G1 X156.869 Y128.12 E6.55316
G1 X157.015 Y128.266 E6.55963
G1 X157.398 Y128.705 E6.5779
G1 X157.717 Y129.193 E6.59618
G1 X157.967 Y129.719 E6.61443
G1 X158.142 Y130.275 E6.63271
G1 X158.239 Y130.85 E6.65099
G1 X158.26 Y131.271 E6.6642
G1 X158.26 Y150.729 E7.27423
G1 X158.22 Y151.31 E7.29249
G1 X158.101 Y151.881 E7.31078
G1 X157.905 Y152.43 E7.32905
G1 X157.636 Y152.946 E7.34729
G1 X157.298 Y153.422 E7.3656
G1 X157.015 Y153.734 E7.3788
G1 X156.869 Y153.88 E7.38528
G1 X156.43 Y154.263 E7.40354
G1 X155.942 Y154.582 E7.42182
G1 X155.416 Y154.832 E7.44008
G1 X154.86 Y155.007 E7.45835
G1 X154.285 Y155.104 E7.47663
G1 X153.864 Y155.125 E7.48985
G0 F4200 X153.864 Y154.625
G1 F900 X128.136 Y154.625 E8.29644
G1 X127.59 Y154.585 E8.31361
G1 X127.056 Y154.466 E8.33076
G1 X126.545 Y154.271 E8.34791
G1 X126.067 Y154.003 E8.36509
G1 X125.484 Y153.527 E8.38868
G1 X125.338 Y153.381 E8.39516
G1 X124.981 Y152.966 E8.41232
G1 X124.687 Y152.504 E8.42949
G1 X124.464 Y152.005 E8.44662
G1 X124.316 Y151.478 E8.46378
G1 X124.24 Y150.729 E8.48739
G1 X124.24 Y131.271 E9.09741
G1 X124.28 Y130.725 E9.11458
G1 X124.399 Y130.191 E9.13173
G1 X124.594 Y129.68 E9.14887
G1 X124.862 Y129.202 E9.16606
G1 X125.338 Y128.619 E9.18965
G1 X125.484 Y128.473 E9.19612
G1 X125.899 Y128.116 E9.21329
G1 X126.361 Y127.822 E9.23045
G1 X126.86 Y127.599 E9.24759
G1 X127.387 Y127.451 E9.26475
G1 X128.136 Y127.375 E9.28835
G1 X153.864 Y127.375 E10.09495
G1 X154.41 Y127.415 E10.11211
G1 X154.944 Y127.534 E10.12927
G1 X155.455 Y127.729 E10.14641
G1 X155.933 Y127.997 E10.16359
G1 X156.516 Y128.473 E10.18719
G1 X156.662 Y128.619 E10.19366
G1 X157.019 Y129.034 E10.21082
G1 X157.313 Y129.496 E10.22799
G1 X157.536 Y129.995 E10.24513
G1 X157.684 Y130.522 E10.26229
G1 X157.76 Y131.271 E10.28589
G1 X157.76 Y150.729 E10.89592
G1 X157.72 Y151.275 E10.91308
G1 X157.601 Y151.809 E10.93023
G1 X157.406 Y152.32 E10.94738
G1 X157.138 Y152.798 E10.96456
G1 X156.662 Y153.381 E10.98816
G1 X156.516 Y153.527 E10.99463
G1 X156.101 Y153.884 E11.01179
G1 X155.639 Y154.178 E11.02896
G1 X155.14 Y154.401 E11.0461
G1 X154.613 Y154.549 E11.06326
G1 X153.864 Y154.625 E11.08686
G0 F4200 X153.864 Y154.125
G1 F900 X128.136 Y154.125 E11.89346
G1 X127.628 Y154.085 E11.90943
G1 X127.133 Y153.966 E11.92539
G1 X126.662 Y153.771 E11.94137
G1 X126.227 Y153.505 E11.95736
G1 X125.838 Y153.173 E11.97339
G1 X125.692 Y153.027 E11.97987
G1 X125.361 Y152.64 E11.99583
G1 X125.095 Y152.205 E12.01182
G1 X124.9 Y151.735 E12.02777
G1 X124.78 Y151.239 E12.04377
G1 X124.74 Y150.729 E12.05981
G1 X124.74 Y131.271 E12.66983
G1 X124.78 Y130.763 E12.68581
G1 X124.899 Y130.268 E12.70177
G1 X125.094 Y129.797 E12.71775
G1 X125.36 Y129.362 E12.73374
G1 X125.692 Y128.973 E12.74977
G1 X125.838 Y128.827 E12.75624
G1 X126.225 Y128.496 E12.77221
G1 X126.66 Y128.23 E12.78819
G1 X127.13 Y128.035 E12.80415
G1 X127.626 Y127.915 E12.82014
G1 X128.136 Y127.875 E12.83618
G1 X153.864 Y127.875 E13.64278
G1 X154.372 Y127.915 E13.65876
G1 X154.867 Y128.034 E13.67472
G1 X155.338 Y128.229 E13.6907
G1 X155.773 Y128.495 E13.70668
G1 X156.162 Y128.827 E13.72272
G1 X156.308 Y128.973 E13.72919
G1 X156.639 Y129.36 E13.74515
G1 X156.905 Y129.795 E13.76114
G1 X157.1 Y130.265 E13.77709
G1 X157.22 Y130.761 E13.79309
G1 X157.26 Y131.271 E13.80913
G1 X157.26 Y150.729 E14.41916
G1 X157.22 Y151.237 E14.43513
G1 X157.101 Y151.732 E14.45109
G1 X156.906 Y152.203 E14.46707
G1 X156.64 Y152.638 E14.48306
G1 X156.308 Y153.027 E14.49909
G1 X156.162 Y153.173 E14.50557
G1 X155.775 Y153.504 E14.52153
G1 X155.34 Y153.77 E14.53752
G1 X154.87 Y153.965 E14.55347
G1 X154.374 Y154.085 E14.56947
G1 X153.864 Y154.125 E14.58551
G0 F4200 X153.864 Y153.625
G1 F900 X128.136 Y153.625 E15.3921
G1 X127.669 Y153.585 E15.4068
G1 X127.216 Y153.466 E15.42148
G1 X126.789 Y153.273 E15.43617
G1 X126.402 Y153.009 E15.45086
G1 X126.191 Y152.82 E15.45974
G1 X126.045 Y152.674 E15.46621
G1 X125.744 Y152.315 E15.4809
G1 X125.507 Y151.911 E15.49558
G1 X125.342 Y151.472 E15.51029
G1 X125.255 Y151.012 E15.52497
G1 X125.24 Y150.729 E15.53385
G1 X125.24 Y131.271 E16.14388
G1 X125.28 Y130.804 E16.15857
G1 X125.399 Y130.351 E16.17325
G1 X125.592 Y129.924 E16.18795
G1 X125.856 Y129.537 E16.20263
G1 X126.045 Y129.326 E16.21151
G1 X126.191 Y129.18 E16.21799
G1 X126.55 Y128.879 E16.23267
G1 X126.954 Y128.642 E16.24736
G1 X127.393 Y128.477 E16.26206
G1 X127.853 Y128.39 E16.27674
G1 X128.136 Y128.375 E16.28562
G1 X153.864 Y128.375 E17.09222
G1 X154.331 Y128.415 E17.10691
G1 X154.784 Y128.534 E17.1216
G1 X155.211 Y128.727 E17.13629
G1 X155.598 Y128.991 E17.15098
G1 X155.809 Y129.18 E17.15986
G1 X155.955 Y129.326 E17.16633
G1 X156.256 Y129.685 E17.18102
G1 X156.493 Y130.089 E17.1957
G1 X156.658 Y130.528 E17.2104
G1 X156.745 Y130.988 E17.22508
G1 X156.76 Y131.271 E17.23397
G1 X156.76 Y150.729 E17.84399
G1 X156.72 Y151.196 E17.85869
G1 X156.601 Y151.649 E17.87337
G1 X156.408 Y152.076 E17.88806
G1 X156.144 Y152.463 E17.90275
G1 X155.955 Y152.674 E17.91163
G1 X155.809 Y152.82 E17.9181
G1 X155.45 Y153.121 E17.93279
G1 X155.046 Y153.358 E17.94747
G1 X154.607 Y153.523 E17.96218
G1 X154.147 Y153.61 E17.97686
G1 X153.864 Y153.625 E17.98574
G0 F4200 X153.864 Y153.125
G1 F900 X128.136 Y153.125 E18.79234
G1 X127.714 Y153.085 E18.80563
G1 X127.307 Y152.967 E18.81891
G1 X126.93 Y152.774 E18.83219
G1 X126.545 Y152.466 E18.84765
G1 X126.399 Y152.32 E18.85412
G1 X126.129 Y151.993 E18.86741
G1 X125.925 Y151.622 E18.88069
G1 X125.794 Y151.219 E18.89397
G1 X125.74 Y150.729 E18.90943
G1 X125.74 Y131.271 E19.51945
G1 X125.78 Y130.849 E19.53274
G1 X125.898 Y130.442 E19.54603
G1 X126.091 Y130.065 E19.55931
G1 X126.399 Y129.68 E19.57476
G1 X126.545 Y129.534 E19.58124
G1 X126.872 Y129.264 E19.59453
G1 X127.243 Y129.06 E19.60781
G1 X127.646 Y128.929 E19.62109
G1 X128.136 Y128.875 E19.63655
G1 X153.864 Y128.875 E20.44314
G1 X154.286 Y128.915 E20.45643
G1 X154.693 Y129.033 E20.46972
G1 X155.07 Y129.226 E20.483
G1 X155.455 Y129.534 E20.49845
G1 X155.601 Y129.68 E20.50493
G1 X155.871 Y130.007 E20.51822
G1 X156.075 Y130.378 E20.53149
G1 X156.206 Y130.781 E20.54478
G1 X156.26 Y131.271 E20.56023
G1 X156.26 Y150.729 E21.17026
G1 X156.22 Y151.151 E21.18355
G1 X156.102 Y151.558 E21.19684
G1 X155.909 Y151.935 E21.21011
G1 X155.601 Y152.32 E21.22557
G1 X155.455 Y152.466 E21.23204
G1 X155.128 Y152.736 E21.24534
G1 X154.757 Y152.94 E21.25861
G1 X154.354 Y153.071 E21.2719
G1 X153.864 Y153.125 E21.28735
G0 F4200 X153.864 Y152.625
G1 F900 X128.136 Y152.625 E22.09395
G1 X127.765 Y152.585 E22.10565
G1 X127.41 Y152.467 E22.11738
G1 X127.088 Y152.277 E22.1291
G1 X126.899 Y152.112 E22.13696
G1 X126.753 Y151.966 E22.14344
G1 X126.518 Y151.676 E22.15514
G1 X126.351 Y151.342 E22.16685
G1 X126.258 Y150.98 E22.17856
G1 X126.24 Y150.729 E22.18645
G1 X126.24 Y131.271 E22.79648
G1 X126.28 Y130.9 E22.80818
G1 X126.398 Y130.545 E22.81991
G1 X126.588 Y130.223 E22.83163
G1 X126.753 Y130.034 E22.83949
G1 X126.899 Y129.888 E22.84597
G1 X127.189 Y129.653 E22.85767
G1 X127.523 Y129.486 E22.86938
G1 X127.885 Y129.393 E22.88109
G1 X128.136 Y129.375 E22.88898
G1 X153.864 Y129.375 E23.69558
G1 X154.235 Y129.415 E23.70728
G1 X154.59 Y129.533 E23.71901
G1 X154.912 Y129.723 E23.73073
G1 X155.101 Y129.888 E23.73859
G1 X155.247 Y130.034 E23.74507
G1 X155.482 Y130.324 E23.75677
G1 X155.649 Y130.658 E23.76848
G1 X155.742 Y131.02 E23.78019
G1 X155.76 Y131.271 E23.78808
G1 X155.76 Y150.729 E24.39811
G1 X155.72 Y151.1 E24.40981
G1 X155.602 Y151.455 E24.42154
G1 X155.412 Y151.777 E24.43326
G1 X155.247 Y151.966 E24.44112
G1 X155.101 Y152.112 E24.4476
G1 X154.811 Y152.347 E24.4593
G1 X154.477 Y152.514 E24.47101
G1 X154.115 Y152.607 E24.48272
G1 X153.864 Y152.625 E24.49061
G0 F4200 X153.864 Y152.125
G1 F900 X128.136 Y152.125 E25.29721
G1 X127.823 Y152.085 E25.3071
G1 X127.53 Y151.968 E25.31699
G1 X127.252 Y151.759 E25.3279
G1 X127.106 Y151.613 E25.33437
G1 X126.913 Y151.363 E25.34427
G1 X126.788 Y151.073 E25.35417
G1 X126.74 Y150.729 E25.36506
G1 X126.74 Y131.271 E25.97509
G1 X126.78 Y130.958 E25.98498
G1 X126.897 Y130.665 E25.99487
G1 X127.106 Y130.387 E26.00577
G1 X127.252 Y130.241 E26.01225
G1 X127.502 Y130.048 E26.02215
G1 X127.792 Y129.923 E26.03205
G1 X128.136 Y129.875 E26.04294
G1 X153.864 Y129.875 E26.84954
G1 X154.177 Y129.915 E26.85943
G1 X154.47 Y130.032 E26.86932
G1 X154.748 Y130.241 E26.88022
G1 X154.894 Y130.387 E26.8867
G1 X155.087 Y130.637 E26.8966
G1 X155.212 Y130.927 E26.9065
G1 X155.26 Y131.271 E26.91739
G1 X155.26 Y150.729 E27.52741
G1 X155.22 Y151.042 E27.53731
G1 X155.103 Y151.335 E27.5472
G1 X154.894 Y151.613 E27.5581
G1 X154.748 Y151.759 E27.56457
G1 X154.498 Y151.952 E27.57448
G1 X154.208 Y152.077 E27.58438
G1 X153.864 Y152.125 E27.59527
G0 F4200 X153.864 Y151.625
G1 F900 X128.136 Y151.625 E28.40186
G1 X127.895 Y151.585 E28.40952
G1 X127.606 Y151.405 E28.4202
G1 X127.46 Y151.259 E28.42667
G1 X127.317 Y151.061 E28.43433
G1 X127.24 Y150.729 E28.44501
G1 X127.24 Y131.271 E29.05504
G1 X127.28 Y131.03 E29.0627
G1 X127.46 Y130.741 E29.07337
G1 X127.606 Y130.595 E29.07984
G1 X127.804 Y130.452 E29.0875
G1 X128.136 Y130.375 E29.09819
G1 X153.864 Y130.375 E29.90478
G1 X154.105 Y130.415 E29.91244
G1 X154.394 Y130.595 E29.92311
G1 X154.54 Y130.741 E29.92959
G1 X154.683 Y130.939 E29.93725
G1 X154.76 Y131.271 E29.94793
G1 X154.76 Y150.729 E30.55796
G1 X154.72 Y150.97 E30.56562
G1 X154.54 Y151.259 E30.57629
G1 X154.394 Y151.405 E30.58276
G1 X154.196 Y151.548 E30.59042
G1 X153.864 Y151.625 E30.6011
G0 F4200 X153.864 Y151.125
G1 F900 X128.136 Y151.125 E31.4077
G1 X127.959 Y151.052 E31.4137
G1 X127.813 Y150.906 E31.42018
G1 X127.74 Y150.729 E31.42618
G1 X127.74 Y131.271 E32.03621
G1 X127.813 Y131.094 E32.04221
G1 X127.959 Y130.948 E32.04868
G1 X128.136 Y130.875 E32.05468
G1 X153.864 Y130.875 E32.86128
G1 X154.041 Y130.948 E32.86728
G1 X154.187 Y131.094 E32.87376
G1 X154.26 Y131.271 E32.87976
G1 X154.26 Y150.729 E33.48979
G1 X154.187 Y150.906 E33.49579
G1 X154.041 Y151.052 E33.50226
G1 X153.864 Y151.125 E33.50826
;MESH:
G0 F4200 X153.76 Y150.625
;TYPE:WALL-OUTER
G1 F900 X128.24 Y150.625 E34.30834
G1 X128.24 Y131.375 E34.91184
G1 X153.76 Y131.375 E35.71192
G1 X153.76 Y150.625 E36.31543
G0 F4200 X153.51 Y150.625
G0 X153.26 Y150.125
;TYPE:WALL-INNER
G1 F900 X128.74 Y150.125 E37.08415
G1 X128.74 Y131.875 E37.6563
G1 X153.26 Y131.875 E38.42503
G1 X153.26 Y150.125 E38.99718
G0 F4200 X152.77 Y149.635
