;Generated by Cura LulzBot Edition GCodeWriter Version: 3.6.20
;FLAVOR:Marlin
;TIME:1021
;Filament used: 0.596411m
;Layer height: 0.35
;Generated with Cura_SteamEngine 3.6.20
M82 ;absolute extrusion mode
;This G-Code has been generated specifically for the LulzBot TAZ Workhorse with HE 0.5mm Tool Head
M73 P0 ; clear GLCD progress bar
M75 ; start GLCD timer
G26 ; clear potential 'probe fail' condition
M107 ; disable fans
M420 S0 ; disable previous leveling matrix
G90 ; absolute positioning
M82 ; set extruder to absolute mode
G92 E0 ; set extruder position to 0
M140 S55.0 ; start bed heating up
M109 R180 ; soften filament before homing Z
G28 ; Home all axis
G1 E-30 F100 ; retract filament
M109 R170 ; wait for extruder to reach wiping temp
G1 X-15 Y100 F3000 ; move above wiper pad
G1 Z1 ; push nozzle into wiper
G1 X-17 Y95 F1000 ; slow wipe
G1 X-17 Y90 F1000 ; slow wipe
G1 X-17 Y85 F1000 ; slow wipe
G1 X-15 Y90 F1000 ; slow wipe
G1 X-17 Y80 F1000 ; slow wipe
G1 X-15 Y95 F1000 ; slow wipe
G1 X-17 Y75 F2000 ; fast wipe
G1 X-15 Y65 F2000 ; fast wipe
G1 X-17 Y70 F2000 ; fast wipe
G1 X-15 Y60 F2000 ; fast wipe
G1 X-17 Y55 F2000 ; fast wipe
G1 X-15 Y50 F2000 ; fast wipe
G1 X-17 Y40 F2000 ; fast wipe
G1 X-15 Y45 F2000 ; fast wipe
G1 X-17 Y35 F2000 ; fast wipe
G1 X-15 Y40 F2000 ; fast wipe
G1 X-17 Y70 F2000 ; fast wipe
G1 X-15 Y30 Z2 F2000 ; fast wipe
G1 X-17 Y35 F2000 ; fast wipe
G1 X-15 Y25 F2000 ; fast wipe
G1 X-17 Y30 F2000 ; fast wipe
G1 X-15 Y25 Z1.5 F1000 ; slow wipe
G1 X-17 Y23 F1000 ; slow wipe
G1 Z10 ; raise extruder
M109 R160 ; wait for extruder to reach probe temp
G1 X-9 Y-9 ; move above first probe point
M204 S100 ; set probing acceleration
G29       ; start auto-leveling sequence
M420 S1   ; activate bed level matrix
M425 Z    ; use measured Z backlash for compensation
M425 Z F0 ; turn off measured Z backlash compensation. (if activated in the quality settings, this command will automatically be ignored)
M204 S500 ; restore standard acceleration
G1 X0 Y0 Z15 F5000 ; move up off last probe point
G4 S1 ; pause
M400 ; wait for moves to finish
M117 Heating... ; progress indicator message on LCD
M109 R215 ; wait for extruder to reach printing temp
M190 R55.0 ; wait for bed to reach printing temp
G1 Z2 E0 F75 ; prime tiny bit of filament into the nozzle
M117 TAZ Workhorse Printing... ; progress indicator message on LCD

M221 S100 T0
G92 E0
G1 F600 E-2
;LAYER_COUNT:5
;LAYER:0
M107
G0 F4200 X169.95 Y116.946 Z0.4
;TYPE:SKIRT
G1 F900 E0
G1 X169.95 Y165.054 E1.50823
G1 X169.91 Y165.669 E1.52755
G1 X169.791 Y166.273 E1.54685
G1 X169.594 Y166.857 E1.56617
G1 X169.324 Y167.411 E1.5855
G1 X168.984 Y167.925 E1.60482
G1 X168.559 Y168.413 E1.6251
G1 X168.413 Y168.559 E1.63158
G1 X167.95 Y168.965 E1.65088
G1 X167.438 Y169.308 E1.6702
G1 X166.886 Y169.582 E1.68952
G1 X166.304 Y169.783 E1.70883
G1 X165.7 Y169.906 E1.72815
G1 X165.054 Y169.95 E1.74845
G1 X116.946 Y169.95 E3.25668
G1 X116.331 Y169.91 E3.276
G1 X115.727 Y169.791 E3.2953
G1 X115.143 Y169.594 E3.31463
G1 X114.589 Y169.324 E3.33395
G1 X114.075 Y168.984 E3.35327
G1 X113.587 Y168.559 E3.37356
G1 X113.441 Y168.413 E3.38003
G1 X113.035 Y167.95 E3.39934
G1 X112.692 Y167.438 E3.41866
G1 X112.418 Y166.886 E3.43798
G1 X112.217 Y166.304 E3.45728
G1 X112.094 Y165.7 E3.47661
G1 X112.05 Y165.054 E3.49691
G1 X112.05 Y116.946 E5.00514
G1 X112.09 Y116.331 E5.02446
G1 X112.209 Y115.727 E5.04376
G1 X112.406 Y115.143 E5.06308
G1 X112.676 Y114.589 E5.0824
G1 X113.016 Y114.075 E5.10172
G1 X113.441 Y113.587 E5.12201
G1 X113.587 Y113.441 E5.12848
G1 X114.05 Y113.035 E5.14779
G1 X114.562 Y112.692 E5.16711
G1 X115.114 Y112.418 E5.18643
G1 X115.696 Y112.217 E5.20573
G1 X116.3 Y112.094 E5.22506
G1 X116.946 Y112.05 E5.24536
G1 X165.054 Y112.05 E6.75359
G1 X165.669 Y112.09 E6.77291
G1 X166.273 Y112.209 E6.79221
G1 X166.857 Y112.406 E6.81153
G1 X167.411 Y112.676 E6.83085
G1 X167.925 Y113.016 E6.85017
G1 X168.413 Y113.441 E6.87046
G1 X168.559 Y113.587 E6.87694
G1 X168.965 Y114.05 E6.89624
G1 X169.308 Y114.562 E6.91556
G1 X169.582 Y115.114 E6.93488
G1 X169.783 Y115.696 E6.95419
G1 X169.906 Y116.3 E6.97351
G1 X169.95 Y116.946 E6.99381
G0 F4200 X169.45 Y116.946
G1 F900 X169.45 Y165.054 E8.50204
G1 X169.41 Y165.635 E8.5203
G1 X169.291 Y166.206 E8.53859
G1 X169.095 Y166.755 E8.55686
G1 X168.826 Y167.271 E8.5751
G1 X168.488 Y167.747 E8.59341
G1 X168.205 Y168.059 E8.60661
G1 X168.059 Y168.205 E8.61309
G1 X167.62 Y168.588 E8.63135
G1 X167.132 Y168.907 E8.64963
G1 X166.606 Y169.157 E8.66789
G1 X166.05 Y169.332 E8.68616
G1 X165.475 Y169.429 E8.70444
G1 X165.054 Y169.45 E8.71766
G1 X116.946 Y169.45 E10.22589
G1 X116.365 Y169.41 E10.24415
G1 X115.794 Y169.291 E10.26243
G1 X115.245 Y169.095 E10.28071
G1 X114.729 Y168.826 E10.29895
G1 X114.253 Y168.488 E10.31725
G1 X113.941 Y168.205 E10.33046
G1 X113.795 Y168.059 E10.33693
G1 X113.412 Y167.62 E10.3552
G1 X113.093 Y167.132 E10.37348
G1 X112.843 Y166.606 E10.39173
G1 X112.668 Y166.05 E10.41001
G1 X112.571 Y165.475 E10.42829
G1 X112.55 Y165.054 E10.44151
G1 X112.55 Y116.946 E11.94974
G1 X112.59 Y116.365 E11.96799
G1 X112.709 Y115.794 E11.98628
G1 X112.905 Y115.245 E12.00456
G1 X113.174 Y114.729 E12.0228
G1 X113.512 Y114.253 E12.0411
G1 X113.795 Y113.941 E12.05431
G1 X113.941 Y113.795 E12.06078
G1 X114.38 Y113.412 E12.07904
G1 X114.868 Y113.093 E12.09732
G1 X115.394 Y112.843 E12.11558
G1 X115.95 Y112.668 E12.13386
G1 X116.525 Y112.571 E12.15214
G1 X116.946 Y112.55 E12.16535
G1 X165.054 Y112.55 E13.67358
G1 X165.635 Y112.59 E13.69184
G1 X166.206 Y112.709 E13.71013
G1 X166.755 Y112.905 E13.7284
G1 X167.271 Y113.174 E13.74665
G1 X167.747 Y113.512 E13.76495
G1 X168.059 Y113.795 E13.77815
G1 X168.205 Y113.941 E13.78463
G1 X168.588 Y114.38 E13.80289
G1 X168.907 Y114.868 E13.82117
G1 X169.157 Y115.394 E13.83943
G1 X169.332 Y115.95 E13.8577
G1 X169.429 Y116.525 E13.87598
G1 X169.45 Y116.946 E13.8892
G0 F4200 X168.95 Y116.946
G1 F900 X168.95 Y165.054 E15.39743
G1 X168.91 Y165.6 E15.41459
G1 X168.791 Y166.134 E15.43175
G1 X168.596 Y166.645 E15.44889
G1 X168.328 Y167.123 E15.46607
G1 X167.852 Y167.706 E15.48967
G1 X167.706 Y167.852 E15.49614
G1 X167.291 Y168.209 E15.5133
G1 X166.829 Y168.503 E15.53047
G1 X166.33 Y168.726 E15.54761
G1 X165.803 Y168.874 E15.56477
G1 X165.054 Y168.95 E15.58837
G1 X116.946 Y168.95 E17.0966
G1 X116.4 Y168.91 E17.11376
G1 X115.866 Y168.791 E17.13092
G1 X115.355 Y168.596 E17.14806
G1 X114.877 Y168.328 E17.16524
G1 X114.294 Y167.852 E17.18884
G1 X114.148 Y167.706 E17.19531
G1 X113.791 Y167.291 E17.21248
G1 X113.497 Y166.829 E17.22964
G1 X113.274 Y166.33 E17.24678
G1 X113.126 Y165.803 E17.26394
G1 X113.05 Y165.054 E17.28754
G1 X113.05 Y116.946 E18.79577
G1 X113.09 Y116.4 E18.81294
G1 X113.209 Y115.866 E18.83009
G1 X113.404 Y115.355 E18.84724
G1 X113.672 Y114.877 E18.86442
G1 X114.148 Y114.294 E18.88801
G1 X114.294 Y114.148 E18.89449
G1 X114.709 Y113.791 E18.91165
G1 X115.171 Y113.497 E18.92882
G1 X115.67 Y113.274 E18.94595
G1 X116.197 Y113.126 E18.96311
G1 X116.946 Y113.05 E18.98671
G1 X165.054 Y113.05 E20.49495
G1 X165.6 Y113.09 E20.51211
G1 X166.134 Y113.209 E20.52926
G1 X166.645 Y113.404 E20.54641
G1 X167.123 Y113.672 E20.56359
G1 X167.706 Y114.148 E20.58718
G1 X167.852 Y114.294 E20.59366
G1 X168.209 Y114.709 E20.61082
G1 X168.503 Y115.171 E20.62799
G1 X168.726 Y115.67 E20.64512
G1 X168.874 Y116.197 E20.66228
G1 X168.95 Y116.946 E20.68589
G0 F4200 X168.45 Y116.946
G1 F900 X168.45 Y165.054 E22.19412
G1 X168.41 Y165.562 E22.21009
G1 X168.291 Y166.057 E22.22605
G1 X168.096 Y166.528 E22.24204
G1 X167.83 Y166.963 E22.25802
G1 X167.498 Y167.352 E22.27405
G1 X167.352 Y167.498 E22.28053
G1 X166.965 Y167.829 E22.29649
G1 X166.53 Y168.095 E22.31248
G1 X166.06 Y168.29 E22.32843
G1 X165.564 Y168.41 E22.34443
G1 X165.054 Y168.45 E22.36047
G1 X116.946 Y168.45 E23.8687
G1 X116.438 Y168.41 E23.88467
G1 X115.943 Y168.291 E23.90063
G1 X115.472 Y168.096 E23.91662
G1 X115.037 Y167.83 E23.9326
G1 X114.648 Y167.498 E23.94863
G1 X114.502 Y167.352 E23.95511
G1 X114.171 Y166.965 E23.97107
G1 X113.905 Y166.53 E23.98706
G1 X113.71 Y166.06 E24.00301
G1 X113.59 Y165.564 E24.01901
G1 X113.55 Y165.054 E24.03505
G1 X113.55 Y116.946 E25.54328
G1 X113.59 Y116.438 E25.55925
G1 X113.709 Y115.943 E25.57521
G1 X113.904 Y115.472 E25.5912
G1 X114.17 Y115.037 E25.60718
G1 X114.502 Y114.648 E25.62321
G1 X114.648 Y114.502 E25.62969
G1 X115.035 Y114.171 E25.64565
G1 X115.47 Y113.905 E25.66164
G1 X115.94 Y113.71 E25.67759
G1 X116.436 Y113.59 E25.69359
G1 X116.946 Y113.55 E25.70963
G1 X165.054 Y113.55 E27.21786
G1 X165.562 Y113.59 E27.23383
G1 X166.057 Y113.709 E27.2498
G1 X166.528 Y113.904 E27.26578
G1 X166.963 Y114.17 E27.28176
G1 X167.352 Y114.502 E27.2978
G1 X167.498 Y114.648 E27.30427
G1 X167.829 Y115.035 E27.32023
G1 X168.095 Y115.47 E27.33622
G1 X168.29 Y115.94 E27.35217
G1 X168.41 Y116.436 E27.36817
G1 X168.45 Y116.946 E27.38421
G0 F4200 X167.95 Y116.946
G1 F900 X167.95 Y165.054 E28.89244
G1 X167.91 Y165.521 E28.90713
G1 X167.791 Y165.974 E28.92182
G1 X167.598 Y166.401 E28.93651
G1 X167.334 Y166.788 E28.9512
G1 X167.145 Y166.999 E28.96008
G1 X166.999 Y167.145 E28.96655
G1 X166.64 Y167.446 E28.98124
G1 X166.236 Y167.683 E28.99592
G1 X165.797 Y167.848 E29.01062
G1 X165.337 Y167.935 E29.0253
G1 X165.054 Y167.95 E29.03419
G1 X116.946 Y167.95 E30.54242
G1 X116.479 Y167.91 E30.55711
G1 X116.026 Y167.791 E30.5718
G1 X115.599 Y167.598 E30.58649
G1 X115.212 Y167.334 E30.60117
G1 X115.001 Y167.145 E30.61005
G1 X114.855 Y166.999 E30.61653
G1 X114.554 Y166.64 E30.63121
G1 X114.317 Y166.236 E30.6459
G1 X114.152 Y165.797 E30.6606
G1 X114.065 Y165.337 E30.67528
G1 X114.05 Y165.054 E30.68416
G1 X114.05 Y116.946 E32.19239
G1 X114.09 Y116.479 E32.20709
G1 X114.209 Y116.026 E32.22177
G1 X114.402 Y115.599 E32.23646
G1 X114.666 Y115.212 E32.25115
G1 X114.855 Y115.001 E32.26003
G1 X115.001 Y114.855 E32.2665
G1 X115.36 Y114.554 E32.28119
G1 X115.764 Y114.317 E32.29588
G1 X116.203 Y114.152 E32.31058
G1 X116.663 Y114.065 E32.32526
G1 X116.946 Y114.05 E32.33414
G1 X165.054 Y114.05 E33.84237
G1 X165.521 Y114.09 E33.85707
G1 X165.974 Y114.209 E33.87175
G1 X166.401 Y114.402 E33.88644
G1 X166.788 Y114.666 E33.90113
G1 X166.999 Y114.855 E33.91001
G1 X167.145 Y115.001 E33.91648
G1 X167.446 Y115.36 E33.93117
G1 X167.683 Y115.764 E33.94585
G1 X167.848 Y116.203 E33.96056
G1 X167.935 Y116.663 E33.97523
G1 X167.95 Y116.946 E33.98412
G0 F4200 X167.45 Y116.946
G1 F900 X167.45 Y165.054 E35.49235
G1 X167.41 Y165.476 E35.50564
G1 X167.292 Y165.883 E35.51892
G1 X167.099 Y166.26 E35.5322
G1 X166.791 Y166.645 E35.54766
G1 X166.645 Y166.791 E35.55413
G1 X166.318 Y167.061 E35.56743
G1 X165.947 Y167.265 E35.5807
G1 X165.544 Y167.396 E35.59399
G1 X165.054 Y167.45 E35.60944
G1 X116.946 Y167.45 E37.11767
G1 X116.524 Y167.41 E37.13096
G1 X116.117 Y167.292 E37.14425
G1 X115.74 Y167.099 E37.15752
G1 X115.355 Y166.791 E37.17298
G1 X115.209 Y166.645 E37.17945
G1 X114.939 Y166.318 E37.19275
G1 X114.735 Y165.947 E37.20602
G1 X114.604 Y165.544 E37.21931
G1 X114.55 Y165.054 E37.23476
G1 X114.55 Y116.946 E38.74299
G1 X114.59 Y116.524 E38.75628
G1 X114.708 Y116.117 E38.76957
G1 X114.901 Y115.74 E38.78285
G1 X115.209 Y115.355 E38.7983
G1 X115.355 Y115.209 E38.80478
G1 X115.682 Y114.939 E38.81807
G1 X116.053 Y114.735 E38.83134
G1 X116.456 Y114.604 E38.84463
G1 X116.946 Y114.55 E38.86008
G1 X165.054 Y114.55 E40.36831
G1 X165.476 Y114.59 E40.3816
G1 X165.883 Y114.708 E40.39489
G1 X166.26 Y114.901 E40.40817
G1 X166.645 Y115.209 E40.42363
G1 X166.791 Y115.355 E40.4301
G1 X167.061 Y115.682 E40.44339
G1 X167.265 Y116.053 E40.45667
G1 X167.396 Y116.456 E40.46995
G1 X167.45 Y116.946 E40.48541
G0 F4200 X166.95 Y116.946
G1 F900 X166.95 Y165.054 E41.99364
G1 X166.91 Y165.425 E42.00534
G1 X166.792 Y165.78 E42.01706
G1 X166.602 Y166.102 E42.02879
G1 X166.437 Y166.291 E42.03665
G1 X166.291 Y166.437 E42.04312
G1 X166.001 Y166.672 E42.05483
G1 X165.667 Y166.839 E42.06653
G1 X165.305 Y166.932 E42.07825
G1 X165.054 Y166.95 E42.08614
G1 X116.946 Y166.95 E43.59437
G1 X116.575 Y166.91 E43.60607
G1 X116.22 Y166.792 E43.6178
G1 X115.898 Y166.602 E43.62952
G1 X115.709 Y166.437 E43.63738
G1 X115.563 Y166.291 E43.64386
G1 X115.328 Y166.001 E43.65556
G1 X115.161 Y165.667 E43.66727
G1 X115.068 Y165.305 E43.67898
G1 X115.05 Y165.054 E43.68687
G1 X115.05 Y116.946 E45.1951
G1 X115.09 Y116.575 E45.2068
G1 X115.208 Y116.22 E45.21853
G1 X115.398 Y115.898 E45.23025
G1 X115.563 Y115.709 E45.23812
G1 X115.709 Y115.563 E45.24459
G1 X115.999 Y115.328 E45.25629
G1 X116.333 Y115.161 E45.268
G1 X116.695 Y115.068 E45.27972
G1 X116.946 Y115.05 E45.28761
G1 X165.054 Y115.05 E46.79584
G1 X165.425 Y115.09 E46.80754
G1 X165.78 Y115.208 E46.81927
G1 X166.102 Y115.398 E46.83099
G1 X166.291 Y115.563 E46.83885
G1 X166.437 Y115.709 E46.84533
G1 X166.672 Y115.999 E46.85703
G1 X166.839 Y116.333 E46.86873
G1 X166.932 Y116.695 E46.88045
G1 X166.95 Y116.946 E46.88834
G0 F4200 X166.45 Y116.946
G1 F900 X166.45 Y165.054 E48.39657
G1 X166.41 Y165.367 E48.40646
G1 X166.293 Y165.66 E48.41636
G1 X166.084 Y165.938 E48.42726
G1 X165.938 Y166.084 E48.43373
G1 X165.688 Y166.277 E48.44363
G1 X165.398 Y166.402 E48.45353
G1 X165.054 Y166.45 E48.46442
G1 X116.946 Y166.45 E49.97265
G1 X116.633 Y166.41 E49.98255
G1 X116.34 Y166.293 E49.99244
G1 X116.062 Y166.084 E50.00334
G1 X115.916 Y165.938 E50.00982
G1 X115.723 Y165.688 E50.01972
G1 X115.598 Y165.398 E50.02962
G1 X115.55 Y165.054 E50.04051
G1 X115.55 Y116.946 E51.54874
G1 X115.59 Y116.633 E51.55863
G1 X115.707 Y116.34 E51.56852
G1 X115.916 Y116.062 E51.57942
G1 X116.062 Y115.916 E51.5859
G1 X116.312 Y115.723 E51.5958
G1 X116.602 Y115.598 E51.6057
G1 X116.946 Y115.55 E51.61659
G1 X165.054 Y115.55 E53.12482
G1 X165.367 Y115.59 E53.13471
G1 X165.66 Y115.707 E53.1446
G1 X165.938 Y115.916 E53.15551
G1 X166.084 Y116.062 E53.16198
G1 X166.277 Y116.312 E53.17188
G1 X166.402 Y116.602 E53.18178
G1 X166.45 Y116.946 E53.19267
G0 F4200 X165.95 Y116.946
G1 F900 X165.95 Y165.054 E54.7009
G1 X165.91 Y165.295 E54.70856
G1 X165.73 Y165.584 E54.71923
G1 X165.584 Y165.73 E54.72571
G1 X165.386 Y165.873 E54.73336
G1 X165.054 Y165.95 E54.74405
G1 X116.946 Y165.95 E56.25228
G1 X116.705 Y165.91 E56.25994
G1 X116.416 Y165.73 E56.27061
G1 X116.27 Y165.584 E56.27709
G1 X116.127 Y165.386 E56.28474
G1 X116.05 Y165.054 E56.29543
G1 X116.05 Y116.946 E57.80366
G1 X116.09 Y116.705 E57.81132
G1 X116.27 Y116.416 E57.82199
G1 X116.416 Y116.27 E57.82846
G1 X116.614 Y116.127 E57.83612
G1 X116.946 Y116.05 E57.84681
G1 X165.054 Y116.05 E59.35504
G1 X165.295 Y116.09 E59.3627
G1 X165.584 Y116.27 E59.37337
G1 X165.73 Y116.416 E59.37984
G1 X165.873 Y116.614 E59.3875
G1 X165.95 Y116.946 E59.39819
G0 F4200 X165.45 Y116.946
G1 F900 X165.45 Y165.054 E60.90642
G1 X165.377 Y165.231 E60.91242
G1 X165.231 Y165.377 E60.91889
G1 X165.054 Y165.45 E60.92489
G1 X116.946 Y165.45 E62.43312
G1 X116.769 Y165.377 E62.43913
G1 X116.623 Y165.231 E62.4456
G1 X116.55 Y165.054 E62.4516
G1 X116.55 Y116.946 E63.95983
G1 X116.623 Y116.769 E63.96584
G1 X116.769 Y116.623 E63.97231
G1 X116.946 Y116.55 E63.97831
G1 X165.054 Y116.55 E65.48654
G1 X165.231 Y116.623 E65.49254
G1 X165.377 Y116.769 E65.49902
G1 X165.45 Y116.946 E65.50502
G1 F600 E63.50502
;MESH:
G0 F4200 X159.75 Y130.493
;TYPE:WALL-OUTER
G1 F900 E65.50502
G1 X159.424 Y130.629 E65.51609
G1 X159.144 Y130.844 E65.52716
G1 X158.929 Y131.124 E65.53823
G1 X158.793 Y131.45 E65.5493
G1 X158.748 Y131.8 E65.56037
G1 X158.793 Y132.15 E65.57143
G1 X158.929 Y132.476 E65.5825
G1 X159.144 Y132.756 E65.59357
G1 X159.424 Y132.971 E65.60464
G1 X159.75 Y133.107 E65.61571
