;Generated by Cura LulzBot Edition GCodeWriter Version: 3.6.20
;FLAVOR:Marlin
;TIME:1435
;Filament used: 0.838404m
;Layer height: 0.35
;Generated with Cura_SteamEngine 3.6.20
M82 ;absolute extrusion mode
;This G-Code has been generated specifically for the LulzBot TAZ Workhorse with HE 0.5mm Tool Head
M73 P0 ; clear GLCD progress bar
M75 ; start GLCD timer
G26 ; clear potential 'probe fail' condition
M107 ; disable fans
M420 S0 ; disable previous leveling matrix
G90 ; absolute positioning
M82 ; set extruder to absolute mode
G92 E0 ; set extruder position to 0
M140 S55.0 ; start bed heating up
M109 R180 ; soften filament before homing Z
G28 ; Home all axis
G1 E-30 F100 ; retract filament
M109 R170 ; wait for extruder to reach wiping temp
G1 X-15 Y100 F3000 ; move above wiper pad
G1 Z1 ; push nozzle into wiper
G1 X-17 Y95 F1000 ; slow wipe
G1 X-17 Y90 F1000 ; slow wipe
G1 X-17 Y85 F1000 ; slow wipe
G1 X-15 Y90 F1000 ; slow wipe
G1 X-17 Y80 F1000 ; slow wipe
G1 X-15 Y95 F1000 ; slow wipe
G1 X-17 Y75 F2000 ; fast wipe
G1 X-15 Y65 F2000 ; fast wipe
G1 X-17 Y70 F2000 ; fast wipe
G1 X-15 Y60 F2000 ; fast wipe
G1 X-17 Y55 F2000 ; fast wipe
G1 X-15 Y50 F2000 ; fast wipe
G1 X-17 Y40 F2000 ; fast wipe
G1 X-15 Y45 F2000 ; fast wipe
G1 X-17 Y35 F2000 ; fast wipe
G1 X-15 Y40 F2000 ; fast wipe
G1 X-17 Y70 F2000 ; fast wipe
G1 X-15 Y30 Z2 F2000 ; fast wipe
G1 X-17 Y35 F2000 ; fast wipe
G1 X-15 Y25 F2000 ; fast wipe
G1 X-17 Y30 F2000 ; fast wipe
G1 X-15 Y25 Z1.5 F1000 ; slow wipe
G1 X-17 Y23 F1000 ; slow wipe
G1 Z10 ; raise extruder
M109 R160 ; wait for extruder to reach probe temp
G1 X-9 Y-9 ; move above first probe point
M204 S100 ; set probing acceleration
G29       ; start auto-leveling sequence
M420 S1   ; activate bed level matrix
M425 Z    ; use measured Z backlash for compensation
M425 Z F0 ; turn off measured Z backlash compensation. (if activated in the quality settings, this command will automatically be ignored)
M204 S500 ; restore standard acceleration
G1 X0 Y0 Z15 F5000 ; move up off last probe point
G4 S1 ; pause
M400 ; wait for moves to finish
M117 Heating... ; progress indicator message on LCD
M109 R215 ; wait for extruder to reach printing temp
M190 R55.0 ; wait for bed to reach printing temp
G1 Z2 E0 F75 ; prime tiny bit of filament into the nozzle
M117 TAZ Workhorse Printing... ; progress indicator message on LCD

M221 S100 T0
G92 E0
G1 F600 E-2
;LAYER_COUNT:5
;LAYER:0
M107
G0 F4200 X174.75 Y109.146 Z0.4
;TYPE:SKIRT
G1 F900 E0
G1 X174.75 Y172.854 E1.9973
G1 X174.71 Y173.469 E2.01663
G1 X174.591 Y174.073 E2.03593
G1 X174.394 Y174.657 E2.05525
G1 X174.124 Y175.211 E2.07457
G1 X173.784 Y175.725 E2.09389
G1 X173.359 Y176.213 E2.11418
G1 X173.213 Y176.359 E2.12065
G1 X172.75 Y176.765 E2.13996
G1 X172.238 Y177.108 E2.15928
G1 X171.686 Y177.382 E2.1786
G1 X171.104 Y177.583 E2.1979
G1 X170.5 Y177.706 E2.21723
G1 X169.854 Y177.75 E2.23753
G1 X112.146 Y177.75 E4.04673
G1 X111.531 Y177.71 E4.06605
G1 X110.927 Y177.591 E4.08535
G1 X110.343 Y177.394 E4.10467
G1 X109.789 Y177.124 E4.12399
G1 X109.275 Y176.784 E4.14331
G1 X108.787 Y176.359 E4.1636
G1 X108.641 Y176.213 E4.17007
G1 X108.235 Y175.75 E4.18938
G1 X107.892 Y175.238 E4.2087
G1 X107.618 Y174.686 E4.22802
G1 X107.417 Y174.104 E4.24732
G1 X107.294 Y173.5 E4.26665
G1 X107.25 Y172.854 E4.28695
G1 X107.25 Y109.146 E6.28425
G1 X107.29 Y108.531 E6.30358
G1 X107.409 Y107.927 E6.32288
G1 X107.606 Y107.343 E6.3422
G1 X107.876 Y106.789 E6.36152
G1 X108.216 Y106.275 E6.38084
G1 X108.641 Y105.787 E6.40113
G1 X108.787 Y105.641 E6.4076
G1 X109.25 Y105.235 E6.42691
G1 X109.762 Y104.892 E6.44623
G1 X110.314 Y104.618 E6.46555
G1 X110.896 Y104.417 E6.48485
G1 X111.5 Y104.294 E6.50418
G1 X112.146 Y104.25 E6.52448
G1 X169.854 Y104.25 E8.33368
G1 X170.469 Y104.29 E8.353
G1 X171.073 Y104.409 E8.3723
G1 X171.657 Y104.606 E8.39162
G1 X172.211 Y104.876 E8.41094
G1 X172.725 Y105.216 E8.43026
G1 X173.213 Y105.641 E8.45055
G1 X173.359 Y105.787 E8.45702
G1 X173.765 Y106.25 E8.47633
G1 X174.108 Y106.762 E8.49565
G1 X174.382 Y107.314 E8.51497
G1 X174.583 Y107.896 E8.53427
G1 X174.706 Y108.5 E8.5536
G1 X174.75 Y109.146 E8.5739
G0 F4200 X174.25 Y109.146
G1 F900 X174.25 Y172.854 E10.5712
G1 X174.21 Y173.435 E10.58946
G1 X174.091 Y174.006 E10.60775
G1 X173.895 Y174.555 E10.62602
G1 X173.626 Y175.071 E10.64427
G1 X173.288 Y175.547 E10.66257
G1 X173.005 Y175.859 E10.67577
G1 X172.859 Y176.005 E10.68225
G1 X172.42 Y176.388 E10.70051
G1 X171.932 Y176.707 E10.71879
G1 X171.406 Y176.957 E10.73705
G1 X170.85 Y177.132 E10.75532
G1 X170.275 Y177.229 E10.7736
G1 X169.854 Y177.25 E10.78682
G1 X112.146 Y177.25 E12.59602
G1 X111.565 Y177.21 E12.61428
G1 X110.994 Y177.091 E12.63256
G1 X110.445 Y176.895 E12.65084
G1 X109.929 Y176.626 E12.66908
G1 X109.453 Y176.288 E12.68738
G1 X109.141 Y176.005 E12.70059
G1 X108.995 Y175.859 E12.70706
G1 X108.612 Y175.42 E12.72533
G1 X108.293 Y174.932 E12.74361
G1 X108.043 Y174.406 E12.76186
G1 X107.868 Y173.85 E12.78014
G1 X107.771 Y173.275 E12.79842
G1 X107.75 Y172.854 E12.81164
G1 X107.75 Y109.146 E14.80894
G1 X107.79 Y108.565 E14.8272
G1 X107.909 Y107.994 E14.84548
G1 X108.105 Y107.445 E14.86376
G1 X108.374 Y106.929 E14.882
G1 X108.712 Y106.453 E14.90031
G1 X108.995 Y106.141 E14.91351
G1 X109.141 Y105.995 E14.91998
G1 X109.58 Y105.612 E14.93825
G1 X110.068 Y105.293 E14.95653
G1 X110.594 Y105.043 E14.97479
G1 X111.15 Y104.868 E14.99306
G1 X111.725 Y104.771 E15.01134
G1 X112.146 Y104.75 E15.02456
G1 X169.854 Y104.75 E16.83376
G1 X170.435 Y104.79 E16.85201
G1 X171.006 Y104.909 E16.8703
G1 X171.555 Y105.105 E16.88858
G1 X172.071 Y105.374 E16.90682
G1 X172.547 Y105.712 E16.92512
G1 X172.859 Y105.995 E16.93833
G1 X173.005 Y106.141 E16.9448
G1 X173.388 Y106.58 E16.96307
G1 X173.707 Y107.068 E16.98134
G1 X173.957 Y107.594 E16.9996
G1 X174.132 Y108.15 E17.01788
G1 X174.229 Y108.725 E17.03616
G1 X174.25 Y109.146 E17.04937
G0 F4200 X173.75 Y109.146
G1 F900 X173.75 Y172.854 E19.04668
G1 X173.71 Y173.4 E19.06384
G1 X173.591 Y173.934 E19.08099
G1 X173.396 Y174.445 E19.09814
G1 X173.128 Y174.923 E19.11532
G1 X172.652 Y175.506 E19.13892
G1 X172.506 Y175.652 E19.14539
G1 X172.091 Y176.009 E19.16255
G1 X171.629 Y176.303 E19.17972
G1 X171.13 Y176.526 E19.19686
G1 X170.603 Y176.674 E19.21402
G1 X169.854 Y176.75 E19.23762
G1 X112.146 Y176.75 E21.04682
G1 X111.6 Y176.71 E21.06398
G1 X111.066 Y176.591 E21.08113
G1 X110.555 Y176.396 E21.09828
G1 X110.077 Y176.128 E21.11546
G1 X109.494 Y175.652 E21.13906
G1 X109.348 Y175.506 E21.14553
G1 X108.991 Y175.091 E21.16269
G1 X108.697 Y174.629 E21.17986
G1 X108.474 Y174.13 E21.197
G1 X108.326 Y173.603 E21.21416
G1 X108.25 Y172.854 E21.23776
G1 X108.25 Y109.146 E23.23506
G1 X108.29 Y108.6 E23.25223
G1 X108.409 Y108.066 E23.26938
G1 X108.604 Y107.555 E23.28653
G1 X108.872 Y107.077 E23.30371
G1 X109.348 Y106.494 E23.3273
G1 X109.494 Y106.348 E23.33378
G1 X109.909 Y105.991 E23.35094
G1 X110.371 Y105.697 E23.36811
G1 X110.87 Y105.474 E23.38524
G1 X111.397 Y105.326 E23.4024
G1 X112.146 Y105.25 E23.42601
G1 X169.854 Y105.25 E25.23521
G1 X170.4 Y105.29 E25.25237
G1 X170.934 Y105.409 E25.26952
G1 X171.445 Y105.604 E25.28667
G1 X171.923 Y105.872 E25.30385
G1 X172.506 Y106.348 E25.32744
G1 X172.652 Y106.494 E25.33392
G1 X173.009 Y106.909 E25.35108
G1 X173.303 Y107.371 E25.36825
G1 X173.526 Y107.87 E25.38538
G1 X173.674 Y108.397 E25.40254
G1 X173.75 Y109.146 E25.42615
G0 F4200 X173.25 Y109.146
G1 F900 X173.25 Y172.854 E27.42345
G1 X173.21 Y173.362 E27.43943
G1 X173.091 Y173.857 E27.45539
G1 X172.896 Y174.328 E27.47137
G1 X172.63 Y174.763 E27.48736
G1 X172.298 Y175.152 E27.50339
G1 X172.152 Y175.298 E27.50986
G1 X171.765 Y175.629 E27.52583
G1 X171.33 Y175.895 E27.54181
G1 X170.86 Y176.09 E27.55777
G1 X170.364 Y176.21 E27.57376
G1 X169.854 Y176.25 E27.5898
G1 X112.146 Y176.25 E29.399
G1 X111.638 Y176.21 E29.41498
G1 X111.143 Y176.091 E29.43094
G1 X110.672 Y175.896 E29.44692
G1 X110.237 Y175.63 E29.4629
G1 X109.848 Y175.298 E29.47894
G1 X109.702 Y175.152 E29.48541
G1 X109.371 Y174.765 E29.50138
G1 X109.105 Y174.33 E29.51736
G1 X108.91 Y173.86 E29.53331
G1 X108.79 Y173.364 E29.54931
G1 X108.75 Y172.854 E29.56535
G1 X108.75 Y109.146 E31.56266
G1 X108.79 Y108.638 E31.57863
G1 X108.909 Y108.143 E31.59459
G1 X109.104 Y107.672 E31.61057
G1 X109.37 Y107.237 E31.62656
G1 X109.702 Y106.848 E31.64259
G1 X109.848 Y106.702 E31.64907
G1 X110.235 Y106.371 E31.66503
G1 X110.67 Y106.105 E31.68102
G1 X111.14 Y105.91 E31.69697
G1 X111.636 Y105.79 E31.71297
G1 X112.146 Y105.75 E31.72901
G1 X169.854 Y105.75 E33.53821
G1 X170.362 Y105.79 E33.55418
G1 X170.857 Y105.909 E33.57014
G1 X171.328 Y106.104 E33.58612
G1 X171.763 Y106.37 E33.60211
G1 X172.152 Y106.702 E33.61814
G1 X172.298 Y106.848 E33.62462
G1 X172.629 Y107.235 E33.64058
G1 X172.895 Y107.67 E33.65657
G1 X173.09 Y108.14 E33.67252
G1 X173.21 Y108.636 E33.68852
G1 X173.25 Y109.146 E33.70456
G0 F4200 X172.75 Y109.146
G1 F900 X172.75 Y172.854 E35.70186
G1 X172.71 Y173.321 E35.71656
G1 X172.591 Y173.774 E35.73124
G1 X172.398 Y174.201 E35.74593
G1 X172.134 Y174.588 E35.76062
G1 X171.945 Y174.799 E35.7695
G1 X171.799 Y174.945 E35.77597
G1 X171.44 Y175.246 E35.79066
G1 X171.036 Y175.483 E35.80534
G1 X170.597 Y175.648 E35.82005
G1 X170.137 Y175.735 E35.83472
G1 X169.854 Y175.75 E35.84361
G1 X112.146 Y175.75 E37.65281
G1 X111.679 Y175.71 E37.6675
G1 X111.226 Y175.591 E37.68219
G1 X110.799 Y175.398 E37.69688
G1 X110.412 Y175.134 E37.71156
G1 X110.201 Y174.945 E37.72044
G1 X110.055 Y174.799 E37.72692
G1 X109.754 Y174.44 E37.7416
G1 X109.517 Y174.036 E37.75629
G1 X109.352 Y173.597 E37.77099
G1 X109.265 Y173.137 E37.78567
G1 X109.25 Y172.854 E37.79455
G1 X109.25 Y109.146 E39.79186
G1 X109.29 Y108.679 E39.80655
G1 X109.409 Y108.226 E39.82124
G1 X109.602 Y107.799 E39.83593
G1 X109.866 Y107.412 E39.85061
G1 X110.055 Y107.201 E39.8595
G1 X110.201 Y107.055 E39.86597
G1 X110.56 Y106.754 E39.88066
G1 X110.964 Y106.517 E39.89534
G1 X111.403 Y106.352 E39.91004
G1 X111.863 Y106.265 E39.92472
G1 X112.146 Y106.25 E39.93361
G1 X169.854 Y106.25 E41.74281
G1 X170.321 Y106.29 E41.7575
G1 X170.774 Y106.409 E41.77218
G1 X171.201 Y106.602 E41.78687
G1 X171.588 Y106.866 E41.80156
G1 X171.799 Y107.055 E41.81044
G1 X171.945 Y107.201 E41.81692
G1 X172.246 Y107.56 E41.8316
G1 X172.483 Y107.964 E41.84629
G1 X172.648 Y108.403 E41.86099
G1 X172.735 Y108.863 E41.87567
G1 X172.75 Y109.146 E41.88455
G0 F4200 X172.25 Y109.146
G1 F900 X172.25 Y172.854 E43.88186
G1 X172.21 Y173.276 E43.89515
G1 X172.092 Y173.683 E43.90843
G1 X171.899 Y174.06 E43.92171
G1 X171.591 Y174.445 E43.93717
G1 X171.445 Y174.591 E43.94364
G1 X171.118 Y174.861 E43.95693
G1 X170.747 Y175.065 E43.97021
G1 X170.344 Y175.196 E43.98349
G1 X169.854 Y175.25 E43.99895
G1 X112.146 Y175.25 E45.80815
G1 X111.724 Y175.21 E45.82144
G1 X111.317 Y175.092 E45.83472
G1 X110.94 Y174.899 E45.848
G1 X110.555 Y174.591 E45.86346
G1 X110.409 Y174.445 E45.86993
G1 X110.139 Y174.118 E45.88323
G1 X109.935 Y173.747 E45.8965
G1 X109.804 Y173.344 E45.90978
G1 X109.75 Y172.854 E45.92524
G1 X109.75 Y109.146 E47.92254
G1 X109.79 Y108.724 E47.93583
G1 X109.908 Y108.317 E47.94912
G1 X110.101 Y107.94 E47.9624
G1 X110.409 Y107.555 E47.97785
G1 X110.555 Y107.409 E47.98433
G1 X110.882 Y107.139 E47.99762
G1 X111.253 Y106.935 E48.0109
G1 X111.656 Y106.804 E48.02418
G1 X112.146 Y106.75 E48.03964
G1 X169.854 Y106.75 E49.84884
G1 X170.276 Y106.79 E49.86212
G1 X170.683 Y106.908 E49.87541
G1 X171.06 Y107.101 E49.88869
G1 X171.445 Y107.409 E49.90415
G1 X171.591 Y107.555 E49.91062
G1 X171.861 Y107.882 E49.92391
G1 X172.065 Y108.253 E49.93719
G1 X172.196 Y108.656 E49.95047
G1 X172.25 Y109.146 E49.96593
G0 F4200 X171.75 Y109.146
G1 F900 X171.75 Y172.854 E51.96323
G1 X171.71 Y173.225 E51.97493
G1 X171.592 Y173.58 E51.98666
G1 X171.402 Y173.902 E51.99838
G1 X171.237 Y174.091 E52.00625
G1 X171.091 Y174.237 E52.01272
G1 X170.801 Y174.472 E52.02442
G1 X170.467 Y174.639 E52.03613
G1 X170.105 Y174.732 E52.04785
G1 X169.854 Y174.75 E52.05574
G1 X112.146 Y174.75 E53.86493
G1 X111.775 Y174.71 E53.87663
G1 X111.42 Y174.592 E53.88836
G1 X111.098 Y174.402 E53.90008
G1 X110.909 Y174.237 E53.90795
G1 X110.763 Y174.091 E53.91442
G1 X110.528 Y173.801 E53.92612
G1 X110.361 Y173.467 E53.93783
G1 X110.268 Y173.105 E53.94955
G1 X110.25 Y172.854 E53.95744
G1 X110.25 Y109.146 E55.95474
G1 X110.29 Y108.775 E55.96644
G1 X110.408 Y108.42 E55.97817
G1 X110.598 Y108.098 E55.98989
G1 X110.763 Y107.909 E55.99776
G1 X110.909 Y107.763 E56.00423
G1 X111.199 Y107.528 E56.01593
G1 X111.533 Y107.361 E56.02764
G1 X111.895 Y107.268 E56.03936
G1 X112.146 Y107.25 E56.04725
G1 X169.854 Y107.25 E57.85645
G1 X170.225 Y107.29 E57.86814
G1 X170.58 Y107.408 E57.87987
G1 X170.902 Y107.598 E57.89159
G1 X171.091 Y107.763 E57.89946
G1 X171.237 Y107.909 E57.90593
G1 X171.472 Y108.199 E57.91763
G1 X171.639 Y108.533 E57.92934
G1 X171.732 Y108.895 E57.94106
G1 X171.75 Y109.146 E57.94895
G0 F4200 X171.25 Y109.146
G1 F900 X171.25 Y172.854 E59.94625
G1 X171.21 Y173.167 E59.95615
G1 X171.093 Y173.46 E59.96604
G1 X170.884 Y173.738 E59.97694
G1 X170.738 Y173.884 E59.98341
G1 X170.488 Y174.077 E59.99332
G1 X170.198 Y174.202 E60.00322
G1 X169.854 Y174.25 E60.01411
G1 X112.146 Y174.25 E61.8233
G1 X111.833 Y174.21 E61.8332
G1 X111.54 Y174.093 E61.84309
G1 X111.262 Y173.884 E61.85399
G1 X111.116 Y173.738 E61.86047
G1 X110.923 Y173.488 E61.87037
G1 X110.798 Y173.198 E61.88027
G1 X110.75 Y172.854 E61.89116
G1 X110.75 Y109.146 E63.88846
G1 X110.79 Y108.833 E63.89835
G1 X110.907 Y108.54 E63.90825
G1 X111.116 Y108.262 E63.91915
G1 X111.262 Y108.116 E63.92562
G1 X111.512 Y107.923 E63.93552
G1 X111.802 Y107.798 E63.94542
G1 X112.146 Y107.75 E63.95631
G1 X169.854 Y107.75 E65.76551
G1 X170.167 Y107.79 E65.77541
G1 X170.46 Y107.907 E65.7853
G1 X170.738 Y108.116 E65.7962
G1 X170.884 Y108.262 E65.80267
G1 X171.077 Y108.512 E65.81258
G1 X171.202 Y108.802 E65.82248
G1 X171.25 Y109.146 E65.83337
G0 F4200 X170.75 Y109.146
G1 F900 X170.75 Y172.854 E67.83067
G1 X170.71 Y173.095 E67.83833
G1 X170.53 Y173.384 E67.849
G1 X170.384 Y173.53 E67.85548
G1 X170.186 Y173.673 E67.86313
G1 X169.854 Y173.75 E67.87382
G1 X112.146 Y173.75 E69.68302
G1 X111.905 Y173.71 E69.69068
G1 X111.616 Y173.53 E69.70135
G1 X111.47 Y173.384 E69.70782
G1 X111.327 Y173.186 E69.71548
G1 X111.25 Y172.854 E69.72617
G1 X111.25 Y109.146 E71.72347
G1 X111.29 Y108.905 E71.73113
G1 X111.47 Y108.616 E71.7418
G1 X111.616 Y108.47 E71.74828
G1 X111.814 Y108.327 E71.75593
G1 X112.146 Y108.25 E71.76662
G1 X169.854 Y108.25 E73.57582
G1 X170.095 Y108.29 E73.58348
G1 X170.384 Y108.47 E73.59415
G1 X170.53 Y108.616 E73.60062
G1 X170.673 Y108.814 E73.60828
G1 X170.75 Y109.146 E73.61897
G0 F4200 X170.25 Y109.146
G1 F900 X170.25 Y172.854 E75.61627
G1 X170.177 Y173.031 E75.62227
G1 X170.031 Y173.177 E75.62875
G1 X169.854 Y173.25 E75.63475
G1 X112.146 Y173.25 E77.44395
G1 X111.969 Y173.177 E77.44995
G1 X111.823 Y173.031 E77.45642
G1 X111.75 Y172.854 E77.46243
G1 X111.75 Y109.146 E79.45973
G1 X111.823 Y108.969 E79.46573
G1 X111.969 Y108.823 E79.47221
G1 X112.146 Y108.75 E79.47821
G1 X169.854 Y108.75 E81.28741
G1 X170.031 Y108.823 E81.29341
G1 X170.177 Y108.969 E81.29989
G1 X170.25 Y109.146 E81.30589
G1 F600 E79.30589
;MESH:
G0 F4200 X160.55 Y119.793
;TYPE:WALL-OUTER
G1 F900 E81.30589
G1 X160.224 Y119.929 E81.31696
G1 X159.944 Y120.144 E81.32803
G1 X159.729 Y120.424 E81.3391
G1 X159.593 Y120.75 E81.35017
G1 X159.548 Y121.1 E81.36123
G1 X159.593 Y121.45 E81.3723
G1 X159.729 Y121.776 E81.38337
G1 X159.944 Y122.056 E81.39444
G1 X160.224 Y122.271 E81.40551
