;Generated by Cura LulzBot Edition GCodeWriter Version: 3.6.20
;FLAVOR:Marlin
;TIME:173
;Filament used: 0.0822808m
;Layer height: 0.35
;Generated with Cura_SteamEngine 3.6.20
M82 ;absolute extrusion mode
;This G-Code has been generated specifically for the LulzBot TAZ Workhorse with HE 0.5mm Tool Head
M73 P0 ; clear GLCD progress bar
M75 ; start GLCD timer
G26 ; clear potential 'probe fail' condition
M107 ; disable fans
M420 S0 ; disable previous leveling matrix
G90 ; absolute positioning
M82 ; set extruder to absolute mode
G92 E0 ; set extruder position to 0
M140 S55.0 ; start bed heating up
M109 R180 ; soften filament before homing Z
G28 ; Home all axis
G1 E-30 F100 ; retract filament
M109 R170 ; wait for extruder to reach wiping temp
G1 X-15 Y100 F3000 ; move above wiper pad
G1 Z1 ; push nozzle into wiper
G1 X-17 Y95 F1000 ; slow wipe
G1 X-17 Y90 F1000 ; slow wipe
G1 X-17 Y85 F1000 ; slow wipe
G1 X-15 Y90 F1000 ; slow wipe
G1 X-17 Y80 F1000 ; slow wipe
G1 X-15 Y95 F1000 ; slow wipe
G1 X-17 Y75 F2000 ; fast wipe
G1 X-15 Y65 F2000 ; fast wipe
G1 X-17 Y70 F2000 ; fast wipe
G1 X-15 Y60 F2000 ; fast wipe
G1 X-17 Y55 F2000 ; fast wipe
G1 X-15 Y50 F2000 ; fast wipe
G1 X-17 Y40 F2000 ; fast wipe
G1 X-15 Y45 F2000 ; fast wipe
G1 X-17 Y35 F2000 ; fast wipe
G1 X-15 Y40 F2000 ; fast wipe
G1 X-17 Y70 F2000 ; fast wipe
G1 X-15 Y30 Z2 F2000 ; fast wipe
G1 X-17 Y35 F2000 ; fast wipe
G1 X-15 Y25 F2000 ; fast wipe
G1 X-17 Y30 F2000 ; fast wipe
G1 X-15 Y25 Z1.5 F1000 ; slow wipe
G1 X-17 Y23 F1000 ; slow wipe
G1 Z10 ; raise extruder
M109 R160 ; wait for extruder to reach probe temp
G1 X-9 Y-9 ; move above first probe point
M204 S100 ; set probing acceleration
G29       ; start auto-leveling sequence
M420 S1   ; activate bed level matrix
M425 Z    ; use measured Z backlash for compensation
M425 Z F0 ; turn off measured Z backlash compensation. (if activated in the quality settings, this command will automatically be ignored)
M204 S500 ; restore standard acceleration
G1 X0 Y0 Z15 F5000 ; move up off last probe point
G4 S1 ; pause
M400 ; wait for moves to finish
M117 Heating... ; progress indicator message on LCD
M109 R215 ; wait for extruder to reach printing temp
M190 R55.0 ; wait for bed to reach printing temp
G1 Z2 E0 F75 ; prime tiny bit of filament into the nozzle
M117 TAZ Workhorse Printing... ; progress indicator message on LCD

M221 S100 T0
G92 E0
G1 F600 E-2
;LAYER_COUNT:5
;LAYER:0
M107
G0 F4200 X155.387 Y149.55 Z0.4
;TYPE:SKIRT
G1 F900 E0
G1 X126.388 Y149.527 E0.90915
G1 X125.773 Y149.487 E0.92847
G1 X125.169 Y149.367 E0.94777
G1 X124.521 Y149.143 E0.96927
G1 X124.164 Y148.99 E0.98145
G1 X123.615 Y148.711 E1.00075
G1 X123.106 Y148.363 E1.02008
G1 X122.622 Y147.928 E1.04048
G1 X122.348 Y147.645 E1.05283
G1 X121.949 Y147.176 E1.07214
G1 X121.615 Y146.658 E1.09146
G1 X121.353 Y146.112 E1.11045
G1 X121.21 Y145.756 E1.12248
G1 X121.018 Y145.17 E1.14181
G1 X120.904 Y144.565 E1.16111
G1 X120.868 Y144.028 E1.17798
G1 X120.867 Y143.907 E1.18178
G1 X120.757 Y143.686 E1.18952
G1 X120.556 Y143.104 E1.20882
G1 X120.433 Y142.5 E1.22814
G1 X120.389 Y141.854 E1.24844
G1 X120.389 Y140.146 E1.30199
G1 X120.429 Y139.531 E1.32131
G1 X120.548 Y138.927 E1.34061
G1 X120.745 Y138.343 E1.35993
G1 X120.871 Y138.084 E1.36896
G1 X120.873 Y137.937 E1.37357
G1 X120.92 Y137.322 E1.39291
G1 X121.046 Y136.719 E1.41222
G1 X121.259 Y136.115 E1.4323
G1 X121.412 Y135.759 E1.44445
G1 X121.691 Y135.21 E1.46376
G1 X122.04 Y134.702 E1.48308
G1 X122.472 Y134.222 E1.50333
G1 X122.755 Y133.948 E1.51567
G1 X123.224 Y133.549 E1.53498
G1 X123.742 Y133.215 E1.5543
G1 X124.288 Y132.953 E1.57329
G1 X124.644 Y132.81 E1.58532
G1 X125.23 Y132.618 E1.60465
G1 X125.835 Y132.504 E1.62395
G1 X126.412 Y132.468 E1.64208
G1 X155.401 Y132.451 E2.55091
G1 X156.016 Y132.491 E2.57023
G1 X156.372 Y132.551 E2.58155
G1 X156.761 Y132.632 E2.594
G1 X157.355 Y132.796 E2.61332
G1 X157.923 Y133.036 E2.63266
G1 X158.49 Y133.372 E2.65332
G1 X158.809 Y133.592 E2.66547
G1 X159.292 Y133.974 E2.68477
G1 X159.722 Y134.415 E2.70408
G1 X160.074 Y134.881 E2.72239
G1 X160.291 Y135.209 E2.73472
G1 X160.596 Y135.744 E2.75403
G1 X160.831 Y136.314 E2.77336
G1 X160.997 Y136.951 E2.794
G1 X161.068 Y137.328 E2.80602
G1 X161.141 Y138.108 E2.83058
G1 X161.243 Y138.314 E2.83779
G1 X161.444 Y138.896 E2.85709
G1 X161.567 Y139.5 E2.87642
G1 X161.611 Y140.146 E2.89672
G1 X161.611 Y141.854 E2.95026
G1 X161.571 Y142.469 E2.96959
G1 X161.452 Y143.073 E2.98889
G1 X161.255 Y143.657 E3.00821
G1 X161.129 Y143.916 E3.01724
G1 X161.127 Y144.062 E3.02182
G1 X161.08 Y144.677 E3.04115
G1 X160.954 Y145.28 E3.06047
G1 X160.743 Y145.879 E3.08038
G1 X160.59 Y146.236 E3.09255
G1 X160.311 Y146.785 E3.11186
G1 X159.963 Y147.294 E3.13119
G1 X159.528 Y147.778 E3.15159
G1 X159.245 Y148.052 E3.16394
G1 X158.776 Y148.451 E3.18325
G1 X158.258 Y148.785 E3.20257
G1 X157.702 Y149.05 E3.22188
G1 X157.275 Y149.198 E3.23605
G1 X156.725 Y149.359 E3.25401
G1 X156.124 Y149.493 E3.27332
G1 X155.387 Y149.55 E3.29649
G0 F4200 X155.388 Y149.05
G1 F900 X126.389 Y149.027 E4.20564
G1 X125.807 Y148.987 E4.22393
G1 X125.237 Y148.867 E4.24219
G1 X124.718 Y148.683 E4.25945
G1 X124.361 Y148.53 E4.27163
G1 X123.842 Y148.265 E4.2899
G1 X123.365 Y147.93 E4.30817
G1 X122.982 Y147.58 E4.32444
G1 X122.708 Y147.297 E4.33679
G1 X122.332 Y146.852 E4.35505
G1 X122.021 Y146.359 E4.37333
G1 X121.817 Y145.925 E4.38836
G1 X121.674 Y145.569 E4.40039
G1 X121.495 Y145.015 E4.41864
G1 X121.393 Y144.441 E4.43692
G1 X121.368 Y144.024 E4.45002
G1 X121.366 Y143.793 E4.45726
G1 X121.182 Y143.406 E4.47069
G1 X121.007 Y142.85 E4.48897
G1 X120.91 Y142.275 E4.50725
G1 X120.889 Y141.854 E4.52046
G1 X120.889 Y140.146 E4.57401
G1 X120.929 Y139.565 E4.59227
G1 X121.048 Y138.994 E4.61056
G1 X121.244 Y138.445 E4.62883
G1 X121.37 Y138.203 E4.63739
G1 X121.373 Y137.942 E4.64557
G1 X121.42 Y137.361 E4.66384
G1 X121.546 Y136.792 E4.68211
G1 X121.718 Y136.313 E4.69807
G1 X121.871 Y135.957 E4.71022
G1 X122.138 Y135.439 E4.72849
G1 X122.472 Y134.961 E4.74677
G1 X122.82 Y134.582 E4.7629
G1 X123.103 Y134.308 E4.77525
G1 X123.548 Y133.932 E4.79351
G1 X124.041 Y133.621 E4.81179
G1 X124.475 Y133.417 E4.82682
G1 X124.831 Y133.274 E4.83885
G1 X125.385 Y133.095 E4.8571
G1 X125.959 Y132.993 E4.87538
G1 X126.413 Y132.968 E4.88964
G1 X155.402 Y132.951 E5.79847
G1 X155.983 Y132.991 E5.81673
G1 X156.27 Y133.04 E5.82585
G1 X156.659 Y133.121 E5.83831
G1 X157.22 Y133.279 E5.85658
G1 X157.755 Y133.512 E5.87488
G1 X158.206 Y133.783 E5.89137
G1 X158.525 Y134.003 E5.90352
G1 X158.981 Y134.366 E5.92179
G1 X159.383 Y134.788 E5.94007
G1 X159.657 Y135.157 E5.95448
G1 X159.874 Y135.485 E5.96681
G1 X160.161 Y135.992 E5.98507
G1 X160.376 Y136.533 E6.00332
G1 X160.506 Y137.043 E6.01982
G1 X160.577 Y137.42 E6.03185
G1 X160.65 Y138.207 E6.05663
G1 X160.65 Y138.241 E6.05769
G1 X160.818 Y138.594 E6.06995
G1 X160.993 Y139.15 E6.08822
G1 X161.09 Y139.725 E6.10651
G1 X161.111 Y140.146 E6.11972
G1 X161.111 Y141.854 E6.17327
G1 X161.071 Y142.435 E6.19153
G1 X160.952 Y143.006 E6.20981
G1 X160.756 Y143.555 E6.22809
G1 X160.63 Y143.797 E6.23664
G1 X160.627 Y144.057 E6.24479
G1 X160.58 Y144.638 E6.26307
G1 X160.454 Y145.207 E6.28134
G1 X160.283 Y145.682 E6.29717
G1 X160.13 Y146.039 E6.30934
G1 X159.865 Y146.558 E6.32761
G1 X159.53 Y147.035 E6.34589
G1 X159.18 Y147.418 E6.36215
G1 X158.897 Y147.692 E6.3745
G1 X158.452 Y148.068 E6.39277
G1 X157.959 Y148.379 E6.41104
G1 X157.428 Y148.62 E6.42932
G1 X157.135 Y148.718 E6.43901
G1 X156.585 Y148.879 E6.45697
G1 X156.016 Y149.004 E6.47524
G1 X155.388 Y149.05 E6.49498
G0 F4200 X155.388 Y148.55
G1 F900 X126.389 Y148.527 E7.40413
G1 X125.843 Y148.487 E7.42129
G1 X125.309 Y148.367 E7.43845
G1 X124.915 Y148.224 E7.45159
G1 X124.558 Y148.071 E7.46377
G1 X124.072 Y147.819 E7.48093
G1 X123.628 Y147.499 E7.49809
G1 X123.341 Y147.232 E7.51038
G1 X123.067 Y146.949 E7.52273
G1 X122.716 Y146.529 E7.53989
G1 X122.43 Y146.063 E7.55703
G1 X122.281 Y145.739 E7.56821
G1 X122.138 Y145.383 E7.58024
G1 X121.972 Y144.861 E7.59741
G1 X121.883 Y144.321 E7.61457
G1 X121.868 Y144.019 E7.62405
G1 X121.865 Y143.674 E7.63486
G1 X121.836 Y143.629 E7.63654
G1 X121.613 Y143.13 E7.65368
G1 X121.465 Y142.603 E7.67084
G1 X121.389 Y141.854 E7.69444
G1 X121.389 Y140.146 E7.74799
G1 X121.429 Y139.6 E7.76515
G1 X121.548 Y139.066 E7.7823
G1 X121.743 Y138.555 E7.79945
G1 X121.869 Y138.331 E7.80751
G1 X121.873 Y137.948 E7.81951
G1 X121.919 Y137.403 E7.83666
G1 X122.045 Y136.87 E7.85383
G1 X122.178 Y136.51 E7.86586
G1 X122.331 Y136.154 E7.87801
G1 X122.583 Y135.669 E7.89515
G1 X122.903 Y135.225 E7.91231
G1 X123.168 Y134.941 E7.92448
G1 X123.451 Y134.667 E7.93683
G1 X123.871 Y134.316 E7.95399
G1 X124.337 Y134.03 E7.97113
G1 X124.661 Y133.881 E7.98232
G1 X125.017 Y133.738 E7.99434
G1 X125.539 Y133.572 E8.01152
G1 X126.079 Y133.483 E8.02867
G1 X126.413 Y133.468 E8.03916
G1 X155.402 Y133.451 E8.94799
G1 X156.168 Y133.53 E8.97213
G1 X156.557 Y133.611 E8.98459
G1 X157.084 Y133.761 E9.00176
G1 X157.583 Y133.987 E9.01894
G1 X157.922 Y134.195 E9.03141
G1 X158.241 Y134.415 E9.04356
G1 X158.668 Y134.758 E9.06073
G1 X159.04 Y135.159 E9.07788
G1 X159.24 Y135.433 E9.08851
G1 X159.457 Y135.761 E9.10084
G1 X159.724 Y136.238 E9.11798
G1 X159.92 Y136.749 E9.13514
G1 X160.014 Y137.136 E9.14762
G1 X160.085 Y137.513 E9.15965
G1 X160.15 Y138.207 E9.1815
G1 X160.15 Y138.349 E9.18595
G1 X160.164 Y138.371 E9.18677
G1 X160.387 Y138.87 E9.20391
G1 X160.535 Y139.397 E9.22107
G1 X160.611 Y140.146 E9.24467
G1 X160.611 Y141.854 E9.29822
G1 X160.571 Y142.4 E9.31538
G1 X160.452 Y142.934 E9.33253
G1 X160.257 Y143.445 E9.34968
G1 X160.131 Y143.669 E9.35774
G1 X160.127 Y144.051 E9.36971
G1 X160.081 Y144.596 E9.38686
G1 X159.955 Y145.129 E9.40403
G1 X159.824 Y145.485 E9.41592
G1 X159.671 Y145.842 E9.4281
G1 X159.419 Y146.328 E9.44526
G1 X159.099 Y146.772 E9.46242
G1 X158.832 Y147.059 E9.47471
G1 X158.549 Y147.333 E9.48706
G1 X158.129 Y147.684 E9.50422
G1 X157.663 Y147.97 E9.52136
G1 X156.995 Y148.238 E9.54393
G1 X156.445 Y148.399 E9.5619
G1 X155.909 Y148.514 E9.57908
G1 X155.388 Y148.55 E9.59545
G0 F4200 X155.388 Y148.05
G1 F900 X126.389 Y148.027 E10.5046
G1 X125.882 Y147.987 E10.52054
G1 X125.386 Y147.867 E10.53654
G1 X125.112 Y147.764 E10.54572
G1 X124.755 Y147.611 E10.5579
G1 X124.304 Y147.374 E10.57387
G1 X123.895 Y147.07 E10.58985
G1 X123.7 Y146.885 E10.59827
G1 X123.426 Y146.602 E10.61062
G1 X123.101 Y146.209 E10.62661
G1 X122.745 Y145.552 E10.65004
G1 X122.602 Y145.196 E10.66207
G1 X122.45 Y144.71 E10.67803
G1 X122.368 Y144.014 E10.7
G1 X122.364 Y143.526 E10.7153
G1 X122.244 Y143.33 E10.72251
G1 X122.049 Y142.86 E10.73846
G1 X121.929 Y142.364 E10.75446
G1 X121.889 Y141.854 E10.7705
G1 X121.889 Y140.146 E10.82404
G1 X121.929 Y139.638 E10.84002
G1 X122.048 Y139.143 E10.85598
G1 X122.243 Y138.672 E10.87196
G1 X122.367 Y138.469 E10.87942
G1 X122.373 Y137.954 E10.89557
G1 X122.419 Y137.446 E10.91156
G1 X122.543 Y136.952 E10.92752
G1 X122.637 Y136.708 E10.93572
G1 X122.79 Y136.352 E10.94787
G1 X123.027 Y135.901 E10.96384
G1 X123.332 Y135.493 E10.97981
G1 X123.515 Y135.3 E10.98815
G1 X123.798 Y135.026 E11.0005
G1 X124.191 Y134.701 E11.01649
G1 X124.848 Y134.345 E11.03992
G1 X125.204 Y134.202 E11.05194
G1 X125.69 Y134.05 E11.06791
G1 X126.413 Y133.968 E11.09072
G1 X155.402 Y133.951 E11.99955
G1 X156.067 Y134.019 E12.02051
G1 X156.456 Y134.1 E12.03297
G1 X156.945 Y134.243 E12.04894
G1 X157.405 Y134.46 E12.06488
G1 X157.638 Y134.607 E12.07352
G1 X157.957 Y134.827 E12.08567
G1 X158.353 Y135.148 E12.10165
G1 X158.823 Y135.709 E12.1246
G1 X159.04 Y136.037 E12.13693
G1 X159.286 Y136.482 E12.15287
G1 X159.461 Y136.961 E12.16886
G1 X159.523 Y137.229 E12.17748
G1 X159.594 Y137.606 E12.18951
G1 X159.65 Y138.207 E12.20843
G1 X159.65 Y138.497 E12.21752
G1 X159.756 Y138.67 E12.22388
G1 X159.951 Y139.14 E12.23984
G1 X160.071 Y139.636 E12.25583
G1 X160.111 Y140.146 E12.27187
G1 X160.111 Y141.854 E12.32542
G1 X160.071 Y142.362 E12.3414
G1 X159.952 Y142.857 E12.35736
G1 X159.757 Y143.328 E12.37334
G1 X159.633 Y143.531 E12.3808
G1 X159.627 Y144.045 E12.39691
G1 X159.581 Y144.553 E12.4129
G1 X159.457 Y145.047 E12.42887
G1 X159.364 Y145.288 E12.43697
G1 X159.211 Y145.645 E12.44915
G1 X158.974 Y146.096 E12.46512
G1 X158.67 Y146.505 E12.48109
G1 X158.485 Y146.7 E12.48952
G1 X158.202 Y146.974 E12.50187
G1 X157.809 Y147.299 E12.51786
G1 X157.37 Y147.558 E12.53384
G1 X156.854 Y147.758 E12.55119
G1 X156.304 Y147.919 E12.56916
G1 X155.805 Y148.023 E12.58514
G1 X155.388 Y148.05 E12.59824
G0 F4200 X155.389 Y147.55
G1 F900 X126.39 Y147.527 E13.50738
G1 X125.923 Y147.487 E13.52208
G1 X125.309 Y147.305 E13.54215
G1 X124.952 Y147.152 E13.55433
G1 X124.538 Y146.931 E13.56904
G1 X124.059 Y146.537 E13.58849
G1 X123.785 Y146.254 E13.60084
G1 X123.489 Y145.891 E13.61552
G1 X123.209 Y145.366 E13.63418
G1 X123.066 Y145.01 E13.6462
G1 X122.929 Y144.562 E13.66089
G1 X122.868 Y144.01 E13.6783
G1 X122.862 Y143.388 E13.6978
G1 X122.656 Y143.036 E13.71059
G1 X122.491 Y142.597 E13.72529
G1 X122.404 Y142.137 E13.73997
G1 X122.389 Y141.854 E13.74885
G1 X122.389 Y140.146 E13.8024
G1 X122.429 Y139.679 E13.8171
G1 X122.548 Y139.226 E13.83178
G1 X122.741 Y138.799 E13.84647
G1 X122.865 Y138.617 E13.85338
G1 X122.873 Y137.96 E13.87397
G1 X122.918 Y137.493 E13.88868
G1 X123.096 Y136.905 E13.90794
G1 X123.249 Y136.549 E13.92009
G1 X123.47 Y136.136 E13.93478
G1 X123.863 Y135.659 E13.95415
G1 X124.146 Y135.385 E13.9665
G1 X124.509 Y135.089 E13.98119
G1 X125.034 Y134.809 E13.99984
G1 X125.39 Y134.666 E14.01187
G1 X125.838 Y134.529 E14.02656
G1 X126.413 Y134.468 E14.04468
G1 X155.402 Y134.451 E14.95352
G1 X155.965 Y134.509 E14.97126
G1 X156.354 Y134.59 E14.98372
G1 X156.803 Y134.724 E14.99841
G1 X157.354 Y135.018 E15.01799
G1 X157.673 Y135.238 E15.03014
G1 X158.035 Y135.536 E15.04483
G1 X158.406 Y135.985 E15.0631
G1 X158.623 Y136.313 E15.07542
G1 X158.847 Y136.724 E15.0901
G1 X159.031 Y137.321 E15.10968
G1 X159.102 Y137.698 E15.12171
G1 X159.15 Y138.207 E15.13774
G1 X159.15 Y138.633 E15.1511
G1 X159.344 Y138.964 E15.16312
G1 X159.509 Y139.403 E15.17783
G1 X159.596 Y139.863 E15.1925
G1 X159.611 Y140.146 E15.20139
G1 X159.611 Y141.854 E15.25494
G1 X159.571 Y142.321 E15.26963
G1 X159.452 Y142.774 E15.28431
G1 X159.259 Y143.201 E15.29901
G1 X159.135 Y143.383 E15.30591
G1 X159.127 Y144.039 E15.32648
G1 X159.082 Y144.506 E15.34119
G1 X158.905 Y145.091 E15.36035
G1 X158.752 Y145.448 E15.37252
G1 X158.531 Y145.862 E15.38724
G1 X158.137 Y146.341 E15.40668
G1 X157.854 Y146.615 E15.41903
G1 X157.491 Y146.911 E15.43372
G1 X157.082 Y147.141 E15.44843
G1 X156.714 Y147.278 E15.46074
G1 X156.164 Y147.439 E15.4787
G1 X155.704 Y147.532 E15.49342
G1 X155.389 Y147.55 E15.50331
G0 F4200 X155.389 Y147.05
G1 F900 X126.39 Y147.027 E16.41245
G1 X125.968 Y146.987 E16.42574
G1 X125.506 Y146.845 E16.4409
G1 X125.149 Y146.692 E16.45307
G1 X124.777 Y146.489 E16.46636
G1 X124.419 Y146.189 E16.481
G1 X124.145 Y145.906 E16.49335
G1 X123.88 Y145.575 E16.50665
G1 X123.673 Y145.18 E16.52063
G1 X123.53 Y144.824 E16.53265
G1 X123.41 Y144.417 E16.54596
G1 X123.368 Y144.005 E16.55894
G1 X123.361 Y143.218 E16.58361
G1 X123.278 Y143.118 E16.58769
G1 X123.074 Y142.747 E16.60096
G1 X122.943 Y142.344 E16.61425
G1 X122.889 Y141.854 E16.6297
G1 X122.889 Y140.146 E16.68325
G1 X122.929 Y139.724 E16.69654
G1 X123.047 Y139.317 E16.70982
G1 X123.24 Y138.94 E16.7231
G1 X123.364 Y138.785 E16.72933
G1 X123.373 Y137.965 E16.75504
G1 X123.418 Y137.544 E16.76831
G1 X123.556 Y137.103 E16.7828
G1 X123.709 Y136.747 E16.79494
G1 X123.912 Y136.375 E16.80823
