;Generated by Cura LulzBot Edition GCodeWriter Version: 3.6.20
;FLAVOR:Marlin
;TIME:356
;Filament used: 0.210421m
;Layer height: 0.35
;Generated with Cura_SteamEngine 3.6.20
M82 ;absolute extrusion mode
;This G-Code has been generated specifically for the LulzBot TAZ Workhorse with HE 0.5mm Tool Head
M73 P0 ; clear GLCD progress bar
M75 ; start GLCD timer
G26 ; clear potential 'probe fail' condition
M107 ; disable fans
M420 S0 ; disable previous leveling matrix
G90 ; absolute positioning
M82 ; set extruder to absolute mode
G92 E0 ; set extruder position to 0
M140 S55.0 ; start bed heating up
M109 R180 ; soften filament before homing Z
G28 ; Home all axis
G1 E-30 F100 ; retract filament
M109 R170 ; wait for extruder to reach wiping temp
G1 X-15 Y100 F3000 ; move above wiper pad
G1 Z1 ; push nozzle into wiper
G1 X-17 Y95 F1000 ; slow wipe
G1 X-17 Y90 F1000 ; slow wipe
G1 X-17 Y85 F1000 ; slow wipe
G1 X-15 Y90 F1000 ; slow wipe
G1 X-17 Y80 F1000 ; slow wipe
G1 X-15 Y95 F1000 ; slow wipe
G1 X-17 Y75 F2000 ; fast wipe
G1 X-15 Y65 F2000 ; fast wipe
G1 X-17 Y70 F2000 ; fast wipe
G1 X-15 Y60 F2000 ; fast wipe
G1 X-17 Y55 F2000 ; fast wipe
G1 X-15 Y50 F2000 ; fast wipe
G1 X-17 Y40 F2000 ; fast wipe
G1 X-15 Y45 F2000 ; fast wipe
G1 X-17 Y35 F2000 ; fast wipe
G1 X-15 Y40 F2000 ; fast wipe
G1 X-17 Y70 F2000 ; fast wipe
G1 X-15 Y30 Z2 F2000 ; fast wipe
G1 X-17 Y35 F2000 ; fast wipe
G1 X-15 Y25 F2000 ; fast wipe
G1 X-17 Y30 F2000 ; fast wipe
G1 X-15 Y25 Z1.5 F1000 ; slow wipe
G1 X-17 Y23 F1000 ; slow wipe
G1 Z10 ; raise extruder
M109 R160 ; wait for extruder to reach probe temp
G1 X-9 Y-9 ; move above first probe point
M204 S100 ; set probing acceleration
G29       ; start auto-leveling sequence
M420 S1   ; activate bed level matrix
M425 Z    ; use measured Z backlash for compensation
M425 Z F0 ; turn off measured Z backlash compensation. (if activated in the quality settings, this command will automatically be ignored)
M204 S500 ; restore standard acceleration
G1 X0 Y0 Z15 F5000 ; move up off last probe point
G4 S1 ; pause
M400 ; wait for moves to finish
M117 Heating... ; progress indicator message on LCD
M109 R215 ; wait for extruder to reach printing temp
M190 R55.0 ; wait for bed to reach printing temp
G1 Z2 E0 F75 ; prime tiny bit of filament into the nozzle
M117 TAZ Workhorse Printing... ; progress indicator message on LCD

M221 S100 T0
G92 E0
G1 F600 E-2
;LAYER_COUNT:11
;LAYER:0
M107
G0 F4200 X155.854 Y151.5 Z0.4
;TYPE:SKIRT
G1 F900 E0
G1 X126.146 Y151.5 E0.93137
G1 X125.531 Y151.46 E0.95069
G1 X124.927 Y151.341 E0.96999
G1 X124.343 Y151.144 E0.98932
G1 X123.789 Y150.874 E1.00864
G1 X123.275 Y150.534 E1.02796
G1 X122.787 Y150.109 E1.04825
G1 X122.641 Y149.963 E1.05472
G1 X122.235 Y149.5 E1.07403
G1 X121.892 Y148.988 E1.09335
G1 X121.618 Y148.436 E1.11267
G1 X121.417 Y147.854 E1.13197
G1 X121.294 Y147.25 E1.1513
G1 X121.25 Y146.604 E1.1716
G1 X121.25 Y135.396 E1.52298
G1 X121.29 Y134.781 E1.5423
G1 X121.409 Y134.177 E1.5616
G1 X121.606 Y133.593 E1.58092
G1 X121.876 Y133.039 E1.60024
G1 X122.216 Y132.525 E1.61956
G1 X122.641 Y132.037 E1.63985
G1 X122.787 Y131.891 E1.64632
G1 X123.25 Y131.485 E1.66563
G1 X123.762 Y131.142 E1.68495
G1 X124.314 Y130.868 E1.70427
G1 X124.896 Y130.667 E1.72357
G1 X125.5 Y130.544 E1.7429
G1 X126.146 Y130.5 E1.7632
G1 X155.854 Y130.5 E2.69457
G1 X156.469 Y130.54 E2.71389
G1 X157.073 Y130.659 E2.73319
G1 X157.657 Y130.856 E2.75252
G1 X158.211 Y131.126 E2.77184
G1 X158.725 Y131.466 E2.79116
G1 X159.213 Y131.891 E2.81145
G1 X159.359 Y132.037 E2.81792
G1 X159.765 Y132.5 E2.83723
G1 X160.108 Y133.012 E2.85655
G1 X160.382 Y133.564 E2.87587
G1 X160.583 Y134.146 E2.89517
G1 X160.706 Y134.75 E2.9145
G1 X160.75 Y135.396 E2.93479
G1 X160.75 Y146.604 E3.28618
G1 X160.71 Y147.219 E3.3055
G1 X160.591 Y147.823 E3.3248
G1 X160.394 Y148.407 E3.34412
G1 X160.124 Y148.961 E3.36344
G1 X159.784 Y149.475 E3.38276
G1 X159.359 Y149.963 E3.40305
G1 X159.213 Y150.109 E3.40952
G1 X158.75 Y150.515 E3.42883
G1 X158.238 Y150.858 E3.44815
G1 X157.686 Y151.132 E3.46747
G1 X157.104 Y151.333 E3.48677
G1 X156.5 Y151.456 E3.5061
G1 X155.854 Y151.5 E3.5264
G0 F4200 X155.854 Y151
G1 F900 X126.146 Y151 E4.45777
G1 X125.565 Y150.96 E4.47603
G1 X124.994 Y150.841 E4.49432
G1 X124.445 Y150.645 E4.51259
G1 X123.929 Y150.376 E4.53083
G1 X123.453 Y150.038 E4.54914
G1 X123.141 Y149.755 E4.56234
G1 X122.995 Y149.609 E4.56882
G1 X122.612 Y149.17 E4.58708
G1 X122.293 Y148.682 E4.60536
G1 X122.043 Y148.156 E4.62362
G1 X121.868 Y147.6 E4.64189
G1 X121.771 Y147.025 E4.66017
G1 X121.75 Y146.604 E4.67339
G1 X121.75 Y135.396 E5.02477
G1 X121.79 Y134.815 E5.04303
G1 X121.909 Y134.244 E5.06131
G1 X122.105 Y133.695 E5.07959
G1 X122.374 Y133.179 E5.09783
G1 X122.712 Y132.703 E5.11614
G1 X122.995 Y132.391 E5.12934
G1 X123.141 Y132.245 E5.13581
G1 X123.58 Y131.862 E5.15408
G1 X124.068 Y131.543 E5.17236
G1 X124.594 Y131.293 E5.19062
G1 X125.15 Y131.118 E5.20889
G1 X125.725 Y131.021 E5.22717
G1 X126.146 Y131 E5.24039
G1 X155.854 Y131 E6.17176
G1 X156.435 Y131.04 E6.19002
G1 X157.006 Y131.159 E6.2083
G1 X157.555 Y131.355 E6.22658
G1 X158.071 Y131.624 E6.24482
G1 X158.547 Y131.962 E6.26313
G1 X158.859 Y132.245 E6.27633
G1 X159.005 Y132.391 E6.2828
G1 X159.388 Y132.83 E6.30107
G1 X159.707 Y133.318 E6.31935
G1 X159.957 Y133.844 E6.33761
G1 X160.132 Y134.4 E6.35588
G1 X160.229 Y134.975 E6.37416
G1 X160.25 Y135.396 E6.38738
G1 X160.25 Y146.604 E6.73876
G1 X160.21 Y147.185 E6.75702
G1 X160.091 Y147.756 E6.7753
G1 X159.895 Y148.305 E6.79358
G1 X159.626 Y148.821 E6.81182
G1 X159.288 Y149.297 E6.83012
G1 X159.005 Y149.609 E6.84333
G1 X158.859 Y149.755 E6.8498
G1 X158.42 Y150.138 E6.86807
G1 X157.932 Y150.457 E6.88634
G1 X157.406 Y150.707 E6.9046
G1 X156.85 Y150.882 E6.92288
G1 X156.275 Y150.979 E6.94116
G1 X155.854 Y151 E6.95437
G0 F4200 X155.854 Y150.5
G1 F900 X126.146 Y150.5 E7.88575
G1 X125.6 Y150.46 E7.90291
G1 X125.066 Y150.341 E7.92006
G1 X124.555 Y150.146 E7.93721
G1 X124.077 Y149.878 E7.95439
G1 X123.494 Y149.402 E7.97799
G1 X123.348 Y149.256 E7.98446
G1 X122.991 Y148.841 E8.00162
G1 X122.697 Y148.379 E8.01879
G1 X122.474 Y147.88 E8.03593
G1 X122.326 Y147.353 E8.05309
G1 X122.25 Y146.604 E8.07669
G1 X122.25 Y135.396 E8.42807
G1 X122.29 Y134.85 E8.44523
G1 X122.409 Y134.316 E8.46239
G1 X122.604 Y133.805 E8.47953
G1 X122.872 Y133.327 E8.49671
G1 X123.348 Y132.744 E8.52031
G1 X123.494 Y132.598 E8.52678
G1 X123.909 Y132.241 E8.54394
G1 X124.371 Y131.947 E8.56111
G1 X124.87 Y131.724 E8.57825
G1 X125.397 Y131.576 E8.59541
G1 X126.146 Y131.5 E8.61901
G1 X155.854 Y131.5 E9.55038
G1 X156.4 Y131.54 E9.56755
G1 X156.934 Y131.659 E9.5847
G1 X157.445 Y131.854 E9.60185
G1 X157.923 Y132.122 E9.61903
G1 X158.506 Y132.598 E9.64262
G1 X158.652 Y132.744 E9.6491
G1 X159.009 Y133.159 E9.66626
G1 X159.303 Y133.621 E9.68343
G1 X159.526 Y134.12 E9.70056
G1 X159.674 Y134.647 E9.71772
G1 X159.75 Y135.396 E9.74133
G1 X159.75 Y146.604 E10.09271
G1 X159.71 Y147.15 E10.10987
G1 X159.591 Y147.684 E10.12702
G1 X159.396 Y148.195 E10.14417
G1 X159.128 Y148.673 E10.16135
G1 X158.652 Y149.256 E10.18495
G1 X158.506 Y149.402 E10.19142
G1 X158.091 Y149.759 E10.20858
G1 X157.629 Y150.053 E10.22575
G1 X157.13 Y150.276 E10.24289
G1 X156.603 Y150.424 E10.26005
G1 X155.854 Y150.5 E10.28365
G0 F4200 X155.854 Y150
G1 F900 X126.146 Y150 E11.21502
G1 X125.638 Y149.96 E11.231
G1 X125.143 Y149.841 E11.24696
G1 X124.672 Y149.646 E11.26294
G1 X124.237 Y149.38 E11.27893
G1 X123.848 Y149.048 E11.29496
G1 X123.702 Y148.902 E11.30143
G1 X123.371 Y148.515 E11.3174
G1 X123.105 Y148.08 E11.33338
G1 X122.91 Y147.61 E11.34934
G1 X122.79 Y147.114 E11.36533
G1 X122.75 Y146.604 E11.38137
G1 X122.75 Y135.396 E11.73275
G1 X122.79 Y134.888 E11.74873
G1 X122.909 Y134.393 E11.76469
G1 X123.104 Y133.922 E11.78067
G1 X123.37 Y133.487 E11.79666
G1 X123.702 Y133.098 E11.81269
G1 X123.848 Y132.952 E11.81916
G1 X124.235 Y132.621 E11.83513
G1 X124.67 Y132.355 E11.85111
G1 X125.14 Y132.16 E11.86707
G1 X125.636 Y132.04 E11.88307
G1 X126.146 Y132 E11.8991
G1 X155.854 Y132 E12.83048
G1 X156.362 Y132.04 E12.84645
G1 X156.857 Y132.159 E12.86241
G1 X157.328 Y132.354 E12.8784
G1 X157.763 Y132.62 E12.89438
G1 X158.152 Y132.952 E12.91041
G1 X158.298 Y133.098 E12.91689
G1 X158.629 Y133.485 E12.93285
G1 X158.895 Y133.92 E12.94884
G1 X159.09 Y134.39 E12.96479
G1 X159.21 Y134.886 E12.98079
G1 X159.25 Y135.396 E12.99683
G1 X159.25 Y146.604 E13.34821
G1 X159.21 Y147.112 E13.36418
G1 X159.091 Y147.607 E13.38014
G1 X158.896 Y148.078 E13.39613
G1 X158.63 Y148.513 E13.41211
G1 X158.298 Y148.902 E13.42815
G1 X158.152 Y149.048 E13.43462
G1 X157.765 Y149.379 E13.45058
G1 X157.33 Y149.645 E13.46657
G1 X156.86 Y149.84 E13.48252
G1 X156.364 Y149.96 E13.49852
G1 X155.854 Y150 E13.51456
G0 F4200 X155.854 Y149.5
G1 F900 X126.146 Y149.5 E14.44593
G1 X125.679 Y149.46 E14.46063
G1 X125.226 Y149.341 E14.47531
G1 X124.799 Y149.148 E14.49
G1 X124.412 Y148.884 E14.50469
G1 X124.201 Y148.695 E14.51357
G1 X124.055 Y148.549 E14.52004
G1 X123.754 Y148.19 E14.53473
G1 X123.517 Y147.786 E14.54941
G1 X123.352 Y147.347 E14.56412
G1 X123.265 Y146.887 E14.57879
G1 X123.25 Y146.604 E14.58768
G1 X123.25 Y135.396 E14.93906
G1 X123.29 Y134.929 E14.95375
G1 X123.409 Y134.476 E14.96844
G1 X123.602 Y134.049 E14.98313
G1 X123.866 Y133.662 E14.99782
G1 X124.055 Y133.451 E15.0067
G1 X124.201 Y133.305 E15.01317
G1 X124.56 Y133.004 E15.02786
G1 X124.964 Y132.767 E15.04254
G1 X125.403 Y132.602 E15.05725
G1 X125.863 Y132.515 E15.07192
G1 X126.146 Y132.5 E15.08081
G1 X155.854 Y132.5 E16.01218
G1 X156.321 Y132.54 E16.02687
G1 X156.774 Y132.659 E16.04156
G1 X157.201 Y132.852 E16.05625
G1 X157.588 Y133.116 E16.07094
G1 X157.799 Y133.305 E16.07982
G1 X157.945 Y133.451 E16.08629
G1 X158.246 Y133.81 E16.10098
G1 X158.483 Y134.214 E16.11566
G1 X158.648 Y134.653 E16.13037
G1 X158.735 Y135.113 E16.14504
G1 X158.75 Y135.396 E16.15393
G1 X158.75 Y146.604 E16.50531
G1 X158.71 Y147.071 E16.52
G1 X158.591 Y147.524 E16.53469
G1 X158.398 Y147.951 E16.54938
G1 X158.134 Y148.338 E16.56406
G1 X157.945 Y148.549 E16.57295
G1 X157.799 Y148.695 E16.57942
G1 X157.44 Y148.996 E16.59411
G1 X157.036 Y149.233 E16.60879
G1 X156.597 Y149.398 E16.62349
G1 X156.137 Y149.485 E16.63817
G1 X155.854 Y149.5 E16.64706
G0 F4200 X155.854 Y149
G1 F900 X126.146 Y149 E17.57843
G1 X125.724 Y148.96 E17.59172
G1 X125.317 Y148.842 E17.605
G1 X124.94 Y148.649 E17.61828
G1 X124.555 Y148.341 E17.63374
G1 X124.409 Y148.195 E17.64021
G1 X124.139 Y147.868 E17.65351
G1 X123.935 Y147.497 E17.66678
G1 X123.804 Y147.094 E17.68007
G1 X123.75 Y146.604 E17.69552
G1 X123.75 Y135.396 E18.0469
G1 X123.79 Y134.974 E18.06019
G1 X123.908 Y134.567 E18.07348
G1 X124.101 Y134.19 E18.08675
G1 X124.409 Y133.805 E18.10221
G1 X124.555 Y133.659 E18.10868
G1 X124.882 Y133.389 E18.12198
G1 X125.253 Y133.185 E18.13525
G1 X125.656 Y133.054 E18.14854
G1 X126.146 Y133 E18.16399
G1 X155.854 Y133 E19.09537
G1 X156.276 Y133.04 E19.10866
G1 X156.683 Y133.158 E19.12194
G1 X157.06 Y133.351 E19.13522
G1 X157.445 Y133.659 E19.15068
G1 X157.591 Y133.805 E19.15715
G1 X157.861 Y134.132 E19.17044
G1 X158.065 Y134.503 E19.18372
G1 X158.196 Y134.906 E19.197
G1 X158.25 Y135.396 E19.21246
G1 X158.25 Y146.604 E19.56384
G1 X158.21 Y147.026 E19.57713
G1 X158.092 Y147.433 E19.59041
G1 X157.899 Y147.81 E19.60369
G1 X157.591 Y148.195 E19.61915
G1 X157.445 Y148.341 E19.62562
G1 X157.118 Y148.611 E19.63892
G1 X156.747 Y148.815 E19.65219
G1 X156.344 Y148.946 E19.66548
G1 X155.854 Y149 E19.68093
G0 F4200 X155.854 Y148.5
G1 F900 X126.146 Y148.5 E20.6123
G1 X125.775 Y148.46 E20.624
G1 X125.42 Y148.342 E20.63573
G1 X125.098 Y148.152 E20.64745
G1 X124.909 Y147.987 E20.65532
G1 X124.763 Y147.841 E20.66179
G1 X124.528 Y147.551 E20.67349
G1 X124.361 Y147.217 E20.6852
G1 X124.268 Y146.855 E20.69692
G1 X124.25 Y146.604 E20.70481
G1 X124.25 Y135.396 E21.05619
G1 X124.29 Y135.025 E21.06789
G1 X124.408 Y134.67 E21.07962
G1 X124.598 Y134.348 E21.09134
G1 X124.763 Y134.159 E21.0992
G1 X124.909 Y134.013 E21.10568
G1 X125.199 Y133.778 E21.11738
G1 X125.533 Y133.611 E21.12909
G1 X125.895 Y133.518 E21.1408
G1 X126.146 Y133.5 E21.14869
G1 X155.854 Y133.5 E22.08007
G1 X156.225 Y133.54 E22.09176
G1 X156.58 Y133.658 E22.10349
G1 X156.902 Y133.848 E22.11521
G1 X157.091 Y134.013 E22.12308
G1 X157.237 Y134.159 E22.12955
G1 X157.472 Y134.449 E22.14125
G1 X157.639 Y134.783 E22.15296
G1 X157.732 Y135.145 E22.16468
G1 X157.75 Y135.396 E22.17257
G1 X157.75 Y146.604 E22.52395
G1 X157.71 Y146.975 E22.53565
G1 X157.592 Y147.33 E22.54738
G1 X157.402 Y147.652 E22.5591
G1 X157.237 Y147.841 E22.56696
G1 X157.091 Y147.987 E22.57344
G1 X156.801 Y148.222 E22.58514
G1 X156.467 Y148.389 E22.59685
G1 X156.105 Y148.482 E22.60856
G1 X155.854 Y148.5 E22.61645
G0 F4200 X155.854 Y148
G1 F900 X126.146 Y148 E23.54783
G1 X125.833 Y147.96 E23.55772
G1 X125.54 Y147.843 E23.56761
G1 X125.262 Y147.634 E23.57851
G1 X125.116 Y147.488 E23.58499
G1 X124.923 Y147.238 E23.59489
G1 X124.798 Y146.948 E23.60479
G1 X124.75 Y146.604 E23.61568
G1 X124.75 Y135.396 E23.96706
G1 X124.79 Y135.083 E23.97695
G1 X124.907 Y134.79 E23.98684
G1 X125.116 Y134.512 E23.99775
G1 X125.262 Y134.366 E24.00422
G1 X125.512 Y134.173 E24.01412
G1 X125.802 Y134.048 E24.02402
G1 X126.146 Y134 E24.03491
G1 X155.854 Y134 E24.96629
G1 X156.167 Y134.04 E24.97618
G1 X156.46 Y134.157 E24.98607
G1 X156.738 Y134.366 E24.99697
G1 X156.884 Y134.512 E25.00345
G1 X157.077 Y134.762 E25.01335
G1 X157.202 Y135.052 E25.02325
G1 X157.25 Y135.396 E25.03414
G1 X157.25 Y146.604 E25.38552
G1 X157.21 Y146.917 E25.39541
G1 X157.093 Y147.21 E25.4053
G1 X156.884 Y147.488 E25.41621
G1 X156.738 Y147.634 E25.42268
G1 X156.488 Y147.827 E25.43258
G1 X156.198 Y147.952 E25.44248
G1 X155.854 Y148 E25.45337
G0 F4200 X155.854 Y147.5
G1 F900 X126.146 Y147.5 E26.38474
G1 X125.905 Y147.46 E26.3924
G1 X125.616 Y147.28 E26.40308
G1 X125.47 Y147.134 E26.40955
G1 X125.327 Y146.936 E26.41721
G1 X125.25 Y146.604 E26.42789
G1 X125.25 Y135.396 E26.77927
G1 X125.29 Y135.155 E26.78693
G1 X125.47 Y134.866 E26.79761
G1 X125.616 Y134.72 E26.80408
G1 X125.814 Y134.577 E26.81174
G1 X126.146 Y134.5 E26.82242
G1 X155.854 Y134.5 E27.75379
G1 X156.095 Y134.54 E27.76145
G1 X156.384 Y134.72 E27.77213
G1 X156.53 Y134.866 E27.7786
G1 X156.673 Y135.064 E27.78626
G1 X156.75 Y135.396 E27.79694
G1 X156.75 Y146.604 E28.14832
G1 X156.71 Y146.845 E28.15598
G1 X156.53 Y147.134 E28.16666
G1 X156.384 Y147.28 E28.17313
G1 X156.186 Y147.423 E28.18079
G1 X155.854 Y147.5 E28.19147
G0 F4200 X155.854 Y147
G1 F900 X126.146 Y147 E29.12285
G1 X125.969 Y146.927 E29.12885
G1 X125.823 Y146.781 E29.13532
G1 X125.75 Y146.604 E29.14132
G1 X125.75 Y135.396 E29.4927
G1 X125.823 Y135.219 E29.49871
G1 X125.969 Y135.073 E29.50518
G1 X126.146 Y135 E29.51118
G1 X155.854 Y135 E30.44256
G1 X156.031 Y135.073 E30.44856
G1 X156.177 Y135.219 E30.45503
G1 X156.25 Y135.396 E30.46103
G1 X156.25 Y146.604 E30.81242
G1 X156.177 Y146.781 E30.81842
G1 X156.031 Y146.927 E30.82489
G1 X155.854 Y147 E30.83089
;MESH:
G0 F4200 X155.75 Y146.5
;TYPE:WALL-OUTER
G1 F900 X126.25 Y146.5 E31.75575
G1 X126.25 Y135.5 E32.10061
G1 X155.75 Y135.5 E33.02546
G1 X155.75 Y146.5 E33.37032
G0 F4200 X155.5 Y146.5
G0 X155.25 Y146
;TYPE:WALL-INNER
G1 F900 X126.75 Y146 E34.26382
G1 X126.75 Y136 E34.57733
G1 X155.25 Y136 E35.47083
G1 X155.25 Y146 E35.78434
G0 F4200 X154.76 Y145.51
;TYPE:SKIN
G1 F900 X127.24 Y145.51 E36.64712
G1 X127.24 Y136.49 E36.9299
G1 X154.76 Y136.49 E37.79268
G1 X154.76 Y145.51 E38.07547
G1 F600 E36.07547
G0 F4200 X154.533 Y136.856
G1 F900 E38.07547
