;Generated by Cura LulzBot Edition GCodeWriter Version: 3.6.20
;FLAVOR:Marlin
;TIME:3980
;Filament used: 2.00735m
;Layer height: 0.35
;Generated with Cura_SteamEngine 3.6.20
M82 ;absolute extrusion mode
;This G-Code has been generated specifically for the LulzBot TAZ Workhorse with HE 0.5mm Tool Head
M73 P0 ; clear GLCD progress bar
M75 ; start GLCD timer
G26 ; clear potential 'probe fail' condition
M107 ; disable fans
M420 S0 ; disable previous leveling matrix
G90 ; absolute positioning
M82 ; set extruder to absolute mode
G92 E0 ; set extruder position to 0
M140 S55.0 ; start bed heating up
M109 R180 ; soften filament before homing Z
G28 ; Home all axis
G1 E-30 F100 ; retract filament
M109 R170 ; wait for extruder to reach wiping temp
G1 X-15 Y100 F3000 ; move above wiper pad
G1 Z1 ; push nozzle into wiper
G1 X-17 Y95 F1000 ; slow wipe
G1 X-17 Y90 F1000 ; slow wipe
G1 X-17 Y85 F1000 ; slow wipe
G1 X-15 Y90 F1000 ; slow wipe
G1 X-17 Y80 F1000 ; slow wipe
G1 X-15 Y95 F1000 ; slow wipe
G1 X-17 Y75 F2000 ; fast wipe
G1 X-15 Y65 F2000 ; fast wipe
G1 X-17 Y70 F2000 ; fast wipe
G1 X-15 Y60 F2000 ; fast wipe
G1 X-17 Y55 F2000 ; fast wipe
G1 X-15 Y50 F2000 ; fast wipe
G1 X-17 Y40 F2000 ; fast wipe
G1 X-15 Y45 F2000 ; fast wipe
G1 X-17 Y35 F2000 ; fast wipe
G1 X-15 Y40 F2000 ; fast wipe
G1 X-17 Y70 F2000 ; fast wipe
G1 X-15 Y30 Z2 F2000 ; fast wipe
G1 X-17 Y35 F2000 ; fast wipe
G1 X-15 Y25 F2000 ; fast wipe
G1 X-17 Y30 F2000 ; fast wipe
G1 X-15 Y25 Z1.5 F1000 ; slow wipe
G1 X-17 Y23 F1000 ; slow wipe
G1 Z10 ; raise extruder
M109 R160 ; wait for extruder to reach probe temp
G1 X-9 Y-9 ; move above first probe point
M204 S100 ; set probing acceleration
G29       ; start auto-leveling sequence
M420 S1   ; activate bed level matrix
M425 Z    ; use measured Z backlash for compensation
M425 Z F0 ; turn off measured Z backlash compensation. (if activated in the quality settings, this command will automatically be ignored)
M204 S500 ; restore standard acceleration
G1 X0 Y0 Z15 F5000 ; move up off last probe point
G4 S1 ; pause
M400 ; wait for moves to finish
M117 Heating... ; progress indicator message on LCD
M109 R215 ; wait for extruder to reach printing temp
M190 R55.0 ; wait for bed to reach printing temp
G1 Z2 E0 F75 ; prime tiny bit of filament into the nozzle
M117 TAZ Workhorse Printing... ; progress indicator message on LCD

M221 S100 T0
G92 E0
G1 F600 E-2
;LAYER_COUNT:66
;LAYER:0
M107
G0 F4200 X162.132 Y119.873 Z0.4
;TYPE:SKIRT
G1 F900 E0
G1 X163.667 Y119.881 E0.04812
G1 X164.282 Y119.924 E0.06745
G1 X164.885 Y120.046 E0.08674
G1 X165.468 Y120.246 E0.10606
G1 X165.797 Y120.398 E0.11743
G1 X166.192 Y120.599 E0.13132
G1 X166.722 Y120.913 E0.15063
G1 X167.207 Y121.293 E0.16995
G1 X167.804 Y121.937 E0.19748
G1 X168.073 Y122.287 E0.21132
G1 X168.416 Y122.799 E0.23064
G1 X168.69 Y123.351 E0.24996
G1 X168.944 Y124.15 E0.27625
G1 X169.037 Y124.568 E0.28967
G1 X169.131 Y125.177 E0.30899
G1 X169.15 Y125.605 E0.32242
G1 X169.12 Y156.646 E1.29559
G1 X169.079 Y157.26 E1.31488
G1 X168.96 Y157.865 E1.33421
G1 X168.763 Y158.449 E1.35353
G1 X168.603 Y158.795 E1.36548
G1 X168.401 Y159.192 E1.37945
G1 X168.087 Y159.722 E1.39876
G1 X167.707 Y160.207 E1.41808
G1 X167.059 Y160.807 E1.44576
G1 X166.707 Y161.077 E1.45967
G1 X166.195 Y161.419 E1.47897
G1 X165.643 Y161.693 E1.4983
G1 X164.837 Y161.947 E1.52479
G1 X164.419 Y162.039 E1.53821
G1 X163.81 Y162.132 E1.55752
G1 X163.398 Y162.15 E1.57045
G1 X162.127 Y162.15 E1.6103
G1 X162.12 Y163.664 E1.65776
G1 X162.077 Y164.279 E1.67709
G1 X161.955 Y164.883 E1.69641
G1 X161.756 Y165.466 E1.71572
G1 X161.603 Y165.795 E1.7271
G1 X161.401 Y166.192 E1.74106
G1 X161.087 Y166.722 E1.76038
G1 X160.707 Y167.207 E1.77969
G1 X160.059 Y167.807 E1.80738
G1 X159.707 Y168.077 E1.82129
G1 X159.195 Y168.419 E1.84059
G1 X158.643 Y168.693 E1.85991
G1 X158.06 Y168.892 E1.87922
G1 X157.736 Y168.968 E1.88966
G1 X157.27 Y169.06 E1.90455
G1 X156.659 Y169.14 E1.92387
G1 X156.345 Y169.15 E1.93372
G1 X125.35 Y169.119 E2.90544
G1 X124.735 Y169.078 E2.92476
G1 X124.131 Y168.959 E2.94406
G1 X123.641 Y168.794 E2.96027
G1 X123.1 Y168.69 E2.97754
G1 X122.514 Y168.497 E2.99689
G1 X121.959 Y168.23 E3.01619
G1 X121.443 Y167.894 E3.0355
G1 X120.932 Y167.451 E3.0567
G1 X114.549 Y161.068 E3.3397
G1 X114.143 Y160.605 E3.35901
G1 X113.8 Y160.093 E3.37833
G1 X113.526 Y159.541 E3.39765
G1 X113.325 Y158.959 E3.41695
G1 X113.202 Y158.355 E3.43628
G1 X113.198 Y158.298 E3.43807
G1 X113.054 Y157.842 E3.45306
G1 X112.962 Y157.426 E3.46642
G1 X112.868 Y156.817 E3.48574
G1 X112.85 Y156.395 E3.49898
G1 X112.88 Y125.354 E4.47215
G1 X112.921 Y124.74 E4.49144
G1 X113.04 Y124.135 E4.51077
G1 X113.237 Y123.551 E4.53009
G1 X113.397 Y123.205 E4.54204
G1 X113.599 Y122.808 E4.55601
G1 X113.913 Y122.278 E4.57532
G1 X114.293 Y121.793 E4.59464
G1 X114.941 Y121.193 E4.62232
G1 X115.293 Y120.923 E4.63623
G1 X115.805 Y120.581 E4.65553
G1 X116.357 Y120.307 E4.67485
G1 X117.163 Y120.053 E4.70135
G1 X117.581 Y119.961 E4.71477
G1 X118.19 Y119.868 E4.73408
G1 X118.602 Y119.85 E4.74701
G1 X119.873 Y119.85 E4.78686
G1 X119.88 Y118.336 E4.83432
G1 X119.923 Y117.721 E4.85365
G1 X120.045 Y117.117 E4.87297
G1 X120.244 Y116.534 E4.89228
G1 X120.397 Y116.205 E4.90366
G1 X120.599 Y115.808 E4.91762
G1 X120.913 Y115.278 E4.93694
G1 X121.293 Y114.793 E4.95625
G1 X121.941 Y114.193 E4.98394
G1 X122.293 Y113.923 E4.99785
G1 X122.805 Y113.581 E5.01715
G1 X123.357 Y113.307 E5.03647
G1 X123.94 Y113.108 E5.05578
G1 X124.264 Y113.032 E5.06622
G1 X124.73 Y112.94 E5.08111
G1 X125.341 Y112.86 E5.10043
G1 X125.65 Y112.85 E5.11012
G1 X156.365 Y112.851 E6.07306
G1 X156.98 Y112.891 E6.09239
G1 X157.383 Y112.961 E6.10521
G1 X157.866 Y113.067 E6.12071
G1 X158.458 Y113.238 E6.14003
G1 X159.023 Y113.484 E6.15935
G1 X159.551 Y113.801 E6.17866
G1 X159.885 Y114.054 E6.19179
G1 X160.229 Y114.34 E6.20582
G1 X160.676 Y114.764 E6.22513
G1 X161.065 Y115.242 E6.24445
G1 X161.492 Y115.975 E6.27105
G1 X161.676 Y116.367 E6.28463
G1 X161.901 Y116.94 E6.30393
G1 X162.05 Y117.538 E6.32325
G1 X162.126 Y118.366 E6.34931
G1 X162.132 Y119.873 E6.39656
G0 F4200 X161.634 Y120.371
G1 F900 X163.664 Y120.381 E6.4602
G1 X164.246 Y120.424 E6.4785
G1 X164.815 Y120.546 E6.49674
G1 X165.57 Y120.843 E6.52218
G1 X165.965 Y121.044 E6.53607
G1 X166.465 Y121.343 E6.55434
G1 X166.92 Y121.708 E6.57263
G1 X167.408 Y122.242 E6.5953
G1 X167.677 Y122.592 E6.60914
G1 X167.999 Y123.077 E6.6274
G1 X168.253 Y123.602 E6.64568
G1 X168.456 Y124.259 E6.66724
G1 X168.549 Y124.677 E6.68066
G1 X168.636 Y125.253 E6.69893
G1 X168.65 Y125.604 E6.70994
G1 X168.62 Y156.645 E7.6831
G1 X168.579 Y157.226 E7.70136
G1 X168.46 Y157.797 E7.71965
G1 X168.158 Y158.568 E7.74561
G1 X167.956 Y158.965 E7.75957
G1 X167.657 Y159.465 E7.77784
G1 X167.292 Y159.92 E7.79613
G1 X166.755 Y160.41 E7.81892
G1 X166.403 Y160.68 E7.83282
G1 X165.917 Y161.002 E7.8511
G1 X165.392 Y161.255 E7.86937
G1 X164.73 Y161.459 E7.89109
G1 X164.312 Y161.551 E7.90451
G1 X163.735 Y161.637 E7.9228
G1 X163.398 Y161.65 E7.93337
G1 X161.63 Y161.65 E7.9888
G1 X161.62 Y163.662 E8.05188
G1 X161.577 Y164.243 E8.07014
G1 X161.455 Y164.813 E8.08842
G1 X161.158 Y165.568 E8.11385
G1 X160.956 Y165.965 E8.12782
G1 X160.657 Y166.465 E8.14608
G1 X160.292 Y166.92 E8.16437
G1 X159.755 Y167.41 E8.18716
G1 X159.403 Y167.68 E8.20107
G1 X158.917 Y168.002 E8.21935
G1 X158.392 Y168.255 E8.23762
G1 X157.639 Y168.478 E8.26224
G1 X157.173 Y168.57 E8.27713
G1 X156.346 Y168.65 E8.30318
G1 X125.351 Y168.619 E9.2749
G1 X124.769 Y168.578 E9.29319
G1 X124.199 Y168.459 E9.31145
G1 X123.81 Y168.306 E9.32455
G1 X123.642 Y168.292 E9.32984
G1 X123.073 Y168.164 E9.34812
G1 X122.528 Y167.959 E9.36638
G1 X122.015 Y167.681 E9.38467
G1 X121.546 Y167.336 E9.40292
G1 X121.286 Y167.097 E9.41399
G1 X114.903 Y160.714 E9.697
G1 X114.52 Y160.275 E9.71526
G1 X114.201 Y159.787 E9.73354
G1 X113.951 Y159.261 E9.7518
G1 X113.776 Y158.705 E9.77007
G1 X113.697 Y158.236 E9.78498
G1 X113.542 Y157.734 E9.80145
G1 X113.45 Y157.318 E9.81481
G1 X113.364 Y156.741 E9.8331
G1 X113.35 Y156.396 E9.84393
G1 X113.38 Y125.355 E10.81709
G1 X113.421 Y124.774 E10.83535
G1 X113.54 Y124.203 E10.85364
G1 X113.842 Y123.432 E10.8796
G1 X114.044 Y123.035 E10.89356
G1 X114.343 Y122.535 E10.91183
G1 X114.708 Y122.08 E10.93011
G1 X115.245 Y121.59 E10.9529
G1 X115.597 Y121.32 E10.96681
G1 X116.083 Y120.998 E10.98509
G1 X116.608 Y120.745 E11.00336
G1 X117.27 Y120.541 E11.02508
G1 X117.688 Y120.449 E11.0385
G1 X118.265 Y120.363 E11.05678
G1 X118.602 Y120.35 E11.06736
G1 X120.37 Y120.35 E11.12279
G1 X120.38 Y118.338 E11.18587
G1 X120.423 Y117.757 E11.20413
G1 X120.545 Y117.187 E11.2224
G1 X120.842 Y116.432 E11.24784
G1 X121.044 Y116.035 E11.2618
G1 X121.343 Y115.535 E11.28007
G1 X121.708 Y115.08 E11.29836
G1 X122.245 Y114.59 E11.32115
G1 X122.597 Y114.32 E11.33506
G1 X123.083 Y113.998 E11.35333
G1 X123.608 Y113.745 E11.3716
G1 X124.361 Y113.522 E11.39622
G1 X124.827 Y113.43 E11.41112
G1 X125.65 Y113.35 E11.43704
G1 X156.365 Y113.351 E12.39998
G1 X156.947 Y113.391 E12.41827
G1 X157.276 Y113.45 E12.42875
G1 X157.759 Y113.556 E12.44425
G1 X158.318 Y113.719 E12.46251
G1 X158.85 Y113.958 E12.48079
G1 X159.565 Y114.439 E12.50781
G1 X159.909 Y114.725 E12.52184
G1 X160.331 Y115.127 E12.54011
G1 X160.693 Y115.584 E12.55838
G1 X161.039 Y116.187 E12.58018
G1 X161.223 Y116.579 E12.59376
G1 X161.434 Y117.122 E12.61202
G1 X161.569 Y117.689 E12.63029
G1 X161.626 Y118.368 E12.65166
G1 X161.634 Y120.371 E12.71445
G0 F4200 X161.136 Y120.868
G1 F900 X163.662 Y120.881 E12.79365
G1 X164.208 Y120.924 E12.81082
G1 X164.741 Y121.045 E12.82795
G1 X165.344 Y121.289 E12.84834
G1 X165.739 Y121.49 E12.86224
G1 X166.207 Y121.773 E12.87939
G1 X166.629 Y122.121 E12.89653
G1 X167.011 Y122.547 E12.91447
G1 X167.28 Y122.897 E12.92831
G1 X167.581 Y123.354 E12.94547
G1 X167.813 Y123.85 E12.96263
G1 X167.967 Y124.368 E12.97958
G1 X168.06 Y124.786 E12.993
G1 X168.14 Y125.327 E13.01015
G1 X168.15 Y125.604 E13.01884
G1 X168.12 Y156.645 E13.992
G1 X168.08 Y157.19 E14.00913
G1 X167.96 Y157.725 E14.02632
G1 X167.712 Y158.342 E14.04717
G1 X167.51 Y158.739 E14.06114
G1 X167.227 Y159.207 E14.07828
G1 X166.879 Y159.629 E14.09543
G1 X166.45 Y160.013 E14.11348
G1 X166.098 Y160.283 E14.12739
G1 X165.641 Y160.584 E14.14455
G1 X165.145 Y160.815 E14.1617
G1 X164.622 Y160.97 E14.1788
G1 X164.204 Y161.062 E14.19222
G1 X163.398 Y161.15 E14.21764
G1 X161.132 Y161.15 E14.28868
G1 X161.12 Y163.659 E14.36734
G1 X161.077 Y164.205 E14.38451
G1 X160.956 Y164.739 E14.40168
G1 X160.712 Y165.342 E14.42207
G1 X160.51 Y165.739 E14.43603
G1 X160.227 Y166.207 E14.45318
G1 X159.879 Y166.629 E14.47033
G1 X159.45 Y167.013 E14.48838
G1 X159.098 Y167.283 E14.50229
G1 X158.641 Y167.584 E14.51944
G1 X158.145 Y167.815 E14.5366
G1 X157.542 Y167.987 E14.55626
G1 X157.076 Y168.079 E14.57115
G1 X156.346 Y168.15 E14.59414
G1 X125.351 Y168.119 E15.56586
G1 X124.805 Y168.079 E15.58303
G1 X124.271 Y167.959 E15.60019
G1 X123.907 Y167.813 E15.61248
G1 X123.587 Y167.775 E15.62258
G1 X123.058 Y167.634 E15.63975
G1 X122.556 Y167.416 E15.65691
G1 X122.09 Y167.128 E15.67408
G1 X121.639 Y166.744 E15.69265
G1 X115.256 Y160.361 E15.97565
G1 X114.899 Y159.946 E15.99282
G1 X114.605 Y159.484 E16.00998
G1 X114.382 Y158.985 E16.02712
G1 X114.234 Y158.458 E16.04428
G1 X114.197 Y158.171 E16.05335
G1 X114.185 Y158.145 E16.05425
G1 X114.03 Y157.626 E16.07123
G1 X113.938 Y157.21 E16.08459
G1 X113.85 Y156.396 E16.11026
G1 X113.88 Y125.355 E17.08342
G1 X113.92 Y124.81 E17.10055
G1 X114.04 Y124.275 E17.11774
G1 X114.288 Y123.658 E17.13859
G1 X114.49 Y123.261 E17.15256
G1 X114.773 Y122.793 E17.1697
G1 X115.121 Y122.371 E17.18685
G1 X115.55 Y121.987 E17.2049
G1 X115.902 Y121.717 E17.21881
G1 X116.359 Y121.416 E17.23596
G1 X116.855 Y121.185 E17.25312
G1 X117.378 Y121.03 E17.27022
G1 X117.796 Y120.938 E17.28364
G1 X118.602 Y120.85 E17.30906
G1 X120.868 Y120.85 E17.3801
G1 X120.88 Y118.341 E17.45876
G1 X120.923 Y117.795 E17.47593
G1 X121.044 Y117.261 E17.4931
G1 X121.288 Y116.658 E17.51349
G1 X121.49 Y116.261 E17.52745
G1 X121.773 Y115.793 E17.5446
G1 X122.121 Y115.371 E17.56175
G1 X122.55 Y114.987 E17.5798
G1 X122.902 Y114.717 E17.59371
G1 X123.359 Y114.416 E17.61086
G1 X123.855 Y114.185 E17.62802
G1 X124.458 Y114.013 E17.64768
G1 X124.924 Y113.921 E17.66257
G1 X125.65 Y113.85 E17.68544
G1 X156.365 Y113.851 E18.64838
G1 X157.169 Y113.938 E18.67373
G1 X157.652 Y114.044 E18.68924
G1 X158.176 Y114.2 E18.70638
G1 X158.673 Y114.431 E18.72356
G1 X159.245 Y114.823 E18.7453
G1 X159.589 Y115.109 E18.75932
G1 X159.984 Y115.489 E18.77651
G1 X160.318 Y115.922 E18.79365
G1 X160.587 Y116.4 E18.81085
G1 X160.771 Y116.792 E18.82442
G1 X160.966 Y117.303 E18.84157
G1 X161.086 Y117.837 E18.85873
G1 X161.126 Y118.37 E18.87549
G1 X161.136 Y120.868 E18.9538
G0 F4200 X160.638 Y121.366
G1 F900 X163.659 Y121.381 E19.04851
G1 X164.167 Y121.424 E19.0645
G1 X164.662 Y121.545 E19.08047
G1 X165.117 Y121.734 E19.09592
G1 X165.512 Y121.935 E19.10981
G1 X165.947 Y122.201 E19.1258
G1 X166.334 Y122.532 E19.14176
G1 X166.615 Y122.852 E19.15512
G1 X166.884 Y123.202 E19.16895
G1 X167.162 Y123.629 E19.18493
G1 X167.369 Y124.094 E19.20089
G1 X167.479 Y124.476 E19.21335
G1 X167.572 Y124.894 E19.22677
G1 X167.65 Y125.603 E19.24914
G1 X167.62 Y156.644 E20.2223
G1 X167.58 Y157.152 E20.23828
G1 X167.46 Y157.647 E20.25424
G1 X167.267 Y158.115 E20.27012
G1 X167.065 Y158.512 E20.28408
G1 X166.799 Y158.946 E20.30004
G1 X166.468 Y159.334 E20.31603
G1 X166.146 Y159.617 E20.32947
G1 X165.794 Y159.887 E20.34338
G1 X165.367 Y160.164 E20.35933
G1 X164.901 Y160.371 E20.37532
G1 X164.515 Y160.482 E20.38791
G1 X164.097 Y160.574 E20.40133
G1 X163.398 Y160.65 E20.42337
G1 X160.635 Y160.65 E20.50999
G1 X160.62 Y163.657 E20.60427
G1 X160.578 Y164.165 E20.62025
G1 X160.456 Y164.659 E20.6362
G1 X160.267 Y165.115 E20.65168
G1 X160.065 Y165.512 E20.66564
G1 X159.799 Y165.946 E20.6816
G1 X159.468 Y166.334 E20.69759
G1 X159.146 Y166.617 E20.71103
G1 X158.794 Y166.887 E20.72494
G1 X158.367 Y167.164 E20.74089
G1 X157.901 Y167.371 E20.75688
G1 X157.445 Y167.496 E20.7717
G1 X156.979 Y167.588 E20.7866
G1 X156.347 Y167.65 E20.8065
G1 X125.352 Y167.619 E21.77823
G1 X124.844 Y167.579 E21.7942
G1 X124.349 Y167.459 E21.81017
G1 X124.043 Y167.333 E21.82055
G1 X123.543 Y167.255 E21.83641
G1 X123.058 Y167.099 E21.85238
G1 X122.603 Y166.869 E21.86837
G1 X122.19 Y166.571 E21.88433
G1 X121.993 Y166.39 E21.89272
G1 X115.61 Y160.007 E22.17572
G1 X115.279 Y159.62 E22.19169
G1 X115.013 Y159.185 E22.20767
G1 X114.818 Y158.715 E22.22363
G1 X114.698 Y158.219 E22.23962
G1 X114.682 Y158.021 E22.24585
G1 X114.629 Y157.901 E22.24997
G1 X114.519 Y157.518 E22.26246
G1 X114.427 Y157.102 E22.27582
G1 X114.35 Y156.397 E22.29805
G1 X114.38 Y125.356 E23.27121
G1 X114.42 Y124.848 E23.28719
G1 X114.54 Y124.353 E23.30316
G1 X114.733 Y123.885 E23.31903
G1 X114.935 Y123.488 E23.33299
G1 X115.201 Y123.054 E23.34895
G1 X115.532 Y122.666 E23.36494
G1 X115.854 Y122.383 E23.37838
G1 X116.206 Y122.113 E23.39229
G1 X116.633 Y121.836 E23.40825
G1 X117.099 Y121.629 E23.42423
G1 X117.485 Y121.518 E23.43682
G1 X117.903 Y121.426 E23.45024
G1 X118.602 Y121.35 E23.47229
G1 X121.365 Y121.35 E23.55891
G1 X121.38 Y118.343 E23.65318
G1 X121.422 Y117.835 E23.66916
G1 X121.544 Y117.341 E23.68511
G1 X121.733 Y116.885 E23.70059
G1 X121.935 Y116.488 E23.71455
G1 X122.201 Y116.054 E23.73051
G1 X122.532 Y115.666 E23.7465
G1 X122.854 Y115.383 E23.75994
G1 X123.206 Y115.113 E23.77385
G1 X123.633 Y114.836 E23.78981
G1 X124.099 Y114.629 E23.80579
G1 X124.555 Y114.504 E23.82062
G1 X125.021 Y114.412 E23.83551
