;Generated by Cura LulzBot Edition GCodeWriter Version: 3.6.20
;FLAVOR:Marlin
;TIME:160
;Filament used: 0.0733036m
;Layer height: 0.35
;Generated with Cura_SteamEngine 3.6.20
M82 ;absolute extrusion mode
;This G-Code has been generated specifically for the LulzBot TAZ Workhorse with HE 0.5mm Tool Head
M73 P0 ; clear GLCD progress bar
M75 ; start GLCD timer
G26 ; clear potential 'probe fail' condition
M107 ; disable fans
M420 S0 ; disable previous leveling matrix
G90 ; absolute positioning
M82 ; set extruder to absolute mode
G92 E0 ; set extruder position to 0
M140 S55.0 ; start bed heating up
M109 R180 ; soften filament before homing Z
G28 ; Home all axis
G1 E-30 F100 ; retract filament
M109 R170 ; wait for extruder to reach wiping temp
G1 X-15 Y100 F3000 ; move above wiper pad
G1 Z1 ; push nozzle into wiper
G1 X-17 Y95 F1000 ; slow wipe
G1 X-17 Y90 F1000 ; slow wipe
G1 X-17 Y85 F1000 ; slow wipe
G1 X-15 Y90 F1000 ; slow wipe
G1 X-17 Y80 F1000 ; slow wipe
G1 X-15 Y95 F1000 ; slow wipe
G1 X-17 Y75 F2000 ; fast wipe
G1 X-15 Y65 F2000 ; fast wipe
G1 X-17 Y70 F2000 ; fast wipe
G1 X-15 Y60 F2000 ; fast wipe
G1 X-17 Y55 F2000 ; fast wipe
G1 X-15 Y50 F2000 ; fast wipe
G1 X-17 Y40 F2000 ; fast wipe
G1 X-15 Y45 F2000 ; fast wipe
G1 X-17 Y35 F2000 ; fast wipe
G1 X-15 Y40 F2000 ; fast wipe
G1 X-17 Y70 F2000 ; fast wipe
G1 X-15 Y30 Z2 F2000 ; fast wipe
G1 X-17 Y35 F2000 ; fast wipe
G1 X-15 Y25 F2000 ; fast wipe
G1 X-17 Y30 F2000 ; fast wipe
G1 X-15 Y25 Z1.5 F1000 ; slow wipe
G1 X-17 Y23 F1000 ; slow wipe
G1 Z10 ; raise extruder
M109 R160 ; wait for extruder to reach probe temp
G1 X-9 Y-9 ; move above first probe point
M204 S100 ; set probing acceleration
G29       ; start auto-leveling sequence
M420 S1   ; activate bed level matrix
M425 Z    ; use measured Z backlash for compensation
M425 Z F0 ; turn off measured Z backlash compensation. (if activated in the quality settings, this command will automatically be ignored)
M204 S500 ; restore standard acceleration
G1 X0 Y0 Z15 F5000 ; move up off last probe point
G4 S1 ; pause
M400 ; wait for moves to finish
M117 Heating... ; progress indicator message on LCD
M109 R215 ; wait for extruder to reach printing temp
M190 R55.0 ; wait for bed to reach printing temp
G1 Z2 E0 F75 ; prime tiny bit of filament into the nozzle
M117 TAZ Workhorse Printing... ; progress indicator message on LCD

M221 S100 T0
G92 E0
G1 F600 E-2
;LAYER_COUNT:5
;LAYER:0
M107
G0 F4200 X128.497 Y132.45 Z0.4
;TYPE:SKIRT
G1 F900 E0
G1 X153.668 Y132.464 E0.78913
G1 X154.282 Y132.504 E0.80842
G1 X154.887 Y132.624 E0.82776
G1 X155.245 Y132.735 E0.83951
G1 X155.571 Y132.85 E0.85035
G1 X156.138 Y133.092 E0.86968
G1 X156.668 Y133.405 E0.88897
G1 X157.02 Y133.67 E0.90279
G1 X157.287 Y133.891 E0.91365
G1 X157.735 Y134.314 E0.93297
G1 X158.125 Y134.791 E0.95229
G1 X158.337 Y135.116 E0.96445
G1 X158.516 Y135.416 E0.9754
G1 X158.797 Y135.965 E0.99474
G1 X159.004 Y136.545 E1.01405
G1 X159.108 Y136.989 E1.02834
G1 X159.171 Y137.331 E1.03925
G1 X159.243 Y138.112 E1.06383
G1 X159.343 Y138.314 E1.0709
G1 X159.544 Y138.896 E1.0902
G1 X159.667 Y139.5 E1.10953
G1 X159.711 Y140.146 E1.12983
G1 X159.711 Y141.854 E1.18338
G1 X159.671 Y142.469 E1.2027
G1 X159.552 Y143.073 E1.222
G1 X159.355 Y143.657 E1.24132
G1 X159.233 Y143.907 E1.25004
G1 X159.232 Y144.031 E1.25393
G1 X159.186 Y144.645 E1.27323
G1 X159.062 Y145.249 E1.29256
G1 X158.92 Y145.68 E1.30679
G1 X158.798 Y146 E1.31753
G1 X158.542 Y146.56 E1.33683
G1 X158.215 Y147.083 E1.35617
G1 X157.96 Y147.407 E1.36909
G1 X157.731 Y147.673 E1.3801
G1 X157.299 Y148.113 E1.39943
G1 X156.815 Y148.493 E1.41872
G1 X156.473 Y148.707 E1.43137
G1 X156.173 Y148.877 E1.44218
G1 X155.618 Y149.145 E1.4615
G1 X155.034 Y149.339 E1.4808
G1 X154.638 Y149.425 E1.4935
G1 X154.313 Y149.481 E1.50384
G1 X153.506 Y149.55 E1.52923
G1 X128.494 Y149.55 E2.31338
G1 X127.636 Y149.472 E2.34039
G1 X127.293 Y149.409 E2.35132
G1 X126.695 Y149.258 E2.37066
G1 X126.122 Y149.032 E2.38997
G1 X125.723 Y148.82 E2.40414
G1 X125.422 Y148.641 E2.41512
G1 X124.914 Y148.292 E2.43444
G1 X124.455 Y147.881 E2.45375
G1 X124.191 Y147.587 E2.46614
G1 X123.97 Y147.32 E2.47701
G1 X123.609 Y146.821 E2.49632
G1 X123.315 Y146.279 E2.51565
G1 X123.15 Y145.871 E2.52945
G1 X123.035 Y145.545 E2.54028
G1 X122.868 Y144.952 E2.5596
G1 X122.779 Y144.342 E2.57892
G1 X122.764 Y143.999 E2.58969
G1 X122.763 Y143.9 E2.59279
G1 X122.657 Y143.686 E2.60028
G1 X122.456 Y143.104 E2.61958
G1 X122.333 Y142.5 E2.63891
G1 X122.289 Y141.854 E2.65921
G1 X122.289 Y140.146 E2.71275
G1 X122.329 Y139.531 E2.73208
G1 X122.448 Y138.927 E2.75138
G1 X122.645 Y138.343 E2.7707
G1 X122.767 Y138.093 E2.77942
G1 X122.768 Y137.969 E2.78331
G1 X122.814 Y137.355 E2.80261
G1 X122.938 Y136.751 E2.82194
G1 X123.078 Y136.324 E2.83603
G1 X123.2 Y136.003 E2.8468
G1 X123.456 Y135.443 E2.8661
G1 X123.782 Y134.92 E2.88542
G1 X124.046 Y134.585 E2.89879
G1 X124.275 Y134.32 E2.90977
G1 X124.707 Y133.881 E2.92908
G1 X125.193 Y133.502 E2.9484
G1 X125.527 Y133.293 E2.96076
G1 X125.827 Y133.123 E2.97157
G1 X126.382 Y132.855 E2.99089
G1 X126.966 Y132.661 E3.01018
G1 X127.362 Y132.575 E3.02289
G1 X127.687 Y132.519 E3.03323
G1 X128.497 Y132.45 E3.05871
G0 F4200 X128.496 Y132.95
G1 F900 X153.667 Y132.964 E3.84785
G1 X154.249 Y133.004 E3.86613
G1 X155.079 Y133.206 E3.89292
G1 X155.405 Y133.321 E3.90375
G1 X155.94 Y133.552 E3.92202
G1 X156.438 Y133.854 E3.94028
G1 X156.701 Y134.055 E3.95066
G1 X156.968 Y134.276 E3.96153
G1 X157.39 Y134.678 E3.9798
G1 X157.908 Y135.372 E4.00695
G1 X158.087 Y135.672 E4.0179
G1 X158.35 Y136.192 E4.03617
G1 X158.54 Y136.743 E4.05444
G1 X158.617 Y137.08 E4.06528
G1 X158.68 Y137.422 E4.07618
G1 X158.75 Y138.192 E4.10042
G1 X158.75 Y138.241 E4.10196
G1 X158.918 Y138.594 E4.11421
G1 X159.093 Y139.15 E4.13249
G1 X159.19 Y139.725 E4.15077
G1 X159.211 Y140.146 E4.16398
G1 X159.211 Y141.854 E4.21753
G1 X159.171 Y142.435 E4.23579
G1 X159.052 Y143.006 E4.25408
G1 X158.856 Y143.555 E4.27235
G1 X158.734 Y143.789 E4.28063
G1 X158.732 Y144.026 E4.28806
G1 X158.687 Y144.607 E4.30633
G1 X158.562 Y145.177 E4.32462
G1 X158.453 Y145.502 E4.33537
G1 X158.331 Y145.822 E4.3461
G1 X158.087 Y146.351 E4.36437
G1 X157.772 Y146.842 E4.38266
G1 X157.581 Y147.081 E4.39225
G1 X157.352 Y147.347 E4.40325
G1 X156.942 Y147.761 E4.42152
G1 X156.48 Y148.116 E4.43978
G1 X156.226 Y148.272 E4.44913
G1 X155.926 Y148.442 E4.45994
G1 X155.401 Y148.693 E4.47818
G1 X154.846 Y148.871 E4.49646
G1 X154.553 Y148.932 E4.50584
G1 X154.228 Y148.988 E4.51618
G1 X153.506 Y149.05 E4.5389
G1 X128.494 Y149.05 E5.32305
G1 X127.726 Y148.98 E5.34722
G1 X127.383 Y148.917 E5.35816
G1 X126.819 Y148.773 E5.37641
G1 X126.279 Y148.553 E5.39469
G1 X125.979 Y148.39 E5.40539
G1 X125.678 Y148.211 E5.41637
G1 X125.198 Y147.879 E5.43467
G1 X124.576 Y147.268 E5.462
G1 X124.355 Y147.001 E5.47287
G1 X124.015 Y146.528 E5.49113
G1 X123.743 Y146.012 E5.50942
G1 X123.621 Y145.705 E5.51977
G1 X123.506 Y145.379 E5.53061
G1 X123.35 Y144.817 E5.5489
G1 X123.264 Y143.995 E5.57481
G1 X123.263 Y143.786 E5.58136
G1 X123.082 Y143.406 E5.59456
G1 X122.907 Y142.85 E5.61283
G1 X122.81 Y142.275 E5.63111
G1 X122.789 Y141.854 E5.64433
G1 X122.789 Y140.146 E5.69788
G1 X122.829 Y139.565 E5.71613
G1 X122.948 Y138.994 E5.73442
G1 X123.144 Y138.445 E5.7527
G1 X123.266 Y138.211 E5.76097
G1 X123.268 Y137.974 E5.7684
G1 X123.313 Y137.393 E5.78667
G1 X123.438 Y136.823 E5.80496
G1 X123.545 Y136.502 E5.81557
G1 X123.667 Y136.181 E5.82634
G1 X123.911 Y135.652 E5.8446
G1 X124.225 Y135.161 E5.86287
G1 X124.424 Y134.912 E5.87287
G1 X124.653 Y134.647 E5.88385
G1 X125.064 Y134.233 E5.90214
G1 X125.774 Y133.728 E5.92945
G1 X126.074 Y133.558 E5.94026
G1 X126.599 Y133.307 E5.9585
G1 X127.154 Y133.129 E5.97678
G1 X127.447 Y133.068 E5.98616
G1 X127.772 Y133.012 E5.9965
G1 X128.496 Y132.95 E6.01928
G0 F4200 X128.496 Y133.45
G1 F900 X153.667 Y133.464 E6.80841
G1 X154.213 Y133.504 E6.82558
G1 X154.913 Y133.678 E6.84819
G1 X155.239 Y133.793 E6.85903
G1 X155.74 Y134.012 E6.87617
G1 X156.382 Y134.44 E6.90036
G1 X156.649 Y134.661 E6.91123
G1 X157.044 Y135.04 E6.92839
G1 X157.478 Y135.629 E6.95133
G1 X157.657 Y135.929 E6.96228
G1 X157.903 Y136.418 E6.97944
G1 X158.125 Y137.171 E7.00405
G1 X158.188 Y137.513 E7.01495
G1 X158.25 Y138.192 E7.03633
G1 X158.25 Y138.349 E7.04125
G1 X158.264 Y138.371 E7.04207
G1 X158.487 Y138.87 E7.0592
G1 X158.635 Y139.397 E7.07637
G1 X158.711 Y140.146 E7.09997
G1 X158.711 Y141.854 E7.15352
G1 X158.671 Y142.4 E7.17068
G1 X158.552 Y142.934 E7.18783
G1 X158.357 Y143.445 E7.20498
G1 X158.235 Y143.662 E7.21278
G1 X158.232 Y144.022 E7.22407
G1 X158.187 Y144.567 E7.24121
G1 X157.986 Y145.324 E7.26577
G1 X157.864 Y145.644 E7.27651
G1 X157.632 Y146.14 E7.29367
G1 X157.202 Y146.755 E7.3172
G1 X156.973 Y147.021 E7.3282
G1 X156.586 Y147.408 E7.34536
G1 X155.98 Y147.837 E7.36864
G1 X155.68 Y148.007 E7.37945
G1 X155.185 Y148.241 E7.39661
G1 X154.468 Y148.44 E7.41994
G1 X154.143 Y148.496 E7.43028
G1 X153.506 Y148.55 E7.45032
G1 X128.494 Y148.55 E8.23447
G1 X127.817 Y148.488 E8.25579
G1 X127.474 Y148.425 E8.26672
G1 X126.944 Y148.287 E8.28389
G1 X126.234 Y147.96 E8.3084
G1 X125.933 Y147.781 E8.31938
G1 X125.484 Y147.468 E8.33654
G1 X124.961 Y146.949 E8.35964
G1 X124.74 Y146.682 E8.3705
G1 X124.423 Y146.236 E8.38766
G1 X124.093 Y145.539 E8.41183
G1 X123.978 Y145.213 E8.42267
G1 X123.834 Y144.684 E8.43986
G1 X123.764 Y143.992 E8.46166
G1 X123.762 Y143.669 E8.47179
G1 X123.736 Y143.629 E8.47329
G1 X123.513 Y143.13 E8.49042
G1 X123.365 Y142.603 E8.50758
G1 X123.289 Y141.854 E8.53119
G1 X123.289 Y140.146 E8.58473
G1 X123.329 Y139.6 E8.6019
G1 X123.448 Y139.066 E8.61905
G1 X123.643 Y138.555 E8.6362
G1 X123.765 Y138.338 E8.644
G1 X123.768 Y137.978 E8.65529
G1 X123.813 Y137.433 E8.67243
G1 X124.013 Y136.68 E8.69686
G1 X124.135 Y136.359 E8.70762
G1 X124.366 Y135.863 E8.72478
G1 X124.803 Y135.239 E8.74866
G1 X125.032 Y134.974 E8.75964
G1 X125.419 Y134.587 E8.7768
G1 X126.02 Y134.163 E8.79986
G1 X126.32 Y133.993 E8.81067
G1 X126.815 Y133.759 E8.82783
G1 X127.532 Y133.56 E8.85116
G1 X127.857 Y133.504 E8.8615
G1 X128.496 Y133.45 E8.88161
G0 F4200 X128.496 Y133.95
G1 F900 X153.667 Y133.964 E9.67074
G1 X154.175 Y134.004 E9.68672
G1 X154.746 Y134.149 E9.70518
G1 X155.072 Y134.264 E9.71602
G1 X155.538 Y134.471 E9.73201
G1 X156.063 Y134.825 E9.75186
G1 X156.33 Y135.046 E9.76273
G1 X156.696 Y135.401 E9.77871
G1 X157.049 Y135.885 E9.79749
G1 X157.228 Y136.185 E9.80844
G1 X157.454 Y136.641 E9.8244
G1 X157.633 Y137.261 E9.84463
G1 X157.696 Y137.603 E9.85553
G1 X157.75 Y138.192 E9.87408
G1 X157.75 Y138.497 E9.88364
G1 X157.856 Y138.67 E9.89
G1 X158.051 Y139.14 E9.90595
G1 X158.171 Y139.636 E9.92195
G1 X158.211 Y140.146 E9.93799
G1 X158.211 Y141.854 E9.99154
G1 X158.171 Y142.362 E10.00751
G1 X158.052 Y142.857 E10.02347
G1 X157.857 Y143.328 E10.03946
G1 X157.736 Y143.525 E10.0467
G1 X157.732 Y144.017 E10.06213
G1 X157.687 Y144.525 E10.07812
G1 X157.519 Y145.146 E10.09829
G1 X157.397 Y145.466 E10.10902
G1 X157.179 Y145.926 E10.12498
G1 X156.823 Y146.428 E10.14428
G1 X156.594 Y146.694 E10.15528
G1 X156.232 Y147.053 E10.17126
G1 X155.733 Y147.402 E10.19035
G1 X155.433 Y147.572 E10.20116
G1 X154.972 Y147.787 E10.21711
G1 X154.383 Y147.947 E10.23625
G1 X154.058 Y148.003 E10.24659
G1 X153.506 Y148.05 E10.26395
G1 X128.494 Y148.05 E11.0481
G1 X127.907 Y147.997 E11.06658
G1 X127.564 Y147.934 E11.07751
G1 X127.072 Y147.802 E11.09348
G1 X126.49 Y147.53 E11.11362
G1 X126.189 Y147.351 E11.1246
G1 X125.773 Y147.057 E11.14057
G1 X125.346 Y146.63 E11.15951
G1 X125.125 Y146.363 E11.17037
G1 X124.832 Y145.947 E11.18632
G1 X124.564 Y145.372 E11.20621
G1 X124.449 Y145.046 E11.21705
G1 X124.318 Y144.554 E11.23301
G1 X124.264 Y143.988 E11.25084
G1 X124.261 Y143.521 E11.26548
G1 X124.144 Y143.33 E11.2725
G1 X123.949 Y142.86 E11.28845
G1 X123.829 Y142.364 E11.30445
G1 X123.789 Y141.854 E11.32049
G1 X123.789 Y140.146 E11.37404
G1 X123.829 Y139.638 E11.39001
G1 X123.948 Y139.143 E11.40598
G1 X124.143 Y138.672 E11.42196
G1 X124.264 Y138.475 E11.4292
G1 X124.268 Y137.983 E11.44463
G1 X124.313 Y137.475 E11.46062
G1 X124.48 Y136.857 E11.48069
G1 X124.602 Y136.536 E11.49145
G1 X124.82 Y136.076 E11.50741
G1 X125.181 Y135.566 E11.527
G1 X125.41 Y135.301 E11.53798
G1 X125.772 Y134.943 E11.55394
G1 X126.267 Y134.598 E11.57286
G1 X126.567 Y134.428 E11.58367
G1 X127.028 Y134.213 E11.59962
G1 X127.617 Y134.053 E11.61875
G1 X127.942 Y133.997 E11.62909
G1 X128.496 Y133.95 E11.64652
G0 F4200 X128.496 Y134.45
G1 F900 X153.667 Y134.464 E12.43566
G1 X154.133 Y134.504 E12.45032
G1 X154.58 Y134.621 E12.46481
G1 X154.906 Y134.736 E12.47564
G1 X155.333 Y134.929 E12.49034
G1 X155.744 Y135.211 E12.50596
G1 X156.011 Y135.432 E12.51683
G1 X156.346 Y135.76 E12.53153
G1 X156.62 Y136.141 E12.54624
G1 X156.799 Y136.441 E12.55719
G1 X157.004 Y136.862 E12.57187
G1 X157.141 Y137.352 E12.58782
G1 X157.204 Y137.694 E12.59873
G1 X157.25 Y138.192 E12.6144
G1 X157.25 Y138.633 E12.62823
G1 X157.444 Y138.964 E12.64026
G1 X157.609 Y139.403 E12.65496
G1 X157.696 Y139.863 E12.66964
G1 X157.711 Y140.146 E12.67852
G1 X157.711 Y141.854 E12.73207
G1 X157.671 Y142.321 E12.74677
G1 X157.552 Y142.774 E12.76145
G1 X157.359 Y143.201 E12.77614
G1 X157.238 Y143.379 E12.78289
G1 X157.232 Y144.013 E12.80276
G1 X157.188 Y144.479 E12.81744
G1 X157.052 Y144.968 E12.83335
G1 X156.93 Y145.288 E12.84409
G1 X156.726 Y145.71 E12.85878
G1 X156.444 Y146.102 E12.87392
G1 X156.215 Y146.368 E12.88493
G1 X155.88 Y146.696 E12.89963
G1 X155.487 Y146.967 E12.91459
G1 X155.187 Y147.137 E12.9254
G1 X154.761 Y147.332 E12.94009
G1 X154.298 Y147.454 E12.9551
G1 X153.973 Y147.51 E12.96544
G1 X153.506 Y147.55 E12.98013
G1 X128.494 Y147.55 E13.76428
G1 X127.997 Y147.505 E13.77993
G1 X127.654 Y147.442 E13.79086
G1 X127.202 Y147.318 E13.80556
G1 X126.745 Y147.101 E13.82142
G1 X126.444 Y146.922 E13.8324
G1 X126.063 Y146.649 E13.84709
G1 X125.732 Y146.311 E13.86192
G1 X125.511 Y146.044 E13.87279
G1 X125.244 Y145.659 E13.88748
G1 X125.036 Y145.206 E13.9031
G1 X124.921 Y144.88 E13.91394
G1 X124.803 Y144.426 E13.92865
G1 X124.764 Y143.985 E13.94253
G1 X124.76 Y143.383 E13.9614
G1 X124.556 Y143.036 E13.97402
G1 X124.391 Y142.597 E13.98872
G1 X124.304 Y142.137 E14.0034
G1 X124.289 Y141.854 E14.01229
G1 X124.289 Y140.146 E14.06583
G1 X124.329 Y139.679 E14.08053
G1 X124.448 Y139.226 E14.09521
G1 X124.641 Y138.799 E14.1099
G1 X124.762 Y138.621 E14.11665
G1 X124.768 Y137.987 E14.13653
G1 X124.812 Y137.521 E14.1512
G1 X124.947 Y137.035 E14.16702
G1 X125.069 Y136.714 E14.17778
G1 X125.273 Y136.292 E14.19248
G1 X125.559 Y135.893 E14.20787
G1 X125.788 Y135.628 E14.21885
G1 X126.124 Y135.301 E14.23355
G1 X126.513 Y135.033 E14.24836
G1 X126.813 Y134.863 E14.25917
G1 X127.239 Y134.668 E14.27385
G1 X127.702 Y134.546 E14.28887
G1 X128.027 Y134.49 E14.29921
G1 X128.496 Y134.45 E14.31396
G0 F4200 X128.495 Y134.95
G1 F900 X153.666 Y134.964 E15.1031
G1 X154.088 Y135.004 E15.11639
G1 X154.414 Y135.092 E15.12697
G1 X154.74 Y135.207 E15.13781
G1 X155.124 Y135.385 E15.15108
G1 X155.426 Y135.596 E15.16263
G1 X155.693 Y135.817 E15.1735
G1 X155.992 Y136.116 E15.18675
G1 X156.19 Y136.397 E15.19753
G1 X156.369 Y136.697 E15.20848
G1 X156.551 Y137.08 E15.22178
G1 X156.65 Y137.442 E15.23354
G1 X156.713 Y137.784 E15.24444
G1 X156.75 Y138.192 E15.25729
G1 X156.75 Y138.795 E15.27619
G1 X156.822 Y138.882 E15.27973
G1 X157.026 Y139.253 E15.29301
G1 X157.157 Y139.656 E15.30629
G1 X157.211 Y140.146 E15.32175
G1 X157.211 Y141.854 E15.37529
G1 X157.171 Y142.276 E15.38858
G1 X157.053 Y142.683 E15.40187
G1 X156.86 Y143.06 E15.41515
