;Generated by Cura LulzBot Edition GCodeWriter Version: 3.6.20
;FLAVOR:Marlin
;TIME:708
;Filament used: 0.423508m
;Layer height: 0.35
;Generated with Cura_SteamEngine 3.6.20
M82 ;absolute extrusion mode
;This G-Code has been generated specifically for the LulzBot TAZ Workhorse with HE 0.5mm Tool Head
M73 P0 ; clear GLCD progress bar
M75 ; start GLCD timer
G26 ; clear potential 'probe fail' condition
M107 ; disable fans
M420 S0 ; disable previous leveling matrix
G90 ; absolute positioning
M82 ; set extruder to absolute mode
G92 E0 ; set extruder position to 0
M140 S55.0 ; start bed heating up
M109 R180 ; soften filament before homing Z
G28 ; Home all axis
G1 E-30 F100 ; retract filament
M109 R170 ; wait for extruder to reach wiping temp
G1 X-15 Y100 F3000 ; move above wiper pad
G1 Z1 ; push nozzle into wiper
G1 X-17 Y95 F1000 ; slow wipe
G1 X-17 Y90 F1000 ; slow wipe
G1 X-17 Y85 F1000 ; slow wipe
G1 X-15 Y90 F1000 ; slow wipe
G1 X-17 Y80 F1000 ; slow wipe
G1 X-15 Y95 F1000 ; slow wipe
G1 X-17 Y75 F2000 ; fast wipe
G1 X-15 Y65 F2000 ; fast wipe
G1 X-17 Y70 F2000 ; fast wipe
G1 X-15 Y60 F2000 ; fast wipe
G1 X-17 Y55 F2000 ; fast wipe
G1 X-15 Y50 F2000 ; fast wipe
G1 X-17 Y40 F2000 ; fast wipe
G1 X-15 Y45 F2000 ; fast wipe
G1 X-17 Y35 F2000 ; fast wipe
G1 X-15 Y40 F2000 ; fast wipe
G1 X-17 Y70 F2000 ; fast wipe
G1 X-15 Y30 Z2 F2000 ; fast wipe
G1 X-17 Y35 F2000 ; fast wipe
G1 X-15 Y25 F2000 ; fast wipe
G1 X-17 Y30 F2000 ; fast wipe
G1 X-15 Y25 Z1.5 F1000 ; slow wipe
G1 X-17 Y23 F1000 ; slow wipe
G1 Z10 ; raise extruder
M109 R160 ; wait for extruder to reach probe temp
G1 X-9 Y-9 ; move above first probe point
M204 S100 ; set probing acceleration
G29       ; start auto-leveling sequence
M420 S1   ; activate bed level matrix
M425 Z    ; use measured Z backlash for compensation
M425 Z F0 ; turn off measured Z backlash compensation. (if activated in the quality settings, this command will automatically be ignored)
M204 S500 ; restore standard acceleration
G1 X0 Y0 Z15 F5000 ; move up off last probe point
G4 S1 ; pause
M400 ; wait for moves to finish
M117 Heating... ; progress indicator message on LCD
M109 R215 ; wait for extruder to reach printing temp
M190 R55.0 ; wait for bed to reach printing temp
G1 Z2 E0 F75 ; prime tiny bit of filament into the nozzle
M117 TAZ Workhorse Printing... ; progress indicator message on LCD

M221 S100 T0
G92 E0
G1 F600 E-2
;LAYER_COUNT:5
;LAYER:0
M107
G0 F4200 X163.75 Y120.146 Z0.4
;TYPE:SKIRT
G1 F900 E0
G1 X163.75 Y161.854 E1.30758
G1 X163.71 Y162.469 E1.32691
G1 X163.591 Y163.073 E1.34621
G1 X163.394 Y163.657 E1.36553
G1 X163.124 Y164.211 E1.38485
G1 X162.784 Y164.725 E1.40417
G1 X162.359 Y165.213 E1.42446
G1 X162.213 Y165.359 E1.43093
G1 X161.75 Y165.765 E1.45024
G1 X161.399 Y166 E1.46348
G1 X161.184 Y166.325 E1.4757
G1 X160.759 Y166.813 E1.49599
G1 X160.613 Y166.959 E1.50246
G1 X160.15 Y167.365 E1.52176
G1 X159.638 Y167.708 E1.54108
G1 X159.086 Y167.982 E1.56041
G1 X158.504 Y168.183 E1.57971
G1 X157.9 Y168.306 E1.59903
G1 X157.254 Y168.35 E1.61933
G1 X124.746 Y168.35 E2.63849
G1 X124.131 Y168.31 E2.65781
G1 X123.527 Y168.191 E2.67711
G1 X122.943 Y167.994 E2.69643
G1 X122.389 Y167.724 E2.71575
G1 X121.875 Y167.384 E2.73508
G1 X121.387 Y166.959 E2.75536
G1 X121.241 Y166.813 E2.76184
G1 X120.835 Y166.35 E2.78114
G1 X120.6 Y165.999 E2.79439
G1 X120.275 Y165.784 E2.8066
G1 X119.787 Y165.359 E2.82689
G1 X119.641 Y165.213 E2.83336
G1 X119.235 Y164.75 E2.85267
G1 X118.892 Y164.238 E2.87199
G1 X118.618 Y163.686 E2.89131
G1 X118.417 Y163.104 E2.91061
G1 X118.294 Y162.5 E2.92994
G1 X118.25 Y161.854 E2.95024
G1 X118.25 Y120.146 E4.25782
G1 X118.29 Y119.531 E4.27714
G1 X118.409 Y118.927 E4.29644
G1 X118.606 Y118.343 E4.31577
G1 X118.876 Y117.789 E4.33509
G1 X119.216 Y117.275 E4.35441
G1 X119.641 Y116.787 E4.3747
G1 X119.787 Y116.641 E4.38117
G1 X120.25 Y116.235 E4.40048
G1 X120.601 Y116 E4.41372
G1 X120.816 Y115.675 E4.42594
G1 X121.241 Y115.187 E4.44622
G1 X121.387 Y115.041 E4.4527
G1 X121.85 Y114.635 E4.472
G1 X122.362 Y114.292 E4.49132
G1 X122.914 Y114.018 E4.51064
G1 X123.496 Y113.817 E4.52995
G1 X124.1 Y113.694 E4.54927
G1 X124.746 Y113.65 E4.56957
G1 X157.254 Y113.65 E5.58873
G1 X157.869 Y113.69 E5.60805
G1 X158.473 Y113.809 E5.62735
G1 X159.057 Y114.006 E5.64667
G1 X159.611 Y114.276 E5.66599
G1 X160.125 Y114.616 E5.68531
G1 X160.613 Y115.041 E5.7056
G1 X160.759 Y115.187 E5.71207
G1 X161.165 Y115.65 E5.73138
G1 X161.4 Y116.001 E5.74462
G1 X161.725 Y116.216 E5.75684
G1 X162.213 Y116.641 E5.77713
G1 X162.359 Y116.787 E5.7836
G1 X162.765 Y117.25 E5.80291
G1 X163.108 Y117.762 E5.82223
G1 X163.382 Y118.314 E5.84155
G1 X163.583 Y118.896 E5.86085
G1 X163.706 Y119.5 E5.88018
G1 X163.75 Y120.146 E5.90048
G0 F4200 X163.25 Y120.146
G1 F900 X163.25 Y161.854 E7.20806
G1 X163.21 Y162.435 E7.22632
G1 X163.091 Y163.006 E7.2446
G1 X162.895 Y163.555 E7.26288
G1 X162.626 Y164.071 E7.28112
G1 X162.288 Y164.547 E7.29943
G1 X162.005 Y164.859 E7.31263
G1 X161.859 Y165.005 E7.31911
G1 X161.42 Y165.388 E7.33737
G1 X161.046 Y165.632 E7.35137
G1 X161.026 Y165.671 E7.35274
G1 X160.688 Y166.147 E7.37105
G1 X160.405 Y166.459 E7.38425
G1 X160.259 Y166.605 E7.39073
G1 X159.82 Y166.988 E7.40899
G1 X159.332 Y167.307 E7.42727
G1 X158.806 Y167.557 E7.44553
G1 X158.25 Y167.732 E7.4638
G1 X157.675 Y167.829 E7.48208
G1 X157.254 Y167.85 E7.4953
G1 X124.746 Y167.85 E8.51445
G1 X124.165 Y167.81 E8.53271
G1 X123.594 Y167.691 E8.551
G1 X123.045 Y167.495 E8.56927
G1 X122.529 Y167.226 E8.58752
G1 X122.053 Y166.888 E8.60582
G1 X121.741 Y166.605 E8.61903
G1 X121.595 Y166.459 E8.6255
G1 X121.212 Y166.02 E8.64376
G1 X120.968 Y165.646 E8.65776
G1 X120.929 Y165.626 E8.65914
G1 X120.453 Y165.288 E8.67744
G1 X120.141 Y165.005 E8.69065
G1 X119.995 Y164.859 E8.69712
G1 X119.612 Y164.42 E8.71538
G1 X119.293 Y163.932 E8.73366
G1 X119.043 Y163.406 E8.75192
G1 X118.868 Y162.85 E8.77019
G1 X118.771 Y162.275 E8.78848
G1 X118.75 Y161.854 E8.80169
G1 X118.75 Y120.146 E10.10928
G1 X118.79 Y119.565 E10.12753
G1 X118.909 Y118.994 E10.14582
G1 X119.105 Y118.445 E10.16409
G1 X119.374 Y117.929 E10.18234
G1 X119.712 Y117.453 E10.20064
G1 X119.995 Y117.141 E10.21385
G1 X120.141 Y116.995 E10.22032
G1 X120.58 Y116.612 E10.23858
G1 X120.954 Y116.368 E10.25258
G1 X120.974 Y116.329 E10.25396
G1 X121.312 Y115.853 E10.27226
G1 X121.595 Y115.541 E10.28547
G1 X121.741 Y115.395 E10.29194
G1 X122.18 Y115.012 E10.3102
G1 X122.668 Y114.693 E10.32848
G1 X123.194 Y114.443 E10.34674
G1 X123.75 Y114.268 E10.36502
G1 X124.325 Y114.171 E10.3833
G1 X124.746 Y114.15 E10.39651
G1 X157.254 Y114.15 E11.41567
G1 X157.835 Y114.19 E11.43393
G1 X158.406 Y114.309 E11.45221
G1 X158.955 Y114.505 E11.47049
G1 X159.471 Y114.774 E11.48873
G1 X159.947 Y115.112 E11.50703
G1 X160.259 Y115.395 E11.52024
G1 X160.405 Y115.541 E11.52671
G1 X160.788 Y115.98 E11.54498
G1 X161.032 Y116.354 E11.55898
G1 X161.071 Y116.374 E11.56035
G1 X161.547 Y116.712 E11.57865
G1 X161.859 Y116.995 E11.59186
G1 X162.005 Y117.141 E11.59833
G1 X162.388 Y117.58 E11.6166
G1 X162.707 Y118.068 E11.63488
G1 X162.957 Y118.594 E11.65313
G1 X163.132 Y119.15 E11.67141
G1 X163.229 Y119.725 E11.68969
G1 X163.25 Y120.146 E11.70291
G0 F4200 X162.75 Y120.146
G1 F900 X162.75 Y161.854 E13.01049
G1 X162.71 Y162.4 E13.02765
G1 X162.591 Y162.934 E13.04481
G1 X162.396 Y163.445 E13.06195
G1 X162.128 Y163.923 E13.07913
G1 X161.652 Y164.506 E13.10273
G1 X161.506 Y164.652 E13.1092
G1 X161.091 Y165.009 E13.12636
G1 X160.664 Y165.281 E13.14224
G1 X160.528 Y165.523 E13.15094
G1 X160.052 Y166.106 E13.17454
G1 X159.906 Y166.252 E13.18101
G1 X159.491 Y166.609 E13.19817
G1 X159.029 Y166.903 E13.21534
G1 X158.53 Y167.126 E13.23247
G1 X158.003 Y167.274 E13.24964
G1 X157.254 Y167.35 E13.27324
G1 X124.746 Y167.35 E14.29239
G1 X124.2 Y167.31 E14.30956
G1 X123.666 Y167.191 E14.32671
G1 X123.155 Y166.996 E14.34386
G1 X122.677 Y166.728 E14.36104
G1 X122.094 Y166.252 E14.38463
G1 X121.948 Y166.106 E14.39111
G1 X121.591 Y165.691 E14.40827
G1 X121.319 Y165.264 E14.42414
G1 X121.077 Y165.128 E14.43284
G1 X120.494 Y164.652 E14.45644
G1 X120.348 Y164.506 E14.46291
G1 X119.991 Y164.091 E14.48007
G1 X119.697 Y163.629 E14.49724
G1 X119.474 Y163.13 E14.51438
G1 X119.326 Y162.603 E14.53154
G1 X119.25 Y161.854 E14.55514
G1 X119.25 Y120.146 E15.86273
G1 X119.29 Y119.6 E15.87989
G1 X119.409 Y119.066 E15.89704
G1 X119.604 Y118.555 E15.91419
G1 X119.872 Y118.077 E15.93137
G1 X120.348 Y117.494 E15.95496
G1 X120.494 Y117.348 E15.96144
G1 X120.909 Y116.991 E15.9786
G1 X121.336 Y116.719 E15.99447
G1 X121.472 Y116.477 E16.00318
G1 X121.948 Y115.894 E16.02677
G1 X122.094 Y115.748 E16.03324
G1 X122.509 Y115.391 E16.05041
G1 X122.971 Y115.097 E16.06757
G1 X123.47 Y114.874 E16.08471
G1 X123.997 Y114.726 E16.10187
G1 X124.746 Y114.65 E16.12547
G1 X157.254 Y114.65 E17.14463
G1 X157.8 Y114.69 E17.16179
G1 X158.334 Y114.809 E17.17895
G1 X158.845 Y115.004 E17.19609
G1 X159.323 Y115.272 E17.21327
G1 X159.906 Y115.748 E17.23687
G1 X160.052 Y115.894 E17.24334
G1 X160.409 Y116.309 E17.2605
G1 X160.681 Y116.736 E17.27638
G1 X160.923 Y116.872 E17.28508
G1 X161.506 Y117.348 E17.30868
G1 X161.652 Y117.494 E17.31515
G1 X162.009 Y117.909 E17.33231
G1 X162.303 Y118.371 E17.34948
G1 X162.526 Y118.87 E17.36661
G1 X162.674 Y119.397 E17.38378
G1 X162.75 Y120.146 E17.40738
G0 F4200 X162.25 Y120.146
G1 F900 X162.25 Y161.854 E18.71496
G1 X162.21 Y162.362 E18.73094
G1 X162.091 Y162.857 E18.7469
G1 X161.896 Y163.328 E18.76288
G1 X161.63 Y163.763 E18.77887
G1 X161.298 Y164.152 E18.7949
G1 X161.152 Y164.298 E18.80137
G1 X160.765 Y164.629 E18.81734
G1 X160.33 Y164.895 E18.83332
G1 X160.305 Y164.905 E18.83417
G1 X160.296 Y164.928 E18.83494
G1 X160.03 Y165.363 E18.85093
G1 X159.698 Y165.752 E18.86696
G1 X159.552 Y165.898 E18.87343
G1 X159.165 Y166.229 E18.8894
G1 X158.73 Y166.495 E18.90538
G1 X158.26 Y166.69 E18.92134
G1 X157.764 Y166.81 E18.93733
G1 X157.254 Y166.85 E18.95337
G1 X124.746 Y166.85 E19.97253
G1 X124.238 Y166.81 E19.9885
G1 X123.743 Y166.691 E20.00447
G1 X123.272 Y166.496 E20.02045
G1 X122.837 Y166.23 E20.03643
G1 X122.448 Y165.898 E20.05247
G1 X122.302 Y165.752 E20.05894
G1 X121.971 Y165.365 E20.0749
G1 X121.705 Y164.93 E20.09089
G1 X121.695 Y164.905 E20.09173
G1 X121.672 Y164.896 E20.09251
G1 X121.237 Y164.63 E20.10849
G1 X120.848 Y164.298 E20.12453
G1 X120.702 Y164.152 E20.131
G1 X120.371 Y163.765 E20.14697
G1 X120.105 Y163.33 E20.16295
G1 X119.91 Y162.86 E20.1789
G1 X119.79 Y162.364 E20.1949
G1 X119.75 Y161.854 E20.21094
G1 X119.75 Y120.146 E21.51852
G1 X119.79 Y119.638 E21.5345
G1 X119.909 Y119.143 E21.55046
G1 X120.104 Y118.672 E21.56644
G1 X120.37 Y118.237 E21.58243
G1 X120.702 Y117.848 E21.59846
G1 X120.848 Y117.702 E21.60493
G1 X121.235 Y117.371 E21.6209
G1 X121.67 Y117.105 E21.63689
G1 X121.695 Y117.095 E21.63773
G1 X121.704 Y117.072 E21.6385
G1 X121.97 Y116.637 E21.65449
G1 X122.302 Y116.248 E21.67052
G1 X122.448 Y116.102 E21.677
G1 X122.835 Y115.771 E21.69296
G1 X123.27 Y115.505 E21.70895
G1 X123.74 Y115.31 E21.7249
G1 X124.236 Y115.19 E21.7409
G1 X124.746 Y115.15 E21.75694
G1 X157.254 Y115.15 E22.77609
G1 X157.762 Y115.19 E22.79207
G1 X158.257 Y115.309 E22.80803
G1 X158.728 Y115.504 E22.82401
G1 X159.163 Y115.77 E22.84
G1 X159.552 Y116.102 E22.85603
G1 X159.698 Y116.248 E22.8625
G1 X160.029 Y116.635 E22.87847
G1 X160.295 Y117.07 E22.89445
G1 X160.305 Y117.095 E22.8953
G1 X160.328 Y117.104 E22.89607
G1 X160.763 Y117.37 E22.91206
G1 X161.152 Y117.702 E22.92809
G1 X161.298 Y117.848 E22.93456
G1 X161.629 Y118.235 E22.95053
G1 X161.895 Y118.67 E22.96651
G1 X162.09 Y119.14 E22.98247
G1 X162.21 Y119.636 E22.99846
G1 X162.25 Y120.146 E23.0145
G0 F4200 X161.75 Y120.146
G1 F900 X161.75 Y161.854 E24.32209
G1 X161.71 Y162.321 E24.33678
G1 X161.591 Y162.774 E24.35147
G1 X161.398 Y163.201 E24.36616
G1 X161.134 Y163.588 E24.38084
G1 X160.945 Y163.799 E24.38972
G1 X160.799 Y163.945 E24.3962
G1 X160.44 Y164.246 E24.41088
G1 X160.036 Y164.483 E24.42557
G1 X159.922 Y164.526 E24.42939
G1 X159.798 Y164.801 E24.43885
G1 X159.534 Y165.188 E24.45353
G1 X159.345 Y165.399 E24.46241
G1 X159.199 Y165.545 E24.46889
G1 X158.84 Y165.846 E24.48357
G1 X158.436 Y166.083 E24.49826
G1 X157.997 Y166.248 E24.51296
G1 X157.537 Y166.335 E24.52764
G1 X157.254 Y166.35 E24.53652
G1 X124.746 Y166.35 E25.55568
G1 X124.279 Y166.31 E25.57037
G1 X123.826 Y166.191 E25.58506
G1 X123.399 Y165.998 E25.59975
G1 X123.012 Y165.734 E25.61444
G1 X122.801 Y165.545 E25.62332
G1 X122.655 Y165.399 E25.62979
G1 X122.354 Y165.04 E25.64448
G1 X122.117 Y164.636 E25.65916
G1 X122.074 Y164.522 E25.66298
G1 X121.799 Y164.398 E25.67244
G1 X121.412 Y164.134 E25.68713
G1 X121.201 Y163.945 E25.69601
G1 X121.055 Y163.799 E25.70248
G1 X120.754 Y163.44 E25.71717
G1 X120.517 Y163.036 E25.73185
G1 X120.352 Y162.597 E25.74656
G1 X120.265 Y162.137 E25.76123
G1 X120.25 Y161.854 E25.77012
G1 X120.25 Y120.146 E27.0777
G1 X120.29 Y119.679 E27.0924
G1 X120.409 Y119.226 E27.10708
G1 X120.602 Y118.799 E27.12177
G1 X120.866 Y118.412 E27.13646
G1 X121.055 Y118.201 E27.14534
G1 X121.201 Y118.055 E27.15181
G1 X121.56 Y117.754 E27.1665
G1 X121.964 Y117.517 E27.18118
G1 X122.078 Y117.474 E27.185
G1 X122.202 Y117.199 E27.19446
G1 X122.466 Y116.812 E27.20915
G1 X122.655 Y116.601 E27.21803
G1 X122.801 Y116.455 E27.2245
G1 X123.16 Y116.154 E27.23919
G1 X123.564 Y115.917 E27.25387
G1 X124.003 Y115.752 E27.26858
G1 X124.463 Y115.665 E27.28325
G1 X124.746 Y115.65 E27.29214
G1 X157.254 Y115.65 E28.31129
G1 X157.721 Y115.69 E28.32599
G1 X158.174 Y115.809 E28.34067
G1 X158.601 Y116.002 E28.35536
G1 X158.988 Y116.266 E28.37005
G1 X159.199 Y116.455 E28.37893
G1 X159.345 Y116.601 E28.3854
G1 X159.646 Y116.96 E28.40009
G1 X159.883 Y117.364 E28.41478
G1 X159.926 Y117.478 E28.4186
G1 X160.201 Y117.602 E28.42805
G1 X160.588 Y117.866 E28.44274
G1 X160.799 Y118.055 E28.45162
G1 X160.945 Y118.201 E28.45809
G1 X161.246 Y118.56 E28.47278
G1 X161.483 Y118.964 E28.48747
G1 X161.648 Y119.403 E28.50217
G1 X161.735 Y119.863 E28.51685
G1 X161.75 Y120.146 E28.52573
G0 F4200 X161.25 Y120.146
G1 F900 X161.25 Y161.854 E29.83332
G1 X161.21 Y162.276 E29.84661
G1 X161.092 Y162.683 E29.85989
G1 X160.899 Y163.06 E29.87317
G1 X160.591 Y163.445 E29.88863
G1 X160.445 Y163.591 E29.8951
G1 X160.118 Y163.861 E29.90839
G1 X159.747 Y164.065 E29.92167
G1 X159.535 Y164.134 E29.92866
G1 X159.492 Y164.283 E29.93352
G1 X159.299 Y164.66 E29.9468
G1 X158.991 Y165.045 E29.96225
G1 X158.845 Y165.191 E29.96873
G1 X158.518 Y165.461 E29.98202
G1 X158.147 Y165.665 E29.9953
G1 X157.744 Y165.796 E30.00858
G1 X157.254 Y165.85 E30.02404
G1 X124.746 Y165.85 E31.04319
G1 X124.324 Y165.81 E31.05648
G1 X123.917 Y165.692 E31.06977
G1 X123.54 Y165.499 E31.08304
G1 X123.155 Y165.191 E31.0985
G1 X123.009 Y165.045 E31.10498
G1 X122.739 Y164.718 E31.11827
G1 X122.535 Y164.347 E31.13154
G1 X122.466 Y164.135 E31.13853
G1 X122.317 Y164.092 E31.1434
G1 X121.94 Y163.899 E31.15667
G1 X121.555 Y163.591 E31.17213
G1 X121.409 Y163.445 E31.1786
G1 X121.139 Y163.118 E31.1919
G1 X120.935 Y162.747 E31.20517
G1 X120.804 Y162.344 E31.21846
G1 X120.75 Y161.854 E31.23391
G1 X120.75 Y120.146 E32.5415
G1 X120.79 Y119.724 E32.55479
G1 X120.908 Y119.317 E32.56807
G1 X121.101 Y118.94 E32.58135
G1 X121.409 Y118.555 E32.59681
G1 X121.555 Y118.409 E32.60328
G1 X121.882 Y118.139 E32.61657
G1 X122.253 Y117.935 E32.62985
G1 X122.465 Y117.866 E32.63684
G1 X122.508 Y117.717 E32.6417
G1 X122.701 Y117.34 E32.65498
G1 X123.009 Y116.955 E32.67044
G1 X123.155 Y116.809 E32.67691
G1 X123.482 Y116.539 E32.6902
G1 X123.853 Y116.335 E32.70348
G1 X124.256 Y116.204 E32.71676
