;Generated by Cura LulzBot Edition GCodeWriter Version: 3.6.20
;FLAVOR:Marlin
;TIME:1113
;Filament used: 0.632873m
;Layer height: 0.35
;Generated with Cura_SteamEngine 3.6.20
M82 ;absolute extrusion mode
;This G-Code has been generated specifically for the LulzBot TAZ Workhorse with HE 0.5mm Tool Head
M73 P0 ; clear GLCD progress bar
M75 ; start GLCD timer
G26 ; clear potential 'probe fail' condition
M107 ; disable fans
M420 S0 ; disable previous leveling matrix
G90 ; absolute positioning
M82 ; set extruder to absolute mode
G92 E0 ; set extruder position to 0
M140 S55.0 ; start bed heating up
M109 R180 ; soften filament before homing Z
G28 ; Home all axis
G1 E-30 F100 ; retract filament
M109 R170 ; wait for extruder to reach wiping temp
G1 X-15 Y100 F3000 ; move above wiper pad
G1 Z1 ; push nozzle into wiper
G1 X-17 Y95 F1000 ; slow wipe
G1 X-17 Y90 F1000 ; slow wipe
G1 X-17 Y85 F1000 ; slow wipe
G1 X-15 Y90 F1000 ; slow wipe
G1 X-17 Y80 F1000 ; slow wipe
G1 X-15 Y95 F1000 ; slow wipe
G1 X-17 Y75 F2000 ; fast wipe
G1 X-15 Y65 F2000 ; fast wipe
G1 X-17 Y70 F2000 ; fast wipe
G1 X-15 Y60 F2000 ; fast wipe
G1 X-17 Y55 F2000 ; fast wipe
G1 X-15 Y50 F2000 ; fast wipe
G1 X-17 Y40 F2000 ; fast wipe
G1 X-15 Y45 F2000 ; fast wipe
G1 X-17 Y35 F2000 ; fast wipe
G1 X-15 Y40 F2000 ; fast wipe
G1 X-17 Y70 F2000 ; fast wipe
G1 X-15 Y30 Z2 F2000 ; fast wipe
G1 X-17 Y35 F2000 ; fast wipe
G1 X-15 Y25 F2000 ; fast wipe
G1 X-17 Y30 F2000 ; fast wipe
G1 X-15 Y25 Z1.5 F1000 ; slow wipe
G1 X-17 Y23 F1000 ; slow wipe
G1 Z10 ; raise extruder
M109 R160 ; wait for extruder to reach probe temp
G1 X-9 Y-9 ; move above first probe point
M204 S100 ; set probing acceleration
G29       ; start auto-leveling sequence
M420 S1   ; activate bed level matrix
M425 Z    ; use measured Z backlash for compensation
M425 Z F0 ; turn off measured Z backlash compensation. (if activated in the quality settings, this command will automatically be ignored)
M204 S500 ; restore standard acceleration
G1 X0 Y0 Z15 F5000 ; move up off last probe point
G4 S1 ; pause
M400 ; wait for moves to finish
M117 Heating... ; progress indicator message on LCD
M109 R215 ; wait for extruder to reach printing temp
M190 R55.0 ; wait for bed to reach printing temp
G1 Z2 E0 F75 ; prime tiny bit of filament into the nozzle
M117 TAZ Workhorse Printing... ; progress indicator message on LCD

M221 S100 T0
G92 E0
G1 F600 E-2
;LAYER_COUNT:5
;LAYER:0
M107
G0 F4200 X170.75 Y116.146 Z0.4
;TYPE:SKIRT
G1 F900 E0
G1 X170.75 Y165.854 E1.55839
G1 X170.71 Y166.469 E1.57771
G1 X170.591 Y167.073 E1.59701
G1 X170.394 Y167.657 E1.61634
G1 X170.124 Y168.211 E1.63566
G1 X169.784 Y168.725 E1.65498
G1 X169.359 Y169.213 E1.67527
G1 X169.213 Y169.359 E1.68174
G1 X168.75 Y169.765 E1.70105
G1 X168.238 Y170.108 E1.72037
G1 X167.686 Y170.382 E1.73969
G1 X167.104 Y170.583 E1.75899
G1 X166.5 Y170.706 E1.77831
G1 X165.854 Y170.75 E1.79861
G1 X116.146 Y170.75 E3.35701
G1 X115.531 Y170.71 E3.37633
G1 X114.927 Y170.591 E3.39563
G1 X114.343 Y170.394 E3.41495
G1 X113.789 Y170.124 E3.43427
G1 X113.275 Y169.784 E3.45359
G1 X112.787 Y169.359 E3.47388
G1 X112.641 Y169.213 E3.48035
G1 X112.235 Y168.75 E3.49966
G1 X111.892 Y168.238 E3.51898
G1 X111.618 Y167.686 E3.5383
G1 X111.417 Y167.104 E3.5576
G1 X111.294 Y166.5 E3.57693
G1 X111.25 Y165.854 E3.59723
G1 X111.25 Y116.146 E5.15562
G1 X111.29 Y115.531 E5.17494
G1 X111.409 Y114.927 E5.19424
G1 X111.606 Y114.343 E5.21356
G1 X111.876 Y113.789 E5.23289
G1 X112.216 Y113.275 E5.25221
G1 X112.641 Y112.787 E5.27249
G1 X112.787 Y112.641 E5.27897
G1 X113.25 Y112.235 E5.29827
G1 X113.762 Y111.892 E5.31759
G1 X114.314 Y111.618 E5.33691
G1 X114.896 Y111.417 E5.35622
G1 X115.5 Y111.294 E5.37554
G1 X116.146 Y111.25 E5.39584
G1 X165.854 Y111.25 E6.95423
G1 X166.469 Y111.29 E6.97356
G1 X167.073 Y111.409 E6.99286
G1 X167.657 Y111.606 E7.01218
G1 X168.211 Y111.876 E7.0315
G1 X168.725 Y112.216 E7.05082
G1 X169.213 Y112.641 E7.07111
G1 X169.359 Y112.787 E7.07758
G1 X169.765 Y113.25 E7.09689
G1 X170.108 Y113.762 E7.11621
G1 X170.382 Y114.314 E7.13553
G1 X170.583 Y114.896 E7.15483
G1 X170.706 Y115.5 E7.17416
G1 X170.75 Y116.146 E7.19446
G0 F4200 X170.25 Y116.146
G1 F900 X170.25 Y165.854 E8.75285
G1 X170.21 Y166.435 E8.77111
G1 X170.091 Y167.006 E8.78939
G1 X169.895 Y167.555 E8.80767
G1 X169.626 Y168.071 E8.82591
G1 X169.288 Y168.547 E8.84421
G1 X169.005 Y168.859 E8.85742
G1 X168.859 Y169.005 E8.86389
G1 X168.42 Y169.388 E8.88216
G1 X167.932 Y169.707 E8.90044
G1 X167.406 Y169.957 E8.91869
G1 X166.85 Y170.132 E8.93697
G1 X166.275 Y170.229 E8.95525
G1 X165.854 Y170.25 E8.96847
G1 X116.146 Y170.25 E10.52686
G1 X115.565 Y170.21 E10.54512
G1 X114.994 Y170.091 E10.5634
G1 X114.445 Y169.895 E10.58168
G1 X113.929 Y169.626 E10.59992
G1 X113.453 Y169.288 E10.61822
G1 X113.141 Y169.005 E10.63143
G1 X112.995 Y168.859 E10.6379
G1 X112.612 Y168.42 E10.65617
G1 X112.293 Y167.932 E10.67444
G1 X112.043 Y167.406 E10.6927
G1 X111.868 Y166.85 E10.71098
G1 X111.771 Y166.275 E10.72926
G1 X111.75 Y165.854 E10.74247
G1 X111.75 Y116.146 E12.30087
G1 X111.79 Y115.565 E12.31912
G1 X111.909 Y114.994 E12.33741
G1 X112.105 Y114.445 E12.35569
G1 X112.374 Y113.929 E12.37393
G1 X112.712 Y113.453 E12.39223
G1 X112.995 Y113.141 E12.40544
G1 X113.141 Y112.995 E12.41191
G1 X113.58 Y112.612 E12.43018
G1 X114.068 Y112.293 E12.44845
G1 X114.594 Y112.043 E12.46671
G1 X115.15 Y111.868 E12.48499
G1 X115.725 Y111.771 E12.50327
G1 X116.146 Y111.75 E12.51648
G1 X165.854 Y111.75 E14.07487
G1 X166.435 Y111.79 E14.09313
G1 X167.006 Y111.909 E14.11142
G1 X167.555 Y112.105 E14.12969
G1 X168.071 Y112.374 E14.14794
G1 X168.547 Y112.712 E14.16624
G1 X168.859 Y112.995 E14.17945
G1 X169.005 Y113.141 E14.18592
G1 X169.388 Y113.58 E14.20418
G1 X169.707 Y114.068 E14.22246
G1 X169.957 Y114.594 E14.24072
G1 X170.132 Y115.15 E14.25899
G1 X170.229 Y115.725 E14.27728
G1 X170.25 Y116.146 E14.29049
G0 F4200 X169.75 Y116.146
G1 F900 X169.75 Y165.854 E15.84888
G1 X169.71 Y166.4 E15.86605
G1 X169.591 Y166.934 E15.8832
G1 X169.396 Y167.445 E15.90035
G1 X169.128 Y167.923 E15.91753
G1 X168.652 Y168.506 E15.94112
G1 X168.506 Y168.652 E15.9476
G1 X168.091 Y169.009 E15.96476
G1 X167.629 Y169.303 E15.98193
G1 X167.13 Y169.526 E15.99906
G1 X166.603 Y169.674 E16.01622
G1 X165.854 Y169.75 E16.03982
G1 X116.146 Y169.75 E17.59822
G1 X115.6 Y169.71 E17.61538
G1 X115.066 Y169.591 E17.63253
G1 X114.555 Y169.396 E17.64968
G1 X114.077 Y169.128 E17.66686
G1 X113.494 Y168.652 E17.69046
G1 X113.348 Y168.506 E17.69693
G1 X112.991 Y168.091 E17.71409
G1 X112.697 Y167.629 E17.73126
G1 X112.474 Y167.13 E17.74839
G1 X112.326 Y166.603 E17.76556
G1 X112.25 Y165.854 E17.78916
G1 X112.25 Y116.146 E19.34755
G1 X112.29 Y115.6 E19.36471
G1 X112.409 Y115.066 E19.38187
G1 X112.604 Y114.555 E19.39901
G1 X112.872 Y114.077 E19.41619
G1 X113.348 Y113.494 E19.43979
G1 X113.494 Y113.348 E19.44626
G1 X113.909 Y112.991 E19.46342
G1 X114.371 Y112.697 E19.48059
G1 X114.87 Y112.474 E19.49773
G1 X115.397 Y112.326 E19.51489
G1 X116.146 Y112.25 E19.53849
G1 X165.854 Y112.25 E21.09688
G1 X166.4 Y112.29 E21.11405
G1 X166.934 Y112.409 E21.1312
G1 X167.445 Y112.604 E21.14835
G1 X167.923 Y112.872 E21.16553
G1 X168.506 Y113.348 E21.18912
G1 X168.652 Y113.494 E21.1956
G1 X169.009 Y113.909 E21.21276
G1 X169.303 Y114.371 E21.22993
G1 X169.526 Y114.87 E21.24706
G1 X169.674 Y115.397 E21.26422
G1 X169.75 Y116.146 E21.28782
G0 F4200 X169.25 Y116.146
G1 F900 X169.25 Y165.854 E22.84622
G1 X169.21 Y166.362 E22.86219
G1 X169.091 Y166.857 E22.87815
G1 X168.896 Y167.328 E22.89413
G1 X168.63 Y167.763 E22.91012
G1 X168.298 Y168.152 E22.92615
G1 X168.152 Y168.298 E22.93263
G1 X167.765 Y168.629 E22.94859
G1 X167.33 Y168.895 E22.96458
G1 X166.86 Y169.09 E22.98053
G1 X166.364 Y169.21 E22.99653
G1 X165.854 Y169.25 E23.01257
G1 X116.146 Y169.25 E24.57096
G1 X115.638 Y169.21 E24.58693
G1 X115.143 Y169.091 E24.60289
G1 X114.672 Y168.896 E24.61888
G1 X114.237 Y168.63 E24.63486
G1 X113.848 Y168.298 E24.6509
G1 X113.702 Y168.152 E24.65737
G1 X113.371 Y167.765 E24.67333
G1 X113.105 Y167.33 E24.68932
G1 X112.91 Y166.86 E24.70527
G1 X112.79 Y166.364 E24.72127
G1 X112.75 Y165.854 E24.73731
G1 X112.75 Y116.146 E26.2957
G1 X112.79 Y115.638 E26.31168
G1 X112.909 Y115.143 E26.32764
G1 X113.104 Y114.672 E26.34362
G1 X113.37 Y114.237 E26.3596
G1 X113.702 Y113.848 E26.37564
G1 X113.848 Y113.702 E26.38211
G1 X114.235 Y113.371 E26.39808
G1 X114.67 Y113.105 E26.41406
G1 X115.14 Y112.91 E26.43001
G1 X115.636 Y112.79 E26.44601
G1 X116.146 Y112.75 E26.46205
G1 X165.854 Y112.75 E28.02044
G1 X166.362 Y112.79 E28.03642
G1 X166.857 Y112.909 E28.05238
G1 X167.328 Y113.104 E28.06836
G1 X167.763 Y113.37 E28.08435
G1 X168.152 Y113.702 E28.10038
G1 X168.298 Y113.848 E28.10685
G1 X168.629 Y114.235 E28.12282
G1 X168.895 Y114.67 E28.1388
G1 X169.09 Y115.14 E28.15476
G1 X169.21 Y115.636 E28.17075
G1 X169.25 Y116.146 E28.18679
G0 F4200 X168.75 Y116.146
G1 F900 X168.75 Y165.854 E29.74518
G1 X168.71 Y166.321 E29.75988
G1 X168.591 Y166.774 E29.77456
G1 X168.398 Y167.201 E29.78925
G1 X168.134 Y167.588 E29.80394
G1 X167.945 Y167.799 E29.81282
G1 X167.799 Y167.945 E29.81929
G1 X167.44 Y168.246 E29.83398
G1 X167.036 Y168.483 E29.84867
G1 X166.597 Y168.648 E29.86337
G1 X166.137 Y168.735 E29.87805
G1 X165.854 Y168.75 E29.88693
G1 X116.146 Y168.75 E31.44532
G1 X115.679 Y168.71 E31.46002
G1 X115.226 Y168.591 E31.4747
G1 X114.799 Y168.398 E31.48939
G1 X114.412 Y168.134 E31.50408
G1 X114.201 Y167.945 E31.51296
G1 X114.055 Y167.799 E31.51943
G1 X113.754 Y167.44 E31.53412
G1 X113.517 Y167.036 E31.54881
G1 X113.352 Y166.597 E31.56351
G1 X113.265 Y166.137 E31.57819
G1 X113.25 Y165.854 E31.58707
G1 X113.25 Y116.146 E33.14546
G1 X113.29 Y115.679 E33.16016
G1 X113.409 Y115.226 E33.17484
G1 X113.602 Y114.799 E33.18953
G1 X113.866 Y114.412 E33.20422
G1 X114.055 Y114.201 E33.2131
G1 X114.201 Y114.055 E33.21957
G1 X114.56 Y113.754 E33.23426
G1 X114.964 Y113.517 E33.24894
G1 X115.403 Y113.352 E33.26365
G1 X115.863 Y113.265 E33.27832
G1 X116.146 Y113.25 E33.28721
G1 X165.854 Y113.25 E34.8456
G1 X166.321 Y113.29 E34.8603
G1 X166.774 Y113.409 E34.87498
G1 X167.201 Y113.602 E34.88967
G1 X167.588 Y113.866 E34.90436
G1 X167.799 Y114.055 E34.91324
G1 X167.945 Y114.201 E34.91971
G1 X168.246 Y114.56 E34.9344
G1 X168.483 Y114.964 E34.94908
G1 X168.648 Y115.403 E34.96379
G1 X168.735 Y115.863 E34.97846
G1 X168.75 Y116.146 E34.98735
G0 F4200 X168.25 Y116.146
G1 F900 X168.25 Y165.854 E36.54574
G1 X168.21 Y166.276 E36.55903
G1 X168.092 Y166.683 E36.57231
G1 X167.899 Y167.06 E36.58559
G1 X167.591 Y167.445 E36.60105
G1 X167.445 Y167.591 E36.60752
G1 X167.118 Y167.861 E36.62082
G1 X166.747 Y168.065 E36.63409
G1 X166.344 Y168.196 E36.64738
G1 X165.854 Y168.25 E36.66283
G1 X116.146 Y168.25 E38.22122
G1 X115.724 Y168.21 E38.23451
G1 X115.317 Y168.092 E38.2478
G1 X114.94 Y167.899 E38.26108
G1 X114.555 Y167.591 E38.27653
G1 X114.409 Y167.445 E38.28301
G1 X114.139 Y167.118 E38.2963
G1 X113.935 Y166.747 E38.30957
G1 X113.804 Y166.344 E38.32286
G1 X113.75 Y165.854 E38.33832
G1 X113.75 Y116.146 E39.89671
G1 X113.79 Y115.724 E39.91
G1 X113.908 Y115.317 E39.92328
G1 X114.101 Y114.94 E39.93656
G1 X114.409 Y114.555 E39.95202
G1 X114.555 Y114.409 E39.95849
G1 X114.882 Y114.139 E39.97178
G1 X115.253 Y113.935 E39.98506
G1 X115.656 Y113.804 E39.99834
G1 X116.146 Y113.75 E40.0138
G1 X165.854 Y113.75 E41.57219
G1 X166.276 Y113.79 E41.58548
G1 X166.683 Y113.908 E41.59877
G1 X167.06 Y114.101 E41.61204
G1 X167.445 Y114.409 E41.6275
G1 X167.591 Y114.555 E41.63397
G1 X167.861 Y114.882 E41.64727
G1 X168.065 Y115.253 E41.66054
G1 X168.196 Y115.656 E41.67383
G1 X168.25 Y116.146 E41.68928
G0 F4200 X167.75 Y116.146
G1 F900 X167.75 Y165.854 E43.24767
G1 X167.71 Y166.225 E43.25937
G1 X167.592 Y166.58 E43.2711
G1 X167.402 Y166.902 E43.28282
G1 X167.237 Y167.091 E43.29069
G1 X167.091 Y167.237 E43.29716
G1 X166.801 Y167.472 E43.30886
G1 X166.467 Y167.639 E43.32057
G1 X166.105 Y167.732 E43.33229
G1 X165.854 Y167.75 E43.34018
G1 X116.146 Y167.75 E44.89857
G1 X115.775 Y167.71 E44.91027
G1 X115.42 Y167.592 E44.922
G1 X115.098 Y167.402 E44.93372
G1 X114.909 Y167.237 E44.94158
G1 X114.763 Y167.091 E44.94806
G1 X114.528 Y166.801 E44.95976
G1 X114.361 Y166.467 E44.97147
G1 X114.268 Y166.105 E44.98318
G1 X114.25 Y165.854 E44.99107
G1 X114.25 Y116.146 E46.54946
G1 X114.29 Y115.775 E46.56116
G1 X114.408 Y115.42 E46.57289
G1 X114.598 Y115.098 E46.58461
G1 X114.763 Y114.909 E46.59248
G1 X114.909 Y114.763 E46.59895
G1 X115.199 Y114.528 E46.61065
G1 X115.533 Y114.361 E46.62236
G1 X115.895 Y114.268 E46.63408
G1 X116.146 Y114.25 E46.64197
G1 X165.854 Y114.25 E48.20036
G1 X166.225 Y114.29 E48.21206
G1 X166.58 Y114.408 E48.22379
G1 X166.902 Y114.598 E48.23551
G1 X167.091 Y114.763 E48.24337
G1 X167.237 Y114.909 E48.24985
G1 X167.472 Y115.199 E48.26155
G1 X167.639 Y115.533 E48.27326
G1 X167.732 Y115.895 E48.28497
G1 X167.75 Y116.146 E48.29286
G0 F4200 X167.25 Y116.146
G1 F900 X167.25 Y165.854 E49.85126
G1 X167.21 Y166.167 E49.86115
G1 X167.093 Y166.46 E49.87104
G1 X166.884 Y166.738 E49.88194
G1 X166.738 Y166.884 E49.88842
G1 X166.488 Y167.077 E49.89832
G1 X166.198 Y167.202 E49.90822
G1 X165.854 Y167.25 E49.91911
G1 X116.146 Y167.25 E51.4775
G1 X115.833 Y167.21 E51.48739
G1 X115.54 Y167.093 E51.49728
G1 X115.262 Y166.884 E51.50819
G1 X115.116 Y166.738 E51.51466
G1 X114.923 Y166.488 E51.52456
G1 X114.798 Y166.198 E51.53446
G1 X114.75 Y165.854 E51.54535
G1 X114.75 Y116.146 E53.10374
G1 X114.79 Y115.833 E53.11364
G1 X114.907 Y115.54 E53.12353
G1 X115.116 Y115.262 E53.13443
G1 X115.262 Y115.116 E53.1409
G1 X115.512 Y114.923 E53.15081
G1 X115.802 Y114.798 E53.16071
G1 X116.146 Y114.75 E53.17159
G1 X165.854 Y114.75 E54.72999
G1 X166.167 Y114.79 E54.73988
G1 X166.46 Y114.907 E54.74977
G1 X166.738 Y115.116 E54.76067
G1 X166.884 Y115.262 E54.76715
G1 X167.077 Y115.512 E54.77705
G1 X167.202 Y115.802 E54.78695
G1 X167.25 Y116.146 E54.79784
G0 F4200 X166.75 Y116.146
G1 F900 X166.75 Y165.854 E56.35623
G1 X166.71 Y166.095 E56.36389
G1 X166.53 Y166.384 E56.37456
G1 X166.384 Y166.53 E56.38104
G1 X166.186 Y166.673 E56.38869
G1 X165.854 Y166.75 E56.39938
G1 X116.146 Y166.75 E57.95777
G1 X115.905 Y166.71 E57.96543
G1 X115.616 Y166.53 E57.9761
G1 X115.47 Y166.384 E57.98258
G1 X115.327 Y166.186 E57.99023
G1 X115.25 Y165.854 E58.00092
G1 X115.25 Y116.146 E59.55931
G1 X115.29 Y115.905 E59.56697
G1 X115.47 Y115.616 E59.57764
G1 X115.616 Y115.47 E59.58412
G1 X115.814 Y115.327 E59.59177
G1 X116.146 Y115.25 E59.60246
G1 X165.854 Y115.25 E61.16085
G1 X166.095 Y115.29 E61.16851
G1 X166.384 Y115.47 E61.17918
G1 X166.53 Y115.616 E61.18566
G1 X166.673 Y115.814 E61.19331
G1 X166.75 Y116.146 E61.204
G0 F4200 X166.25 Y116.146
G1 F900 X166.25 Y165.854 E62.76239
G1 X166.177 Y166.031 E62.76839
G1 X166.031 Y166.177 E62.77487
G1 X165.854 Y166.25 E62.78087
G1 X116.146 Y166.25 E64.33926
G1 X115.969 Y166.177 E64.34526
G1 X115.823 Y166.031 E64.35174
G1 X115.75 Y165.854 E64.35774
G1 X115.75 Y116.146 E65.91613
G1 X115.823 Y115.969 E65.92213
G1 X115.969 Y115.823 E65.92861
G1 X116.146 Y115.75 E65.93461
G1 X165.854 Y115.75 E67.493
G1 X166.031 Y115.823 E67.499
G1 X166.177 Y115.969 E67.50548
G1 X166.25 Y116.146 E67.51148
G1 F600 E65.51148
;MESH:
G0 F4200 X160.55 Y119.793
;TYPE:WALL-OUTER
G1 F900 E67.51148
G1 X160.224 Y119.929 E67.52255
G1 X159.944 Y120.144 E67.53362
G1 X159.729 Y120.424 E67.54469
G1 X159.593 Y120.75 E67.55576
G1 X159.548 Y121.1 E67.56683
G1 X159.593 Y121.45 E67.57789
G1 X159.729 Y121.776 E67.58896
G1 X159.944 Y122.056 E67.60003
G1 X160.224 Y122.271 E67.6111
G1 X160.55 Y122.407 E67.62217
