;Generated by Cura LulzBot Edition GCodeWriter Version: 3.6.20
;FLAVOR:Marlin
;TIME:1131
;Filament used: 0.125484m
;Layer height: 0.15
;Generated with Cura_SteamEngine 3.6.20
M82 ;absolute extrusion mode
;This G-Code has been generated specifically for the LulzBot TAZ Workhorse with HE 0.5mm Tool Head
M73 P0 ; clear GLCD progress bar
M75 ; start GLCD timer
G26 ; clear potential 'probe fail' condition
M107 ; disable fans
M420 S0 ; disable previous leveling matrix
G90 ; absolute positioning
M82 ; set extruder to absolute mode
G92 E0 ; set extruder position to 0
M140 S55.0 ; start bed heating up
M109 R180 ; soften filament before homing Z
G28 ; Home all axis
G1 E-30 F100 ; retract filament
M109 R170 ; wait for extruder to reach wiping temp
G1 X-15 Y100 F3000 ; move above wiper pad
G1 Z1 ; push nozzle into wiper
G1 X-17 Y95 F1000 ; slow wipe
G1 X-17 Y90 F1000 ; slow wipe
G1 X-17 Y85 F1000 ; slow wipe
G1 X-15 Y90 F1000 ; slow wipe
G1 X-17 Y80 F1000 ; slow wipe
G1 X-15 Y95 F1000 ; slow wipe
G1 X-17 Y75 F2000 ; fast wipe
G1 X-15 Y65 F2000 ; fast wipe
G1 X-17 Y70 F2000 ; fast wipe
G1 X-15 Y60 F2000 ; fast wipe
G1 X-17 Y55 F2000 ; fast wipe
G1 X-15 Y50 F2000 ; fast wipe
G1 X-17 Y40 F2000 ; fast wipe
G1 X-15 Y45 F2000 ; fast wipe
G1 X-17 Y35 F2000 ; fast wipe
G1 X-15 Y40 F2000 ; fast wipe
G1 X-17 Y70 F2000 ; fast wipe
G1 X-15 Y30 Z2 F2000 ; fast wipe
G1 X-17 Y35 F2000 ; fast wipe
G1 X-15 Y25 F2000 ; fast wipe
G1 X-17 Y30 F2000 ; fast wipe
G1 X-15 Y25 Z1.5 F1000 ; slow wipe
G1 X-17 Y23 F1000 ; slow wipe
G1 Z10 ; raise extruder
M109 R160 ; wait for extruder to reach probe temp
G1 X-9 Y-9 ; move above first probe point
M204 S100 ; set probing acceleration
G29       ; start auto-leveling sequence
M420 S1   ; activate bed level matrix
M425 Z    ; use measured Z backlash for compensation
M425 Z F0 ; turn off measured Z backlash compensation. (if activated in the quality settings, this command will automatically be ignored)
M204 S500 ; restore standard acceleration
G1 X0 Y0 Z15 F5000 ; move up off last probe point
G4 S1 ; pause
M400 ; wait for moves to finish
M117 Heating... ; progress indicator message on LCD
M109 R215 ; wait for extruder to reach printing temp
M190 R55.0 ; wait for bed to reach printing temp
G1 Z2 E0 F75 ; prime tiny bit of filament into the nozzle
M117 TAZ Workhorse Printing... ; progress indicator message on LCD

M221 S100 T0
G92 E0
G1 F600 E-1
;LAYER_COUNT:39
;LAYER:0
M107
G0 F4200 X151 Y153.25 Z0.35
;TYPE:SKIRT
G1 F600 E0
G1 X131 Y153.25 E0.54864
G1 X130.118 Y153.21 E0.57286
G1 X129.243 Y153.09 E0.59709
G1 X128.383 Y152.892 E0.6213
G1 X127.544 Y152.617 E0.64552
G1 X126.733 Y152.267 E0.66975
G1 X125.958 Y151.845 E0.69396
G1 X125.223 Y151.354 E0.7182
G1 X124.536 Y150.8 E0.74241
G1 X123.903 Y150.185 E0.76662
G1 X123.327 Y149.516 E0.79084
G1 X122.814 Y148.797 E0.81507
G1 X122.369 Y148.034 E0.8393
G1 X121.994 Y147.235 E0.86351
G1 X121.693 Y146.405 E0.88773
G1 X121.468 Y145.551 E0.91196
G1 X121.322 Y144.68 E0.93619
G1 X121.25 Y143.5 E0.96862
G1 X121.25 Y138.5 E1.10578
G1 X121.29 Y137.618 E1.13
G1 X121.41 Y136.743 E1.15422
G1 X121.608 Y135.883 E1.17843
G1 X121.883 Y135.044 E1.20265
G1 X122.233 Y134.233 E1.22688
G1 X122.655 Y133.458 E1.25109
G1 X123.146 Y132.723 E1.27534
G1 X123.7 Y132.036 E1.29955
G1 X124.315 Y131.403 E1.32376
G1 X124.984 Y130.827 E1.34798
G1 X125.703 Y130.314 E1.37221
G1 X126.466 Y129.869 E1.39644
G1 X127.265 Y129.494 E1.42065
G1 X128.095 Y129.193 E1.44487
G1 X128.949 Y128.968 E1.46909
G1 X129.82 Y128.822 E1.49332
G1 X131 Y128.75 E1.52575
G1 X151 Y128.75 E2.07439
G1 X151.882 Y128.79 E2.09861
G1 X152.757 Y128.91 E2.12284
G1 X153.617 Y129.108 E2.14705
G1 X154.456 Y129.383 E2.17127
G1 X155.267 Y129.733 E2.1955
G1 X156.042 Y130.155 E2.21971
G1 X156.777 Y130.646 E2.24395
G1 X157.464 Y131.2 E2.26816
G1 X158.097 Y131.815 E2.29237
G1 X158.673 Y132.484 E2.31659
G1 X159.186 Y133.203 E2.34082
G1 X159.631 Y133.966 E2.36505
G1 X160.006 Y134.765 E2.38926
G1 X160.307 Y135.595 E2.41348
G1 X160.532 Y136.449 E2.43771
G1 X160.678 Y137.32 E2.46194
G1 X160.75 Y138.5 E2.49437
G1 X160.75 Y143.5 E2.63153
G1 X160.71 Y144.382 E2.65575
G1 X160.59 Y145.257 E2.67997
G1 X160.392 Y146.117 E2.70418
G1 X160.117 Y146.956 E2.7284
G1 X159.767 Y147.767 E2.75263
G1 X159.345 Y148.542 E2.77684
G1 X158.854 Y149.277 E2.80109
G1 X158.3 Y149.964 E2.8253
G1 X157.685 Y150.597 E2.84951
G1 X157.016 Y151.173 E2.87373
G1 X156.297 Y151.686 E2.89796
G1 X155.534 Y152.131 E2.92219
G1 X154.735 Y152.506 E2.9464
G1 X153.905 Y152.807 E2.97062
G1 X153.051 Y153.032 E2.99484
G1 X152.18 Y153.178 E3.01907
G1 X151 Y153.25 E3.0515
G0 F4200 X151 Y152.75
G1 F600 X131 Y152.75 E3.60014
G1 X130.141 Y152.71 E3.62373
G1 X129.289 Y152.59 E3.64734
G1 X128.452 Y152.392 E3.67093
G1 X127.638 Y152.117 E3.6945
G1 X126.852 Y151.768 E3.71809
G1 X126.102 Y151.347 E3.74168
G1 X125.394 Y150.858 E3.76529
G1 X124.735 Y150.306 E3.78887
G1 X124.13 Y149.694 E3.81248
G1 X123.585 Y149.029 E3.83606
G1 X123.103 Y148.317 E3.85965
G1 X122.69 Y147.563 E3.88323
G1 X122.349 Y146.773 E3.90684
G1 X122.082 Y145.956 E3.93042
G1 X121.892 Y145.117 E3.95401
G1 X121.782 Y144.264 E3.97761
G1 X121.75 Y143.5 E3.99858
G1 X121.75 Y138.5 E4.13574
G1 X121.79 Y137.641 E4.15933
G1 X121.91 Y136.789 E4.18294
G1 X122.108 Y135.952 E4.20653
G1 X122.383 Y135.138 E4.2301
G1 X122.732 Y134.352 E4.25369
G1 X123.153 Y133.602 E4.27729
G1 X123.642 Y132.894 E4.30089
G1 X124.194 Y132.235 E4.32447
G1 X124.806 Y131.63 E4.34808
G1 X125.471 Y131.085 E4.37166
G1 X126.183 Y130.603 E4.39525
G1 X126.937 Y130.19 E4.41883
G1 X127.727 Y129.849 E4.44244
G1 X128.544 Y129.582 E4.46602
G1 X129.383 Y129.392 E4.48961
G1 X130.236 Y129.282 E4.51321
G1 X131 Y129.25 E4.53418
G1 X151 Y129.25 E5.08283
G1 X151.859 Y129.29 E5.10642
G1 X152.711 Y129.41 E5.13002
G1 X153.548 Y129.608 E5.15361
G1 X154.362 Y129.883 E5.17718
G1 X155.148 Y130.232 E5.20077
G1 X155.898 Y130.653 E5.22437
G1 X156.606 Y131.142 E5.24797
G1 X157.265 Y131.694 E5.27155
G1 X157.87 Y132.306 E5.29516
G1 X158.415 Y132.971 E5.31875
G1 X158.897 Y133.683 E5.34233
G1 X159.31 Y134.437 E5.36592
G1 X159.651 Y135.227 E5.38952
G1 X159.918 Y136.044 E5.4131
G1 X160.108 Y136.883 E5.4367
G1 X160.218 Y137.736 E5.46029
G1 X160.25 Y138.5 E5.48127
G1 X160.25 Y143.5 E5.61843
G1 X160.21 Y144.359 E5.64202
G1 X160.09 Y145.211 E5.66562
G1 X159.892 Y146.048 E5.68921
G1 X159.617 Y146.862 E5.71278
G1 X159.268 Y147.648 E5.73637
G1 X158.847 Y148.398 E5.75997
G1 X158.358 Y149.106 E5.78357
G1 X157.806 Y149.765 E5.80715
G1 X157.194 Y150.37 E5.83076
G1 X156.529 Y150.915 E5.85435
G1 X155.817 Y151.397 E5.87793
G1 X155.063 Y151.81 E5.90152
G1 X154.273 Y152.151 E5.92512
G1 X153.456 Y152.418 E5.9487
G1 X152.617 Y152.608 E5.9723
G1 X151.764 Y152.718 E5.99589
G1 X151 Y152.75 E6.01687
G0 F4200 X151 Y152.25
G1 F600 X131 Y152.25 E6.56551
G1 X130.165 Y152.21 E6.58844
G1 X129.337 Y152.09 E6.61139
G1 X128.524 Y151.892 E6.63435
G1 X127.734 Y151.618 E6.65728
G1 X126.974 Y151.269 E6.68023
G1 X126.251 Y150.849 E6.70316
G1 X125.571 Y150.362 E6.72611
G1 X124.94 Y149.812 E6.74907
G1 X124.365 Y149.205 E6.772
G1 X123.851 Y148.545 E6.79495
G1 X123.402 Y147.839 E6.8179
G1 X123.022 Y147.094 E6.84085
G1 X122.715 Y146.316 E6.86379
G1 X122.484 Y145.512 E6.88674
G1 X122.331 Y144.69 E6.90967
G1 X122.25 Y143.5 E6.94239
G1 X122.25 Y138.5 E7.07955
G1 X122.29 Y137.665 E7.10249
G1 X122.41 Y136.837 E7.12544
G1 X122.608 Y136.024 E7.14839
G1 X122.882 Y135.234 E7.17133
G1 X123.231 Y134.474 E7.19427
G1 X123.651 Y133.751 E7.21721
G1 X124.138 Y133.071 E7.24015
G1 X124.688 Y132.44 E7.26311
G1 X125.295 Y131.865 E7.28605
G1 X125.955 Y131.351 E7.309
G1 X126.661 Y130.902 E7.33195
G1 X127.406 Y130.522 E7.35489
G1 X128.184 Y130.215 E7.37784
G1 X128.988 Y129.984 E7.40078
G1 X129.81 Y129.831 E7.42372
G1 X131 Y129.75 E7.45644
G1 X151 Y129.75 E8.00508
G1 X151.835 Y129.79 E8.02801
G1 X152.663 Y129.91 E8.05096
G1 X153.476 Y130.108 E8.07392
G1 X154.266 Y130.382 E8.09686
G1 X155.026 Y130.731 E8.1198
G1 X155.749 Y131.151 E8.14273
G1 X156.429 Y131.638 E8.16568
G1 X157.06 Y132.188 E8.18864
G1 X157.635 Y132.795 E8.21158
G1 X158.149 Y133.455 E8.23452
G1 X158.598 Y134.161 E8.25748
G1 X158.978 Y134.906 E8.28042
G1 X159.285 Y135.684 E8.30336
G1 X159.516 Y136.488 E8.32631
G1 X159.669 Y137.31 E8.34925
G1 X159.75 Y138.5 E8.38197
G1 X159.75 Y143.5 E8.51913
G1 X159.71 Y144.335 E8.54206
G1 X159.59 Y145.163 E8.56501
G1 X159.392 Y145.976 E8.58796
G1 X159.118 Y146.766 E8.6109
G1 X158.769 Y147.526 E8.63384
G1 X158.349 Y148.249 E8.65678
G1 X157.862 Y148.929 E8.67972
G1 X157.312 Y149.56 E8.70269
G1 X156.705 Y150.135 E8.72562
G1 X156.045 Y150.649 E8.74857
G1 X155.339 Y151.098 E8.77152
G1 X154.594 Y151.478 E8.79446
G1 X153.816 Y151.785 E8.81741
G1 X153.012 Y152.016 E8.84036
G1 X152.19 Y152.169 E8.86329
G1 X151 Y152.25 E8.89601
G0 F4200 X151 Y151.75
G1 F600 X131 Y151.75 E9.44465
G1 X130.189 Y151.71 E9.46693
G1 X129.386 Y151.59 E9.4892
G1 X128.598 Y151.393 E9.51148
G1 X127.833 Y151.118 E9.53378
G1 X127.1 Y150.77 E9.55604
G1 X126.404 Y150.351 E9.57833
G1 X125.753 Y149.866 E9.6006
G1 X125.152 Y149.319 E9.62289
G1 X124.608 Y148.716 E9.64517
G1 X124.126 Y148.062 E9.66745
G1 X123.711 Y147.364 E9.68973
G1 X123.366 Y146.629 E9.712
G1 X123.096 Y145.863 E9.73428
G1 X122.902 Y145.075 E9.75654
G1 X122.786 Y144.271 E9.77883
G1 X122.75 Y143.5 E9.8
G1 X122.75 Y138.5 E9.93716
G1 X122.79 Y137.689 E9.95944
G1 X122.91 Y136.886 E9.98171
G1 X123.107 Y136.098 E10.00399
G1 X123.382 Y135.333 E10.02629
G1 X123.73 Y134.6 E10.04855
G1 X124.149 Y133.904 E10.07084
G1 X124.634 Y133.253 E10.0931
G1 X125.181 Y132.652 E10.1154
G1 X125.784 Y132.108 E10.13768
G1 X126.438 Y131.626 E10.15996
G1 X127.136 Y131.211 E10.18224
G1 X127.871 Y130.866 E10.20451
G1 X128.637 Y130.596 E10.22679
G1 X129.425 Y130.402 E10.24905
G1 X130.229 Y130.286 E10.27134
G1 X131 Y130.25 E10.29251
G1 X151 Y130.25 E10.84115
G1 X151.811 Y130.29 E10.86343
G1 X152.614 Y130.41 E10.8857
G1 X153.402 Y130.607 E10.90798
G1 X154.167 Y130.882 E10.93028
G1 X154.9 Y131.23 E10.95254
G1 X155.596 Y131.649 E10.97483
G1 X156.247 Y132.134 E10.99709
G1 X156.848 Y132.681 E11.01939
G1 X157.392 Y133.284 E11.04167
G1 X157.874 Y133.938 E11.06395
G1 X158.289 Y134.636 E11.08623
G1 X158.634 Y135.371 E11.1085
G1 X158.904 Y136.137 E11.13078
G1 X159.098 Y136.925 E11.15304
G1 X159.214 Y137.729 E11.17533
G1 X159.25 Y138.5 E11.1965
G1 X159.25 Y143.5 E11.33366
G1 X159.21 Y144.311 E11.35594
G1 X159.09 Y145.114 E11.37821
G1 X158.893 Y145.902 E11.40049
G1 X158.618 Y146.667 E11.42279
G1 X158.27 Y147.4 E11.44505
G1 X157.851 Y148.096 E11.46733
G1 X157.366 Y148.747 E11.4896
G1 X156.819 Y149.348 E11.5119
G1 X156.216 Y149.892 E11.53418
G1 X155.562 Y150.374 E11.55646
G1 X154.864 Y150.789 E11.57874
G1 X154.129 Y151.134 E11.60101
G1 X153.363 Y151.404 E11.62329
G1 X152.575 Y151.598 E11.64555
G1 X151.771 Y151.714 E11.66784
G1 X151 Y151.75 E11.68901
G0 F4200 X151 Y151.25
G1 F600 X131 Y151.25 E12.23765
G1 X130.214 Y151.21 E12.25924
G1 X129.436 Y151.091 E12.28083
G1 X128.674 Y150.893 E12.30243
G1 X127.936 Y150.619 E12.32402
G1 X127.23 Y150.271 E12.34562
G1 X126.562 Y149.854 E12.36722
G1 X125.941 Y149.371 E12.3888
G1 X125.371 Y148.827 E12.41041
G1 X124.86 Y148.229 E12.43199
G1 X124.412 Y147.582 E12.45358
G1 X124.032 Y146.892 E12.47519
G1 X123.724 Y146.168 E12.49677
G1 X123.491 Y145.416 E12.51837
G1 X123.335 Y144.645 E12.53995
G1 X123.25 Y143.5 E12.57144
G1 X123.25 Y138.5 E12.7086
G1 X123.29 Y137.714 E12.73019
G1 X123.409 Y136.936 E12.75178
G1 X123.607 Y136.174 E12.77338
G1 X123.881 Y135.436 E12.79498
G1 X124.229 Y134.73 E12.81657
G1 X124.646 Y134.062 E12.83817
G1 X125.129 Y133.441 E12.85975
G1 X125.673 Y132.871 E12.88137
G1 X126.271 Y132.36 E12.90294
G1 X126.918 Y131.912 E12.92453
G1 X127.608 Y131.532 E12.94614
G1 X128.332 Y131.224 E12.96772
G1 X129.084 Y130.991 E12.98932
G1 X129.855 Y130.835 E13.0109
G1 X131 Y130.75 E13.04239
G1 X151 Y130.75 E13.59104
G1 X151.786 Y130.79 E13.61263
G1 X152.564 Y130.909 E13.63422
G1 X153.326 Y131.107 E13.65581
G1 X154.064 Y131.381 E13.67741
G1 X154.77 Y131.729 E13.699
G1 X155.438 Y132.146 E13.7206
G1 X156.059 Y132.629 E13.74218
G1 X156.629 Y133.173 E13.7638
G1 X157.14 Y133.771 E13.78538
G1 X157.588 Y134.418 E13.80696
G1 X157.968 Y135.108 E13.82857
G1 X158.276 Y135.832 E13.85016
G1 X158.509 Y136.584 E13.87175
G1 X158.665 Y137.355 E13.89333
G1 X158.75 Y138.5 E13.92483
G1 X158.75 Y143.5 E14.06199
G1 X158.71 Y144.286 E14.08358
G1 X158.591 Y145.064 E14.10517
G1 X158.393 Y145.826 E14.12676
G1 X158.119 Y146.564 E14.14836
G1 X157.771 Y147.27 E14.16995
G1 X157.354 Y147.938 E14.19155
G1 X156.871 Y148.559 E14.21314
G1 X156.327 Y149.129 E14.23475
G1 X155.729 Y149.64 E14.25633
G1 X155.082 Y150.088 E14.27792
G1 X154.392 Y150.468 E14.29952
G1 X153.668 Y150.776 E14.32111
G1 X152.916 Y151.009 E14.3427
G1 X152.145 Y151.165 E14.36428
G1 X151 Y151.25 E14.39578
G0 F4200 X151 Y150.75
G1 F600 X131 Y150.75 E14.94442
G1 X130.24 Y150.71 E14.9653
G1 X129.488 Y150.591 E14.98618
G1 X128.753 Y150.393 E15.00706
G1 X128.042 Y150.119 E15.02797
G1 X127.364 Y149.773 E15.04885
G1 X126.727 Y149.357 E15.06972
G1 X126.136 Y148.876 E15.09062
G1 X125.599 Y148.337 E15.11149
G1 X125.122 Y147.744 E15.13237
G1 X124.709 Y147.104 E15.15326
G1 X124.366 Y146.424 E15.17416
G1 X124.096 Y145.712 E15.19505
G1 X123.902 Y144.976 E15.21593
G1 X123.786 Y144.224 E15.2368
G1 X123.75 Y143.5 E15.25668
G1 X123.75 Y138.5 E15.39384
G1 X123.79 Y137.74 E15.41472
G1 X123.909 Y136.988 E15.43561
G1 X124.107 Y136.253 E15.45649
G1 X124.381 Y135.542 E15.47739
G1 X124.727 Y134.864 E15.49827
G1 X125.143 Y134.227 E15.51914
G1 X125.624 Y133.636 E15.54005
G1 X126.163 Y133.099 E15.56092
G1 X126.756 Y132.622 E15.58179
G1 X127.396 Y132.209 E15.60269
G1 X128.076 Y131.866 E15.62358
G1 X128.788 Y131.596 E15.64447
G1 X129.524 Y131.402 E15.66535
G1 X130.276 Y131.286 E15.68622
G1 X131 Y131.25 E15.70611
G1 X151 Y131.25 E16.25475
G1 X151.76 Y131.29 E16.27563
G1 X152.512 Y131.409 E16.29651
G1 X153.247 Y131.607 E16.31739
G1 X153.958 Y131.881 E16.3383
G1 X154.636 Y132.227 E16.35918
G1 X155.273 Y132.643 E16.38005
G1 X155.864 Y133.124 E16.40095
G1 X156.401 Y133.663 E16.42182
G1 X156.878 Y134.256 E16.4427
G1 X157.291 Y134.896 E16.46359
G1 X157.634 Y135.576 E16.48449
G1 X157.904 Y136.288 E16.50537
G1 X158.098 Y137.024 E16.52625
G1 X158.214 Y137.776 E16.54713
G1 X158.25 Y138.5 E16.56701
G1 X158.25 Y143.5 E16.70417
G1 X158.21 Y144.26 E16.72505
G1 X158.091 Y145.012 E16.74594
G1 X157.893 Y145.747 E16.76682
G1 X157.619 Y146.458 E16.78772
G1 X157.273 Y147.136 E16.8086
G1 X156.857 Y147.773 E16.82947
G1 X156.376 Y148.364 E16.85037
G1 X155.837 Y148.901 E16.87125
G1 X155.244 Y149.378 E16.89212
G1 X154.604 Y149.791 E16.91302
G1 X153.924 Y150.134 E16.93391
G1 X153.212 Y150.404 E16.9548
G1 X152.476 Y150.598 E16.97568
G1 X151.724 Y150.714 E16.99655
G1 X151 Y150.75 E17.01644
G0 F4200 X151 Y150.25
G1 F600 X131 Y150.25 E17.56508
G1 X130.267 Y150.21 E17.58521
G1 X129.542 Y150.091 E17.60537
G1 X128.834 Y149.893 E17.62554
G1 X128.152 Y149.62 E17.64569
G1 X127.504 Y149.274 E17.66584
G1 X126.897 Y148.86 E17.68599
G1 X126.339 Y148.383 E17.70613
G1 X125.836 Y147.847 E17.7263
G1 X125.394 Y147.26 E17.74645
G1 X125.019 Y146.629 E17.76659
G1 X124.714 Y145.961 E17.78673
G1 X124.484 Y145.263 E17.80689
G1 X124.331 Y144.544 E17.82706
G1 X124.25 Y143.5 E17.85578
G1 X124.25 Y138.5 E17.99294
G1 X124.29 Y137.767 E18.01308
G1 X124.409 Y137.042 E18.03324
G1 X124.607 Y136.334 E18.0534
G1 X124.88 Y135.652 E18.07356
G1 X125.226 Y135.004 E18.09371
G1 X125.64 Y134.397 E18.11386
G1 X126.117 Y133.839 E18.134
G1 X126.653 Y133.336 E18.15416
G1 X127.24 Y132.894 E18.17432
